;FLAVOR:Marlin
;TIME:5248
;Filament used: 4.35612m
;Layer height: 0.28
;MINX:57.039
;MINY:65.981
;MINZ:0.28
;MAXX:200.028
;MAXY:195.385
;MAXZ:7.84
;Generated with Creality Slicer 4.8.2-191
M140 S50
M105
M190 S50
M104 S200
M105
M109 S200
M82 ;absolute extrusion mode

G28 ;Home

G92 E0 ;Reset Extruder
G1 Z2.0 F3000 ;Move Z Axis up
G1 X10.1 Y20 Z0.28 F5000.0 ;Move to start position
G1 X10.1 Y200.0 Z0.28 F1500.0 E15 ;Draw the first line
G1 X10.4 Y200.0 Z0.28 F5000.0 ;Move to side a little
G1 X10.4 Y20 Z0.28 F1500.0 E30 ;Draw the second line
G92 E0 ;Reset Extruder
G1 Z2.0 F3000 ;Move Z Axis up

G92 E0
G92 E0
G1 F2700 E-3
;LAYER_COUNT:28
;LAYER:0
M107
G0 F6000 X60.925 Y68.608 Z0.28
;TYPE:SKIRT
G1 F2700 E0
G1 F1200 X61.665 Y68.032 E0.04367
G1 X62.451 Y67.52 E0.08735
G1 X63.278 Y67.078 E0.13101
G1 X64.14 Y66.708 E0.17469
G1 X65.03 Y66.412 E0.21836
G1 X65.942 Y66.194 E0.26203
G1 X66.869 Y66.053 E0.30569
G1 X67.74 Y65.994 E0.34634
G1 X68.061 Y65.985 E0.36129
G1 X68.369 Y65.981 E0.37563
G1 X151.332 Y65.981 E4.23874
G1 X152.19 Y65.992 E4.27869
G1 X153.126 Y66.045 E4.32235
G1 X154.055 Y66.178 E4.36605
G1 X154.968 Y66.39 E4.40969
G1 X155.861 Y66.678 E4.45338
G1 X156.725 Y67.042 E4.49704
G1 X157.556 Y67.478 E4.54073
G1 X158.346 Y67.983 E4.58439
G1 X159.09 Y68.553 E4.62804
G1 X159.783 Y69.185 E4.67171
G1 X160.42 Y69.874 E4.7154
G1 X160.996 Y70.614 E4.75907
G1 X161.507 Y71.401 E4.80276
G1 X161.926 Y72.182 E4.84403
G1 X162.137 Y72.617 E4.86654
G1 X163.29 Y74.899 E4.9856
G1 X164.506 Y77.147 E5.10461
G1 X165.751 Y79.299 E5.22037
G1 X167.082 Y81.459 E5.33851
G1 X168.466 Y83.567 E5.45594
G1 X169.896 Y85.616 E5.57228
G1 X171.403 Y87.652 E5.69023
G1 X172.962 Y89.638 E5.8078
G1 X174.542 Y91.537 E5.92283
G1 X176.238 Y93.463 E6.04233
G1 X177.948 Y95.297 E6.15909
G1 X179.695 Y97.068 E6.27492
G1 X181.521 Y98.815 E6.3926
G1 X183.415 Y100.53 E6.51157
G1 X185.307 Y102.147 E6.62746
G1 X187.267 Y103.729 E6.74475
G1 X189.285 Y105.264 E6.86281
G1 X191.318 Y106.722 E6.9793
G1 X193.399 Y108.127 E7.09622
G1 X194.338 Y108.724 E7.14803
G1 X195.058 Y109.197 E7.18815
G1 X195.819 Y109.745 E7.23181
G1 X196.531 Y110.356 E7.2755
G1 X197.188 Y111.025 E7.31916
G1 X197.786 Y111.748 E7.36285
G1 X198.32 Y112.519 E7.40652
G1 X198.786 Y113.333 E7.4502
G1 X199.181 Y114.183 E7.49384
G1 X199.503 Y115.064 E7.53752
G1 X199.748 Y115.969 E7.58118
G1 X199.915 Y116.892 E7.62485
G1 X200.013 Y118.052 E7.67906
G1 X200.023 Y118.376 E7.69415
G1 X200.028 Y118.715 E7.70994
G1 X200.028 Y149.906 E9.16232
G1 X200.021 Y151.736 E9.24754
G1 X200.028 Y152.661 E9.29061
G1 X200.027 Y183.785 E10.73987
G1 X200.018 Y184.512 E10.77373
G1 X199.967 Y185.449 E10.81742
G1 X199.835 Y186.377 E10.86107
G1 X199.626 Y187.291 E10.90473
G1 X199.339 Y188.184 E10.94841
G1 X198.977 Y189.05 E10.99211
G1 X198.543 Y189.881 E11.03577
G1 X198.039 Y190.672 E11.07944
G1 X197.47 Y191.417 E11.12309
G1 X196.839 Y192.112 E11.1668
G1 X196.152 Y192.75 E11.21046
G1 X195.413 Y193.327 E11.25412
G1 X194.627 Y193.839 E11.29779
G1 X193.801 Y194.282 E11.34144
G1 X192.939 Y194.654 E11.38516
G1 X192.05 Y194.95 E11.42879
G1 X191.138 Y195.17 E11.47247
G1 X190.211 Y195.311 E11.51613
G1 X189.327 Y195.372 E11.55739
G1 X189.006 Y195.381 E11.57235
G1 X188.698 Y195.385 E11.58669
G1 X105.578 Y195.384 E15.4571
G1 X104.879 Y195.374 E15.48966
G1 X103.942 Y195.32 E15.53336
G1 X103.014 Y195.188 E15.577
G1 X102.1 Y194.976 E15.62069
G1 X101.208 Y194.687 E15.66436
G1 X100.343 Y194.324 E15.70804
G1 X99.513 Y193.888 E15.75169
G1 X98.723 Y193.383 E15.79535
G1 X97.978 Y192.812 E15.83906
G1 X97.285 Y192.18 E15.88273
G1 X96.648 Y191.492 E15.92639
G1 X96.073 Y190.751 E15.97006
G1 X95.562 Y189.965 E16.01372
G1 X95.158 Y189.215 E16.05339
G1 X94.932 Y188.754 E16.07729
G1 X93.771 Y186.455 E16.19722
G1 X92.573 Y184.242 E16.3144
G1 X91.309 Y182.055 E16.43202
G1 X89.985 Y179.907 E16.54951
G1 X88.597 Y177.792 E16.66731
G1 X87.163 Y175.738 E16.78396
G1 X85.677 Y173.73 E16.90027
G1 X84.121 Y171.748 E17.01761
G1 X82.506 Y169.808 E17.13515
G1 X80.829 Y167.903 E17.25333
G1 X79.119 Y166.069 E17.37009
G1 X77.372 Y164.298 E17.48592
G1 X75.527 Y162.533 E17.60481
G1 X73.654 Y160.837 E17.72247
G1 X71.778 Y159.234 E17.83737
G1 X69.783 Y157.623 E17.95677
G1 X67.816 Y156.127 E18.07185
G1 X65.739 Y154.637 E18.19087
G1 X63.661 Y153.234 E18.30762
G1 X62.726 Y152.64 E18.3592
G1 X62.005 Y152.166 E18.39938
G1 X61.244 Y151.617 E18.44308
G1 X60.533 Y151.006 E18.48673
G1 X59.876 Y150.337 E18.53039
G1 X59.278 Y149.614 E18.57408
G1 X58.745 Y148.843 E18.61772
G1 X58.278 Y148.029 E18.66142
G1 X57.883 Y147.179 E18.70507
G1 X57.562 Y146.297 E18.74877
G1 X57.317 Y145.392 E18.79243
G1 X57.15 Y144.469 E18.8361
G1 X57.052 Y143.28 E18.89166
G1 X57.043 Y142.957 E18.9067
G1 X57.039 Y142.651 E18.92095
G1 X57.039 Y111.46 E20.37334
G1 X57.046 Y109.63 E20.45855
G1 X57.039 Y108.705 E20.50162
G1 X57.04 Y77.506 E21.95438
G1 X57.049 Y76.841 E21.98535
G1 X57.102 Y75.905 E22.029
G1 X57.234 Y74.976 E22.07269
G1 X57.445 Y74.062 E22.11637
G1 X57.733 Y73.17 E22.16002
G1 X58.096 Y72.305 E22.2037
G1 X58.531 Y71.474 E22.24738
G1 X59.035 Y70.684 E22.29101
G1 X59.605 Y69.939 E22.33469
G1 X60.237 Y69.245 E22.3784
G1 X60.925 Y68.608 E22.42206
G0 F6000 X61.313 Y68.804
G1 F1200 X62.049 Y68.251 E22.46492
G1 X62.83 Y67.763 E22.5078
G1 X63.65 Y67.345 E22.55066
G1 X64.504 Y67 E22.59355
G1 X65.384 Y66.73 E22.63641
G1 X66.284 Y66.538 E22.67926
G1 X67.198 Y66.424 E22.72215
G1 X67.751 Y66.394 E22.74794
G1 X68.072 Y66.385 E22.76289
G1 X68.369 Y66.381 E22.77672
G1 X151.332 Y66.381 E26.63983
G1 X152.184 Y66.392 E26.6795
G1 X153.103 Y66.445 E26.72237
G1 X154.014 Y66.578 E26.76524
G1 X154.91 Y66.789 E26.8081
G1 X155.785 Y67.077 E26.85099
G1 X156.631 Y67.44 E26.89386
G1 X157.442 Y67.875 E26.93671
G1 X158.213 Y68.379 E26.97961
G1 X158.937 Y68.948 E27.02248
G1 X159.609 Y69.577 E27.06534
G1 X160.224 Y70.262 E27.10821
G1 X160.777 Y70.998 E27.15108
G1 X161.264 Y71.78 E27.19397
G1 X161.567 Y72.357 E27.22432
G1 X161.805 Y72.846 E27.24964
G1 X162.939 Y75.091 E27.36676
G1 X164.142 Y77.317 E27.48458
G1 X165.423 Y79.53 E27.60364
G1 X166.74 Y81.666 E27.72049
G1 X168.13 Y83.785 E27.8385
G1 X169.579 Y85.861 E27.95638
G1 X171.065 Y87.869 E28.0727
G1 X172.656 Y89.896 E28.19269
G1 X174.251 Y91.812 E28.30877
G1 X175.946 Y93.736 E28.42817
G1 X177.653 Y95.568 E28.54477
G1 X179.417 Y97.355 E28.66169
G1 X181.258 Y99.118 E28.78038
G1 X183.132 Y100.814 E28.89807
G1 X185.058 Y102.46 E29.01605
G1 X187.018 Y104.043 E29.13336
G1 X189.038 Y105.579 E29.25152
G1 X191.083 Y107.046 E29.36872
G1 X193.191 Y108.469 E29.48714
G1 X194.118 Y109.059 E29.53831
G1 X194.838 Y109.532 E29.57842
G1 X195.585 Y110.07 E29.62129
G1 X196.282 Y110.671 E29.66414
G1 X196.925 Y111.331 E29.70705
G1 X197.507 Y112.043 E29.74987
G1 X198.026 Y112.804 E29.79276
G1 X198.477 Y113.607 E29.83565
G1 X198.856 Y114.446 E29.87852
G1 X199.162 Y115.314 E29.92137
G1 X199.39 Y116.206 E29.96424
G1 X199.541 Y117.114 E30.0071
G1 X199.613 Y118.064 E30.05147
G1 X199.623 Y118.388 E30.06656
G1 X199.628 Y118.715 E30.08179
G1 X199.628 Y149.905 E31.53413
G1 X199.621 Y151.739 E31.61952
G1 X199.628 Y152.664 E31.6626
G1 X199.627 Y183.78 E33.11149
G1 X199.618 Y184.507 E33.14534
G1 X199.567 Y185.426 E33.1882
G1 X199.436 Y186.338 E33.2311
G1 X199.226 Y187.234 E33.27396
G1 X198.94 Y188.109 E33.31682
G1 X198.579 Y188.956 E33.35969
G1 X198.145 Y189.768 E33.40257
G1 X197.643 Y190.54 E33.44545
G1 X197.075 Y191.265 E33.48833
G1 X196.447 Y191.938 E33.53119
G1 X195.763 Y192.554 E33.57406
G1 X195.028 Y193.108 E33.61691
G1 X194.248 Y193.597 E33.65978
G1 X193.428 Y194.016 E33.70266
G1 X192.575 Y194.362 E33.74552
G1 X191.695 Y194.633 E33.7884
G1 X190.795 Y194.826 E33.83126
G1 X189.881 Y194.941 E33.87415
G1 X189.316 Y194.972 E33.9005
G1 X188.995 Y194.981 E33.91545
G1 X188.698 Y194.985 E33.92928
G1 X105.583 Y194.984 E37.79947
G1 X104.884 Y194.974 E37.83202
G1 X103.965 Y194.921 E37.87488
G1 X103.054 Y194.788 E37.91775
G1 X102.158 Y194.577 E37.96062
G1 X101.284 Y194.289 E38.00346
G1 X100.438 Y193.926 E38.04633
G1 X99.626 Y193.491 E38.08923
G1 X98.856 Y192.987 E38.13208
G1 X98.132 Y192.418 E38.17496
G1 X97.46 Y191.789 E38.21782
G1 X96.845 Y191.103 E38.26072
G1 X96.292 Y190.367 E38.30358
G1 X95.805 Y189.586 E38.34644
G1 X95.517 Y189.039 E38.37523
G1 X95.271 Y188.537 E38.40126
G1 X94.13 Y186.278 E38.5191
G1 X92.92 Y184.042 E38.63749
G1 X91.646 Y181.84 E38.75594
G1 X90.327 Y179.7 E38.873
G1 X88.932 Y177.574 E38.9914
G1 X87.497 Y175.518 E39.10815
G1 X85.981 Y173.469 E39.22684
G1 X84.428 Y171.491 E39.34394
G1 X82.816 Y169.553 E39.46132
G1 X81.121 Y167.63 E39.58068
G1 X79.414 Y165.798 E39.69728
G1 X77.65 Y164.011 E39.8142
G1 X75.809 Y162.248 E39.93289
G1 X73.934 Y160.551 E40.05065
G1 X72.026 Y158.92 E40.16753
G1 X70.031 Y157.309 E40.28693
G1 X68.029 Y155.787 E40.40403
G1 X65.967 Y154.308 E40.52219
G1 X63.893 Y152.907 E40.63874
G1 X62.946 Y152.305 E40.69099
G1 X62.225 Y151.831 E40.73117
G1 X61.478 Y151.293 E40.77403
G1 X60.781 Y150.691 E40.81692
G1 X60.139 Y150.032 E40.85976
G1 X59.557 Y149.319 E40.90261
G1 X59.038 Y148.558 E40.9455
G1 X58.587 Y147.755 E40.98839
G1 X58.208 Y146.916 E41.03126
G1 X57.903 Y146.047 E41.07414
G1 X57.675 Y145.156 E41.11697
G1 X57.525 Y144.247 E41.15987
G1 X57.452 Y143.269 E41.20553
G1 X57.443 Y142.946 E41.22058
G1 X57.439 Y142.651 E41.23432
G1 X57.439 Y111.461 E42.68665
G1 X57.446 Y109.627 E42.77205
G1 X57.439 Y108.702 E42.81513
G1 X57.44 Y77.512 E44.26746
G1 X57.449 Y76.847 E44.29843
G1 X57.501 Y75.927 E44.34134
G1 X57.633 Y75.016 E44.3842
G1 X57.844 Y74.12 E44.42707
G1 X58.131 Y73.245 E44.46994
G1 X58.494 Y72.399 E44.51281
G1 X58.928 Y71.587 E44.55568
G1 X59.431 Y70.816 E44.59855
G1 X60 Y70.092 E44.64143
G1 X60.628 Y69.42 E44.68425
G1 X61.313 Y68.804 E44.72715
G0 F6000 X61.701 Y69.005
G1 F1200 X62.433 Y68.475 E44.76923
G1 X63.208 Y68.012 E44.81127
G1 X64.021 Y67.619 E44.85332
G1 X64.866 Y67.299 E44.89539
G1 X65.735 Y67.056 E44.93741
G1 X66.623 Y66.89 E44.97947
G1 X67.762 Y66.794 E45.0327
G1 X68.083 Y66.785 E45.04765
G1 X68.369 Y66.781 E45.06097
G1 X151.332 Y66.781 E48.92407
G1 X152.178 Y66.792 E48.96347
G1 X153.08 Y66.845 E49.00554
G1 X153.973 Y66.977 E49.04758
G1 X154.852 Y67.188 E49.08967
G1 X155.708 Y67.476 E49.13172
G1 X156.535 Y67.838 E49.17376
G1 X157.327 Y68.272 E49.21581
G1 X158.077 Y68.775 E49.25786
G1 X158.78 Y69.342 E49.29992
G1 X159.43 Y69.968 E49.34194
G1 X160.023 Y70.65 E49.38402
G1 X160.552 Y71.382 E49.42608
G1 X161.207 Y72.532 E49.4877
G1 X161.433 Y72.996 E49.51173
G1 X162.588 Y75.283 E49.63104
G1 X163.796 Y77.516 E49.74925
G1 X165.085 Y79.745 E49.86915
G1 X166.392 Y81.865 E49.98512
G1 X167.801 Y84.012 E50.1047
G1 X169.245 Y86.082 E50.22222
G1 X170.762 Y88.131 E50.34093
G1 X172.335 Y90.135 E50.45956
G1 X173.959 Y92.086 E50.57776
G1 X175.636 Y93.99 E50.69591
G1 X177.375 Y95.856 E50.81468
G1 X179.121 Y97.625 E50.93042
G1 X180.997 Y99.421 E51.05135
G1 X182.868 Y101.114 E51.16884
G1 X184.793 Y102.76 E51.28678
G1 X186.792 Y104.374 E51.40641
G1 X188.786 Y105.89 E51.52305
G1 X190.872 Y107.386 E51.64258
G1 X192.928 Y108.775 E51.75812
G1 X193.763 Y109.305 E51.80417
G1 X194.618 Y109.866 E51.85179
G1 X195.351 Y110.395 E51.89388
G1 X196.033 Y110.986 E51.9359
G1 X196.66 Y111.636 E51.97795
G1 X197.228 Y112.338 E52.02
G1 X197.731 Y113.088 E52.06205
G1 X198.166 Y113.88 E52.10412
G1 X198.529 Y114.707 E52.14618
G1 X198.818 Y115.562 E52.1882
G1 X199.03 Y116.44 E52.23026
G1 X199.163 Y117.333 E52.2723
G1 X199.213 Y118.076 E52.30698
G1 X199.223 Y118.4 E52.32207
G1 X199.228 Y118.715 E52.33674
G1 X199.228 Y149.904 E53.78903
G1 X199.221 Y151.742 E53.87462
G1 X199.228 Y152.667 E53.91769
G1 X199.227 Y183.775 E55.36621
G1 X199.218 Y184.502 E55.40007
G1 X199.167 Y185.404 E55.44213
G1 X199.036 Y186.298 E55.48421
G1 X198.827 Y187.176 E55.52623
G1 X198.541 Y188.033 E55.5683
G1 X198.18 Y188.861 E55.61036
G1 X197.748 Y189.653 E55.65237
G1 X197.247 Y190.405 E55.69445
G1 X196.681 Y191.109 E55.73651
G1 X196.056 Y191.76 E55.77853
G1 X195.375 Y192.354 E55.82061
G1 X194.644 Y192.885 E55.86268
G1 X193.87 Y193.349 E55.9047
G1 X193.057 Y193.743 E55.94677
G1 X192.213 Y194.063 E55.9888
G1 X191.343 Y194.308 E56.03088
G1 X190.456 Y194.474 E56.0729
G1 X189.305 Y194.572 E56.12669
G1 X188.984 Y194.581 E56.14165
G1 X188.698 Y194.585 E56.15496
G1 X105.589 Y194.584 E60.02487
G1 X104.89 Y194.574 E60.05742
G1 X103.989 Y194.521 E60.09945
G1 X103.095 Y194.389 E60.14153
G1 X102.217 Y194.178 E60.18357
G1 X101.361 Y193.89 E60.22563
G1 X100.534 Y193.528 E60.26766
G1 X99.742 Y193.094 E60.30972
G1 X98.991 Y192.591 E60.35181
G1 X98.288 Y192.024 E60.39386
G1 X97.638 Y191.397 E60.43591
G1 X97.046 Y190.715 E60.47797
G1 X96.517 Y189.984 E60.51998
G1 X95.877 Y188.863 E60.58009
G1 X95.666 Y188.432 E60.60243
G1 X94.473 Y186.071 E60.72561
G1 X93.269 Y183.845 E60.84345
G1 X91.991 Y181.636 E60.96229
G1 X90.675 Y179.501 E61.07907
G1 X89.262 Y177.347 E61.19902
G1 X87.814 Y175.273 E61.31681
G1 X86.318 Y173.251 E61.43393
G1 X84.733 Y171.233 E61.55341
G1 X83.105 Y169.276 E61.67195
G1 X81.431 Y167.376 E61.78986
G1 X79.692 Y165.51 E61.90863
G1 X77.946 Y163.741 E62.02437
G1 X76.07 Y161.945 E62.1453
G1 X74.198 Y160.251 E62.26286
G1 X72.253 Y158.588 E62.38202
G1 X70.317 Y157.025 E62.49788
G1 X68.258 Y155.459 E62.61833
G1 X66.218 Y153.996 E62.73523
G1 X64.109 Y152.572 E62.85372
G1 X63.304 Y152.061 E62.89812
G1 X62.445 Y151.497 E62.94597
G1 X61.713 Y150.968 E62.98802
G1 X61.031 Y150.376 E63.03007
G1 X60.403 Y149.727 E63.07213
G1 X59.836 Y149.024 E63.11418
G1 X59.333 Y148.274 E63.15623
G1 X58.898 Y147.482 E63.19831
G1 X58.535 Y146.655 E63.24036
G1 X58.247 Y145.799 E63.28242
G1 X58.036 Y144.921 E63.32446
G1 X57.903 Y144.028 E63.3665
G1 X57.852 Y143.258 E63.40244
G1 X57.843 Y142.935 E63.41748
G1 X57.839 Y142.651 E63.43071
G1 X57.839 Y111.462 E64.883
G1 X57.846 Y109.624 E64.96858
G1 X57.839 Y108.699 E65.01166
G1 X57.84 Y77.517 E66.46362
G1 X57.849 Y76.852 E66.49459
G1 X57.901 Y75.95 E66.53666
G1 X58.033 Y75.057 E66.57869
G1 X58.243 Y74.179 E66.62073
G1 X58.53 Y73.322 E66.66281
G1 X58.892 Y72.495 E66.70485
G1 X59.325 Y71.703 E66.74688
G1 X59.827 Y70.952 E66.78894
G1 X60.394 Y70.248 E66.83104
G1 X61.02 Y69.598 E66.87306
G1 X61.701 Y69.005 E66.9151
G1 F2700 E63.9151
;MESH:half-body-top.stl
G0 F6000 X67.386 Y109.634
G0 X68.453 Y110.316
G0 X68.453 Y111.395
G0 X90.467 Y114.553
G0 X91.611 Y139.409
G0 X107.839 Y140.781
;TYPE:WALL-INNER
G1 F2700 E66.9151
G1 F1200 X107.839 Y113.181 E68.20028
G1 X74.239 Y113.181 E69.76483
G1 X74.239 Y140.781 E71.05
G1 X107.839 Y140.781 E72.61456
G0 F6000 X107.439 Y140.381
G1 F1200 X107.439 Y113.581 E73.86248
G1 X74.639 Y113.581 E75.38979
G1 X74.639 Y140.381 E76.63771
G1 X107.439 Y140.381 E78.16501
G0 F6000 X107.039 Y139.981
G1 F1200 X107.039 Y113.981 E79.37568
G1 X75.039 Y113.981 E80.86573
G1 X75.039 Y139.981 E82.0764
G1 X107.039 Y139.981 E83.56646
G0 F6000 X106.639 Y139.581
G1 F1200 X106.639 Y114.381 E84.73988
G1 X91.439 Y114.381 E85.44765
G1 X91.439 Y139.581 E86.62107
G1 X106.639 Y139.581 E87.32884
G0 F6000 X106.239 Y139.181
;TYPE:WALL-OUTER
G1 F1200 X106.239 Y114.781 E88.46501
G1 X91.839 Y114.781 E89.13553
G1 X91.839 Y139.181 E90.2717
G1 X106.239 Y139.181 E90.94223
G0 F6000 X106.539 Y139.181
G0 X90.639 Y139.581
;TYPE:WALL-INNER
G1 F1200 X90.639 Y114.381 E92.11564
G1 X75.439 Y114.381 E92.82342
G1 X75.439 Y139.581 E93.99684
G1 X90.639 Y139.581 E94.70461
G0 F6000 X90.239 Y139.181
;TYPE:WALL-OUTER
G1 F1200 X90.239 Y114.781 E95.84078
G1 X75.839 Y114.781 E96.5113
G1 X75.839 Y139.181 E97.64747
G1 X90.239 Y139.181 E98.31799
G0 F6000 X90.539 Y139.181
G0 X91.611 Y139.409
G0 X108.021 Y140.999
G0 X112.239 Y141.181
;TYPE:WALL-INNER
G1 F1200 X69.839 Y141.181 E100.29231
G1 X69.839 Y112.781 E101.61474
G1 X112.239 Y112.781 E103.58906
G1 X112.239 Y141.181 E104.91148
G0 F6000 X112.639 Y141.581
G1 F1200 X69.439 Y141.581 E106.92305
G1 X69.439 Y112.381 E108.28273
G1 X112.639 Y112.381 E110.2943
G1 X112.639 Y141.581 E111.65398
G0 F6000 X113.039 Y141.981
G1 F1200 X69.039 Y141.981 E113.7028
G1 X69.039 Y111.981 E115.09973
G1 X113.039 Y111.981 E117.14855
G1 X113.039 Y141.981 E118.54548
G0 F6000 X113.439 Y142.381
G1 F1200 X68.639 Y142.381 E120.63155
