;FLAVOR:Marlin
;TIME:1706
;Filament used: 1.43588m
;Layer height: 0.28
;MINX:84.918
;MINY:91
;MINZ:0.28
;MAXX:137
;MAXY:129
;MAXZ:31.36
;Generated with Creality Slicer 4.8.2-191
M140 S50
M105
M190 S50
M104 S200
M105
M109 S200
M82 ;absolute extrusion mode

G28 ;Home

G92 E0 ;Reset Extruder
G1 Z2.0 F3000 ;Move Z Axis up
G1 X10.1 Y20 Z0.28 F5000.0 ;Move to start position
G1 X10.1 Y200.0 Z0.28 F1500.0 E15 ;Draw the first line
G1 X10.4 Y200.0 Z0.28 F5000.0 ;Move to side a little
G1 X10.4 Y20 Z0.28 F1500.0 E30 ;Draw the second line
G92 E0 ;Reset Extruder
G1 Z2.0 F3000 ;Move Z Axis up

G92 E0
G92 E0
G1 F2700 E-1
;LAYER_COUNT:112
;LAYER:0
M107
G0 F6000 X88.116 Y94.264 Z0.28
;TYPE:SKIRT
G1 F2700 E0
G1 F1200 X88.804 Y93.627 E0.04366
G1 X89.544 Y93.051 E0.08732
G1 X90.33 Y92.539 E0.131
G1 X91.157 Y92.097 E0.17467
G1 X92.019 Y91.727 E0.21835
G1 X92.909 Y91.431 E0.26202
G1 X93.821 Y91.213 E0.30568
G1 X94.748 Y91.072 E0.34935
G1 X95.619 Y91.013 E0.39
G1 X95.94 Y91.004 E0.40495
G1 X96.248 Y91 E0.41929
G1 X125.293 Y91 E1.77175
G1 X126.149 Y91.011 E1.81161
G1 X127.085 Y91.065 E1.85527
G1 X128.013 Y91.197 E1.89891
G1 X128.927 Y91.409 E1.9426
G1 X129.819 Y91.698 E1.98626
G1 X130.684 Y92.061 E2.02995
G1 X131.514 Y92.497 E2.0736
G1 X132.305 Y93.002 E2.1173
G1 X133.049 Y93.573 E2.16097
G1 X133.742 Y94.205 E2.20464
G1 X134.379 Y94.893 E2.2483
G1 X134.954 Y95.634 E2.29198
G1 X135.465 Y96.42 E2.33563
G1 X135.907 Y97.248 E2.37934
G1 X136.276 Y98.11 E2.423
G1 X136.571 Y99 E2.46666
G1 X136.789 Y99.912 E2.51032
G1 X136.929 Y100.84 E2.55402
G1 X136.987 Y101.701 E2.5942
G1 X136.996 Y102.021 E2.60911
G1 X137 Y102.33 E2.6235
G1 X136.999 Y117.4 E3.32522
G1 X136.99 Y118.127 E3.35908
G1 X136.939 Y119.064 E3.40277
G1 X136.807 Y119.992 E3.44642
G1 X136.598 Y120.906 E3.49008
G1 X136.311 Y121.799 E3.53375
G1 X135.949 Y122.665 E3.57746
G1 X135.515 Y123.496 E3.62111
G1 X135.011 Y124.287 E3.66479
G1 X134.442 Y125.032 E3.70844
G1 X133.811 Y125.727 E3.75215
G1 X133.124 Y126.365 E3.7958
G1 X132.385 Y126.942 E3.83946
G1 X131.599 Y127.454 E3.88314
G1 X130.773 Y127.897 E3.92679
G1 X129.911 Y128.269 E3.9705
G1 X129.022 Y128.565 E4.01413
G1 X128.11 Y128.785 E4.05782
G1 X127.183 Y128.926 E4.10148
G1 X126.299 Y128.987 E4.14274
G1 X125.978 Y128.996 E4.15769
G1 X125.67 Y129 E4.17203
G1 X96.483 Y128.999 E5.5311
G1 X95.785 Y128.99 E5.56361
G1 X94.849 Y128.938 E5.60726
G1 X93.92 Y128.806 E5.65095
G1 X93.006 Y128.596 E5.69462
G1 X92.113 Y128.309 E5.7383
G1 X91.248 Y127.946 E5.78198
G1 X90.417 Y127.512 E5.82563
G1 X89.626 Y127.008 E5.86931
G1 X88.881 Y126.438 E5.91298
G1 X88.187 Y125.807 E5.95666
G1 X87.55 Y125.12 E6.00029
G1 X86.973 Y124.38 E6.04398
G1 X86.461 Y123.594 E6.08766
G1 X86.018 Y122.767 E6.13134
G1 X85.647 Y121.906 E6.175
G1 X85.351 Y121.016 E6.21867
G1 X85.132 Y120.104 E6.26235
G1 X84.991 Y119.177 E6.30601
G1 X84.931 Y118.288 E6.3475
G1 X84.922 Y117.955 E6.36301
G1 X84.918 Y117.658 E6.37684
G1 X84.919 Y102.525 E7.0815
G1 X84.928 Y101.86 E7.11247
G1 X84.981 Y100.924 E7.15612
G1 X85.113 Y99.995 E7.19981
G1 X85.324 Y99.081 E7.24349
G1 X85.612 Y98.189 E7.28714
G1 X85.975 Y97.324 E7.33082
G1 X86.41 Y96.493 E7.37449
G1 X86.914 Y95.703 E7.41813
G1 X87.484 Y94.958 E7.46181
G1 X88.116 Y94.264 E7.50552
G0 F6000 X88.507 Y94.439
G1 F1200 X89.192 Y93.823 E7.54841
G1 X89.928 Y93.27 E7.59128
G1 X90.709 Y92.782 E7.63416
G1 X91.529 Y92.364 E7.67702
G1 X92.383 Y92.019 E7.71991
G1 X93.263 Y91.749 E7.76277
G1 X94.163 Y91.557 E7.80562
G1 X95.077 Y91.443 E7.84851
G1 X95.63 Y91.413 E7.8743
G1 X95.951 Y91.404 E7.88925
G1 X96.248 Y91.4 E7.90308
G1 X125.293 Y91.4 E9.25554
G1 X126.143 Y91.411 E9.29512
G1 X127.062 Y91.464 E9.33798
G1 X127.973 Y91.597 E9.38085
G1 X128.869 Y91.808 E9.42372
G1 X129.743 Y92.096 E9.46657
G1 X130.59 Y92.459 E9.50948
G1 X131.401 Y92.894 E9.55233
G1 X132.171 Y93.398 E9.59518
G1 X132.895 Y93.967 E9.63806
G1 X133.567 Y94.597 E9.68095
G1 X134.182 Y95.282 E9.72382
G1 X134.735 Y96.018 E9.76668
G1 X135.222 Y96.799 E9.80954
G1 X135.639 Y97.62 E9.85242
G1 X135.984 Y98.474 E9.89531
G1 X136.253 Y99.354 E9.93815
G1 X136.445 Y100.255 E9.98105
G1 X136.558 Y101.168 E10.02389
G1 X136.587 Y101.712 E10.04925
G1 X136.596 Y102.032 E10.06416
G1 X136.6 Y102.33 E10.07804
G1 X136.599 Y117.395 E10.77953
G1 X136.59 Y118.122 E10.81338
G1 X136.539 Y119.041 E10.85624
G1 X136.408 Y119.953 E10.89914
G1 X136.198 Y120.849 E10.942
G1 X135.912 Y121.724 E10.98486
G1 X135.551 Y122.571 E11.02773
G1 X135.117 Y123.383 E11.07061
G1 X134.615 Y124.155 E11.11348
G1 X134.047 Y124.88 E11.15637
G1 X133.419 Y125.553 E11.19923
G1 X132.735 Y126.169 E11.24209
G1 X132 Y126.723 E11.28495
G1 X131.22 Y127.212 E11.32782
G1 X130.4 Y127.631 E11.3707
G1 X129.547 Y127.977 E11.41356
G1 X128.667 Y128.248 E11.45644
G1 X127.767 Y128.441 E11.4993
G1 X126.853 Y128.556 E11.54219
G1 X126.288 Y128.587 E11.56854
G1 X125.967 Y128.596 E11.58349
G1 X125.67 Y128.6 E11.59732
G1 X96.488 Y128.599 E12.95616
G1 X95.79 Y128.59 E12.98866
G1 X94.871 Y128.538 E13.03153
G1 X93.96 Y128.407 E13.07438
G1 X93.064 Y128.197 E13.11723
G1 X92.189 Y127.91 E13.16011
G1 X91.342 Y127.548 E13.203
G1 X90.53 Y127.114 E13.24588
G1 X89.759 Y126.612 E13.28872
G1 X89.034 Y126.044 E13.3316
G1 X88.361 Y125.415 E13.3745
G1 X87.746 Y124.731 E13.41733
G1 X87.192 Y123.996 E13.46019
G1 X86.704 Y123.215 E13.50307
G1 X86.285 Y122.395 E13.54595
G1 X85.939 Y121.542 E13.58881
G1 X85.669 Y120.662 E13.63167
G1 X85.476 Y119.761 E13.67458
G1 X85.362 Y118.848 E13.71742
G1 X85.331 Y118.277 E13.74405
G1 X85.322 Y117.944 E13.75956
G1 X85.318 Y117.658 E13.77288
G1 X85.319 Y102.531 E14.47725
G1 X85.328 Y101.866 E14.50822
G1 X85.38 Y100.946 E14.55113
G1 X85.512 Y100.035 E14.59399
G1 X85.723 Y99.139 E14.63685
G1 X86.01 Y98.264 E14.67973
G1 X86.373 Y97.418 E14.7226
G1 X86.807 Y96.606 E14.76547
G1 X87.31 Y95.835 E14.80834
G1 X87.879 Y95.111 E14.85122
G1 X88.507 Y94.439 E14.89404
G0 F6000 X88.899 Y94.617
G1 F1200 X89.58 Y94.024 E14.93609
G1 X90.312 Y93.494 E14.97817
G1 X91.087 Y93.031 E15.02021
G1 X91.9 Y92.638 E15.06226
G1 X92.745 Y92.318 E15.10433
G1 X93.614 Y92.075 E15.14635
G1 X94.502 Y91.909 E15.18841
G1 X95.641 Y91.813 E15.24164
G1 X95.962 Y91.804 E15.25659
G1 X96.248 Y91.8 E15.26991
G1 X125.293 Y91.8 E16.62237
G1 X126.137 Y91.811 E16.66167
G1 X127.039 Y91.864 E16.70374
G1 X127.932 Y91.996 E16.74578
G1 X128.81 Y92.207 E16.78782
G1 X129.666 Y92.495 E16.82988
G1 X130.493 Y92.857 E16.87191
G1 X131.285 Y93.292 E16.91399
G1 X132.036 Y93.794 E16.95605
G1 X132.739 Y94.361 E16.99811
G1 X133.389 Y94.988 E17.04016
G1 X133.981 Y95.67 E17.08221
G1 X134.511 Y96.401 E17.12426
G1 X134.973 Y97.177 E17.16631
G1 X135.366 Y97.99 E17.20836
G1 X135.684 Y98.835 E17.2504
G1 X135.927 Y99.705 E17.29246
G1 X136.092 Y100.593 E17.33452
G1 X136.187 Y101.723 E17.38732
G1 X136.196 Y102.043 E17.40223
G1 X136.2 Y102.33 E17.41559
G1 X136.199 Y117.39 E18.11685
G1 X136.19 Y118.117 E18.1507
G1 X136.139 Y119.019 E18.19277
G1 X136.008 Y119.913 E18.23484
G1 X135.799 Y120.791 E18.27687
G1 X135.513 Y121.648 E18.31894
G1 X135.152 Y122.476 E18.361
G1 X134.72 Y123.268 E18.40301
G1 X134.219 Y124.02 E18.44508
G1 X133.653 Y124.724 E18.48714
G1 X133.028 Y125.375 E18.52917
G1 X132.347 Y125.969 E18.57124
G1 X131.616 Y126.5 E18.61332
G1 X130.842 Y126.964 E18.65534
G1 X130.029 Y127.358 E18.6974
G1 X129.185 Y127.678 E18.73943
G1 X128.315 Y127.923 E18.78152
G1 X127.428 Y128.089 E18.82354
G1 X126.277 Y128.187 E18.87733
G1 X125.956 Y128.196 E18.89228
G1 X125.67 Y128.2 E18.9056
G1 X96.493 Y128.199 E20.2642
G1 X95.795 Y128.19 E20.29671
G1 X94.894 Y128.139 E20.33873
G1 X94 Y128.007 E20.38081
G1 X93.122 Y127.798 E20.42284
G1 X92.265 Y127.511 E20.46492
G1 X91.438 Y127.15 E20.50694
G1 X90.645 Y126.717 E20.54901
G1 X89.894 Y126.216 E20.59105
G1 X89.19 Y125.65 E20.63311
G1 X88.539 Y125.024 E20.67516
G1 X87.946 Y124.343 E20.71721
G1 X87.416 Y123.612 E20.75925
G1 X86.952 Y122.837 E20.80131
G1 X86.558 Y122.024 E20.84338
G1 X86.238 Y121.18 E20.88541
G1 X85.994 Y120.31 E20.92749
G1 X85.828 Y119.422 E20.96955
G1 X85.731 Y118.267 E21.02352
G1 X85.722 Y117.934 E21.03903
G1 X85.718 Y117.658 E21.05189
G1 X85.719 Y102.536 E21.75603
G1 X85.728 Y101.871 E21.787
G1 X85.78 Y100.969 E21.82907
G1 X85.912 Y100.076 E21.8711
G1 X86.122 Y99.198 E21.91314
G1 X86.409 Y98.341 E21.95522
G1 X86.771 Y97.514 E21.99726
G1 X87.204 Y96.722 E22.03929
G1 X87.706 Y95.971 E22.08135
G1 X88.273 Y95.267 E22.12344
G1 X88.899 Y94.617 E22.16546
G1 F2700 E21.16546
;MESH:diagnose_degree.stl
G0 F6000 X96.332 Y101.335
G0 X96.332 Y102.414
G0 X96.518 Y117.4
;TYPE:WALL-INNER
G1 F2700 E22.16546
G1 F1200 X96.518 Y102.6 E22.85461
G1 X125.4 Y102.6 E24.19948
G1 X125.4 Y117.4 E24.88863
G1 X96.518 Y117.4 E26.2335
G0 F6000 X96.118 Y117.8
;TYPE:WALL-OUTER
G1 F1200 X96.118 Y102.2 E26.9599
G1 X125.8 Y102.2 E28.34202
G1 X125.8 Y117.8 E29.06842
G1 X96.118 Y117.8 E30.45054
G0 F6000 X96.388 Y117.53
G0 X96.628 Y117.01
G0 X96.908 Y117.01
;TYPE:SKIN
G1 F1200 X96.908 Y102.99 E31.10337
G1 X125.01 Y102.99 E32.41191
G1 X125.01 Y117.01 E33.06474
G1 X96.908 Y117.01 E34.37329
G0 F6000 X97.615 Y116.848
G1 F1200 X97.068 Y116.301 E34.40931
G0 F6000 X97.068 Y115.735
G1 F1200 X98.181 Y116.848 E34.4826
G0 F6000 X98.746 Y116.848
G1 F1200 X97.068 Y115.17 E34.5931
G0 F6000 X97.068 Y114.604
G1 F1200 X99.312 Y116.848 E34.74087
G0 F6000 X99.878 Y116.848
G1 F1200 X97.068 Y114.038 E34.92592
G0 F6000 X97.068 Y113.472
G1 F1200 X100.443 Y116.848 E35.1482
G0 F6000 X101.009 Y116.848
G1 F1200 X97.068 Y112.907 E35.40772
G0 F6000 X97.068 Y112.341
G1 F1200 X101.575 Y116.848 E35.70452
G0 F6000 X102.14 Y116.848
G1 F1200 X97.068 Y111.775 E36.03855
G0 F6000 X97.068 Y111.21
G1 F1200 X102.706 Y116.848 E36.40982
G0 F6000 X103.272 Y116.848
G1 F1200 X97.068 Y110.644 E36.81836
G0 F6000 X97.068 Y110.078
G1 F1200 X103.837 Y116.848 E37.26415
G0 F6000 X104.403 Y116.848
G1 F1200 X97.068 Y109.513 E37.74717
G0 F6000 X97.068 Y108.947
G1 F1200 X104.969 Y116.848 E38.26746
G0 F6000 X105.534 Y116.848
G1 F1200 X97.068 Y108.381 E38.825
G0 F6000 X97.068 Y107.816
G1 F1200 X106.1 Y116.848 E39.41977
G0 F6000 X106.666 Y116.848
G1 F1200 X97.068 Y107.25 E40.05182
G0 F6000 X97.068 Y106.684
G1 F1200 X107.232 Y116.848 E40.72113
G0 F6000 X107.797 Y116.848
G1 F1200 X97.068 Y106.119 E41.42765
G0 F6000 X97.068 Y105.553
G1 F1200 X108.363 Y116.848 E42.17145
G0 F6000 X108.929 Y116.848
G1 F1200 X97.068 Y104.987 E42.95252
G0 F6000 X97.068 Y104.421
G1 F1200 X109.494 Y116.848 E43.77082
G0 F6000 X110.06 Y116.848
G1 F1200 X97.068 Y103.856 E44.62637
G0 F6000 X97.068 Y103.29
G1 F1200 X110.626 Y116.848 E45.51919
G0 F6000 X111.192 Y116.849
G1 F1200 X97.493 Y103.149 E46.42132
G0 F6000 X98.058 Y103.149
G1 F1200 X111.758 Y116.849 E47.32349
G0 F6000 X112.323 Y116.849
G1 F1200 X98.624 Y103.149 E48.22563
G0 F6000 X99.19 Y103.149
G1 F1200 X112.889 Y116.849 E49.12776
G0 F6000 X113.455 Y116.849
G1 F1200 X99.755 Y103.149 E50.02993
G0 F6000 X100.321 Y103.149
G1 F1200 X114.02 Y116.849 E50.93206
G0 F6000 X114.586 Y116.849
G1 F1200 X100.887 Y103.149 E51.8342
G0 F6000 X101.452 Y103.149
G1 F1200 X115.152 Y116.849 E52.73637
G0 F6000 X115.718 Y116.849
G1 F1200 X102.018 Y103.149 E53.63854
G0 F6000 X102.584 Y103.149
G1 F1200 X116.283 Y116.849 E54.54067
G0 F6000 X116.849 Y116.849
G1 F1200 X103.149 Y103.149 E55.44284
G0 F6000 X103.715 Y103.149
G1 F1200 X117.415 Y116.849 E56.34501
G0 F6000 X117.98 Y116.849
G1 F1200 X104.281 Y103.149 E57.24714
G0 F6000 X104.846 Y103.149
G1 F1200 X118.546 Y116.849 E58.14931
G0 F6000 X119.112 Y116.849
G1 F1200 X105.412 Y103.149 E59.05148
G0 F6000 X105.978 Y103.149
G1 F1200 X119.677 Y116.849 E59.95362
G0 F6000 X120.243 Y116.849
G1 F1200 X106.544 Y103.149 E60.85575
G0 F6000 X107.109 Y103.149
G1 F1200 X120.809 Y116.849 E61.75792
G0 F6000 X121.374 Y116.849
G1 F1200 X107.675 Y103.149 E62.66006
G0 F6000 X108.241 Y103.149
G1 F1200 X121.94 Y116.849 E63.56219
G0 F6000 X122.506 Y116.849
G1 F1200 X108.806 Y103.149 E64.46436
G0 F6000 X109.372 Y103.149
G1 F1200 X123.071 Y116.849 E65.3665
G0 F6000 X123.637 Y116.849
G1 F1200 X109.938 Y103.149 E66.26863
G0 F6000 X110.503 Y103.149
G1 F1200 X124.203 Y116.849 E67.1708
G0 F6000 X124.768 Y116.849
G1 F1200 X111.069 Y103.149 E68.07294
G0 F6000 X111.635 Y103.149
G1 F1200 X124.849 Y116.364 E68.94313
G0 F6000 X124.849 Y115.798
G1 F1200 X112.2 Y103.149 E69.77609
G0 F6000 X112.766 Y103.149
G1 F1200 X124.849 Y115.232 E70.57178
G0 F6000 X124.849 Y114.667
G1 F1200 X113.332 Y103.149 E71.33022
G0 F6000 X113.897 Y103.149
G1 F1200 X124.849 Y114.101 E72.05143
G0 F6000 X124.849 Y113.535
G1 F1200 X114.463 Y103.149 E72.73537
G0 F6000 X115.029 Y103.149
G1 F1200 X124.849 Y112.97 E73.38206
G0 F6000 X124.849 Y112.404
G1 F1200 X115.594 Y103.149 E73.99152
G0 F6000 X116.16 Y103.149
G1 F1200 X124.849 Y111.838 E74.56371
G0 F6000 X124.849 Y111.273
G1 F1200 X116.726 Y103.149 E75.09865
G0 F6000 X117.292 Y103.149
G1 F1200 X124.849 Y110.707 E75.59633
G0 F6000 X124.849 Y110.141
G1 F1200 X117.857 Y103.149 E76.05676
G0 F6000 X118.423 Y103.149
G1 F1200 X124.849 Y109.576 E76.47996
G0 F6000 X124.849 Y109.01
G1 F1200 X118.989 Y103.149 E76.86588
G0 F6000 X119.554 Y103.149
G1 F1200 X124.849 Y108.444 E77.21457
G0 F6000 X124.849 Y107.879
G1 F1200 X120.12 Y103.149 E77.52601
G0 F6000 X120.686 Y103.149
G1 F1200 X124.849 Y107.313 E77.80019
G0 F6000 X124.849 Y106.747
G1 F1200 X121.251 Y103.149 E78.03712
G0 F6000 X121.817 Y103.149
G1 F1200 X124.849 Y106.181 E78.23678
G0 F6000 X124.849 Y105.616
G1 F1200 X122.383 Y103.149 E78.39921
G0 F6000 X122.948 Y103.149
G1 F1200 X124.849 Y105.05 E78.52439
G0 F6000 X124.849 Y104.484
G1 F1200 X123.514 Y103.149 E78.6123
G0 F6000 X124.08 Y103.149
G1 F1200 X124.849 Y103.919 E78.66298
G0 F6000 X124.849 Y103.353
G1 F1200 X124.645 Y103.149 E78.67641
G0 F6000 X124.645 Y102.8
G1 F2700 E77.67641
;MESH:NONMESH
G0 F300 X124.645 Y102.8 Z0.56
G0 F6000 X124.645 Y102.71
G0 X125.218 Y102.782
G0 X125.218 Y117.218
G0 X97.836 Y117.4
;TIME_ELAPSED:96.123203
;LAYER:1
M106 S85
;TYPE:WALL-INNER
;MESH:diagnose_degree.stl
G1 F2700 E78.67641
G1 F1350 X97.836 Y102.6 E79.36556
G1 X125.4 Y102.6 E80.64906
G1 X125.4 Y117.4 E81.33821
G1 X97.836 Y117.4 E82.6217
G0 F6600 X97.436 Y117.8
;TYPE:WALL-OUTER
G1 F1350 X97.436 Y102.2 E83.3481
G1 X125.8 Y102.2 E84.66885
G1 X125.8 Y117.8 E85.39525
G1 X97.436 Y117.8 E86.716
G0 F6600 X97.706 Y117.53
G0 X97.946 Y117.01
G0 X98.226 Y117.01
;TYPE:SKIN
G1 F1350 X98.226 Y102.99 E87.36883
G1 X125.01 Y102.99 E88.616
G1 X125.01 Y117.01 E89.26883
G1 X98.226 Y117.01 E90.51601
G0 F6600 X97.946 Y117.01
G0 X97.946 Y103.563
G0 X98.386 Y103.563
G1 F1350 X98.8 Y103.149 E90.54327
G0 F6600 X99.366 Y103.149
G1 F1350 X98.386 Y104.129 E90.6078
G0 F6600 X98.386 Y104.694
G1 F1350 X99.931 Y103.149 E90.70955
G0 F6600 X100.497 Y103.149
G1 F1350 X98.386 Y105.26 E90.84856
G0 F6600 X98.386 Y105.826
G1 F1350 X101.063 Y103.149 E91.02484
G0 F6600 X101.628 Y103.149
G1 F1350 X98.386 Y106.391 E91.23833
G0 F6600 X98.386 Y106.957
G1 F1350 X102.194 Y103.149 E91.4891
G0 F6600 X102.76 Y103.149
G1 F1350 X98.386 Y107.523 E91.77713
G0 F6600 X98.386 Y108.089
G1 F1350 X103.325 Y103.149 E92.10241
G0 F6600 X103.891 Y103.149
G1 F1350 X98.386 Y108.654 E92.46492
G0 F6600 X98.386 Y109.22
G1 F1350 X104.457 Y103.149 E92.86471
G0 F6600 X105.023 Y103.149
G1 F1350 X98.386 Y109.786 E93.30176
G0 F6600 X98.386 Y110.351
G1 F1350 X105.588 Y103.149 E93.77603
G0 F6600 X106.154 Y103.149
G1 F1350 X98.386 Y110.917 E94.28756
G0 F6600 X98.386 Y111.483
G1 F1350 X106.72 Y103.149 E94.83637
G0 F6600 X107.285 Y103.149
G1 F1350 X98.386 Y112.048 E95.42239
G0 F6600 X98.386 Y112.614
G1 F1350 X107.851 Y103.149 E96.04567
G0 F6600 X108.417 Y103.149
G1 F1350 X98.386 Y113.18 E96.70623
G0 F6600 X98.386 Y113.745
G1 F1350 X108.982 Y103.149 E97.404
G0 F6600 X109.548 Y103.149
G1 F1350 X98.386 Y114.311 E98.13903
G0 F6600 X98.386 Y114.877
G1 F1350 X110.114 Y103.149 E98.91134
G0 F6600 X110.679 Y103.149
G1 F1350 X98.386 Y115.442 E99.72086
G0 F6600 X98.386 Y116.008
G1 F1350 X111.245 Y103.149 E100.56764
G0 F6600 X111.811 Y103.149
G1 F1350 X98.386 Y116.574 E101.4517
G0 F6600 X98.676 Y116.85
G1 F1350 X112.376 Y103.149 E102.35391
G0 F6600 X112.942 Y103.149
G1 F1350 X99.241 Y116.85 E103.25614
G0 F6600 X99.807 Y116.85
