;FLAVOR:Marlin
;TIME:2240
;Filament used: 2.28473m
;Layer height: 0.28
;MINX:72.014
;MINY:26
;MINZ:0.28
;MAXX:162.989
;MAXY:209
;MAXZ:5.6
;Generated with Cura_SteamEngine 5.4.0
M140 S50
M105
M190 S50
M104 S200
M105
M109 S200
M82 ;absolute extrusion mode
; Ender 3 Custom Start G-code
G92 E0 ; Reset Extruder
G28 ; Home all axes
G1 Z2.0 F3000 ; Move Z Axis up little to prevent scratching of Heat Bed
G1 X0.1 Y20 Z0.3 F5000.0 ; Move to start position
G1 X0.1 Y200.0 Z0.3 F1500.0 E15 ; Draw the first line
G1 X0.4 Y200.0 Z0.3 F5000.0 ; Move to side a little
G1 X0.4 Y20 Z0.3 F1500.0 E30 ; Draw the second line
G92 E0 ; Reset Extruder
G1 Z2.0 F3000 ; Move Z Axis up little to prevent scratching of Heat Bed
G1 X5 Y20 Z0.3 F5000.0 ; Move over to prevent blob squish
G92 E0
G92 E0
G1 F2700 E-5
;LAYER_COUNT:20
;LAYER:0
M107
G0 F6000 X103.323 Y34.509 Z0.28
;TYPE:SKIRT
G1 F2700 E0
G1 F1200 X103.67 Y33.637 E0.0437
G1 X104.125 Y32.735 E0.09074
G1 X104.641 Y31.909 E0.13609
G1 X105.227 Y31.132 E0.18141
G1 X105.883 Y30.405 E0.22701
G1 X106.668 Y29.684 E0.27664
G1 X107.346 Y29.128 E0.31747
G1 X108.296 Y28.385 E0.37362
G1 X109.09 Y27.82 E0.419
G1 X109.868 Y27.362 E0.46104
G1 X110.813 Y26.915 E0.50972
G1 X111.727 Y26.579 E0.55506
G1 X112.635 Y26.333 E0.59887
G1 X113.763 Y26.139 E0.65216
G1 X114.256 Y26.081 E0.67528
G1 X115.206 Y26.013 E0.71962
G1 X115.83 Y26 E0.74869
G1 X118.964 Y26.001 E0.89462
G1 X119.707 Y26.014 E0.92922
G1 X120.68 Y26.075 E0.97462
G1 X121.642 Y26.222 E1.01993
G1 X122.572 Y26.448 E1.0645
G1 X123.024 Y26.59 E1.08656
G1 X124.012 Y26.927 E1.13517
G1 X124.542 Y27.122 E1.16146
G1 X125.455 Y27.507 E1.2076
G1 X126.316 Y27.963 E1.25297
G1 X127.131 Y28.493 E1.29824
G1 X127.872 Y29.07 E1.34197
G1 X128.609 Y29.76 E1.38898
G1 X129.236 Y30.459 E1.4327
G1 X129.84 Y31.267 E1.47968
G1 X130.344 Y32.082 E1.5243
G1 X130.599 Y32.567 E1.54981
G1 X131.158 Y33.704 E1.60881
G1 X131.479 Y34.397 E1.64437
G1 X131.847 Y35.3 E1.68978
G1 X132.133 Y36.23 E1.73508
G1 X132.337 Y37.181 E1.78037
G1 X132.449 Y38.077 E1.82242
G1 X132.486 Y38.773 E1.85487
G1 X132.5 Y39.563 E1.89166
G1 X132.5 Y112.649 E5.29485
G1 X132.537 Y115.221 E5.41463
G1 X132.646 Y117.786 E5.53417
G1 X132.82 Y120.249 E5.64915
G1 X133.069 Y122.766 E5.76692
G1 X133.39 Y125.274 E5.88466
G1 X133.776 Y127.735 E6.00065
G1 X134.234 Y130.2 E6.1174
G1 X134.771 Y132.692 E6.2361
G1 X135.364 Y135.116 E6.3523
G1 X136.035 Y137.56 E6.47031
G1 X136.768 Y139.951 E6.58676
G1 X137.579 Y142.353 E6.70481
G1 X138.453 Y144.724 E6.82248
G1 X139.371 Y147.009 E6.93714
G1 X140.403 Y149.38 E7.05755
G1 X141.464 Y151.646 E7.17406
G1 X142.583 Y153.868 E7.28991
G1 X143.793 Y156.106 E7.40837
G1 X145.031 Y158.254 E7.52382
G1 X146.357 Y160.411 E7.64172
G1 X147.739 Y162.524 E7.75928
G1 X149.18 Y164.591 E7.87661
G1 X150.671 Y166.609 E7.99344
G1 X153.63 Y170.351 E8.21558
G1 X154.263 Y171.202 E8.26497
G1 X155.243 Y172.606 E8.34469
G1 X156.044 Y173.838 E8.41312
G1 X156.712 Y174.941 E8.47316
G1 X157.385 Y176.129 E8.53674
G1 X158.376 Y178.035 E8.63677
G1 X158.948 Y179.249 E8.69926
G1 X159.474 Y180.459 E8.7607
G1 X159.94 Y181.617 E8.81882
G1 X160.282 Y182.528 E8.86413
G1 X160.762 Y183.919 E8.93265
G1 X161.071 Y184.904 E8.98072
G1 X161.352 Y185.894 E9.02864
G1 X161.736 Y187.386 E9.10038
G1 X162.054 Y188.795 E9.16764
G1 X162.254 Y189.827 E9.21659
G1 X162.43 Y190.853 E9.26506
G1 X162.586 Y191.935 E9.31596
G1 X162.762 Y193.429 E9.38601
G1 X162.881 Y194.822 E9.45111
G1 X162.955 Y196.191 E9.51495
G1 X162.986 Y197.316 E9.56735
G1 X162.989 Y198.055 E9.60177
G1 X162.947 Y198.957 E9.64381
G1 X162.805 Y199.993 E9.6925
G1 X162.586 Y200.94 E9.73776
G1 X162.308 Y201.799 E9.7798
G1 X161.9 Y202.762 E9.8285
G1 X161.439 Y203.62 E9.87386
G1 X160.945 Y204.376 E9.91591
G1 X160.298 Y205.198 E9.96462
G1 X159.629 Y205.903 E10.00988
G1 X158.955 Y206.503 E10.05189
G1 X158.114 Y207.125 E10.1006
G1 X157.283 Y207.631 E10.1459
G1 X156.408 Y208.063 E10.19134
G1 X155.5 Y208.413 E10.23666
G1 X154.566 Y208.682 E10.28191
G1 X153.61 Y208.87 E10.32728
G1 X152.684 Y208.968 E10.37064
G1 X152.075 Y208.99 E10.39902
G1 X150.773 Y209 E10.45965
G1 X148.36 Y208.96 E10.57202
G1 X145.724 Y208.956 E10.69476
G1 X143.665 Y209 E10.79066
G1 X91.513 Y208.998 E13.21908
G1 X89.36 Y208.96 E13.31935
G1 X86.722 Y208.956 E13.44218
G1 X84.598 Y209 E13.54111
G1 X82.911 Y208.988 E13.61966
G1 X81.939 Y208.936 E13.66499
G1 X80.976 Y208.799 E13.71028
G1 X80.096 Y208.596 E13.75233
G1 X79.102 Y208.271 E13.80103
G1 X78.271 Y207.915 E13.84312
G1 X77.352 Y207.42 E13.89173
G1 X76.539 Y206.882 E13.93712
G1 X75.779 Y206.275 E13.98242
G1 X75.073 Y205.602 E14.02783
G1 X74.454 Y204.897 E14.07152
G1 X73.857 Y204.084 E14.11849
G1 X73.354 Y203.25 E14.16384
G1 X72.927 Y202.375 E14.20917
G1 X72.579 Y201.466 E14.2545
G1 X72.311 Y200.528 E14.29992
G1 X72.129 Y199.572 E14.34524
G1 X72.032 Y198.615 E14.39003
G1 X72.014 Y197.969 E14.42012
G1 X72.021 Y196.938 E14.46813
G1 X72.075 Y195.501 E14.53509
G1 X72.134 Y194.599 E14.57718
G1 X72.243 Y193.37 E14.63463
G1 X72.368 Y192.272 E14.68609
G1 X72.518 Y191.179 E14.73746
G1 X72.68 Y190.198 E14.78376
G1 X72.962 Y188.74 E14.85291
G1 X73.368 Y186.962 E14.93783
G1 X73.726 Y185.606 E15.00313
G1 X74.012 Y184.634 E15.05031
G1 X74.325 Y183.659 E15.09799
G1 X74.726 Y182.504 E15.15492
G1 X75.09 Y181.534 E15.20317
G1 X75.523 Y180.465 E15.25687
G1 X76.052 Y179.259 E15.31819
G1 X76.873 Y177.535 E15.40711
G1 X77.508 Y176.315 E15.47115
G1 X77.981 Y175.462 E15.51657
G1 X78.552 Y174.487 E15.56918
G1 X78.991 Y173.775 E15.60813
G1 X79.755 Y172.605 E15.6732
G1 X80.56 Y171.451 E15.73871
G1 X81.447 Y170.254 E15.80809
G1 X81.989 Y169.561 E15.84905
G1 X83.913 Y167.155 E15.9925
G1 X85.386 Y165.194 E16.10671
G1 X86.833 Y163.15 E16.22332
G1 X88.254 Y161.019 E16.34258
G1 X89.569 Y158.918 E16.458
G1 X90.875 Y156.697 E16.57797
G1 X92.049 Y154.563 E16.69138
G1 X93.226 Y152.276 E16.81115
G1 X94.315 Y149.999 E16.92868
G1 X95.331 Y147.716 E17.04504
G1 X96.298 Y145.363 E17.1635
G1 X97.172 Y143.048 E17.27872
G1 X98.01 Y140.631 E17.39784
G1 X98.755 Y138.268 E17.51321
G1 X99.445 Y135.839 E17.63079
G1 X100.073 Y133.359 E17.74991
G1 X100.612 Y130.953 E17.86472
G1 X101.091 Y128.484 E17.98183
G1 X101.506 Y125.971 E18.10043
G1 X101.846 Y123.478 E18.21759
G1 X102.115 Y120.976 E18.33477
G1 X102.315 Y118.477 E18.4515
G1 X102.439 Y115.99 E18.56745
G1 X102.5 Y112.633 E18.72379
G1 X102.501 Y39.535 E22.12754
G1 X102.514 Y38.793 E22.1621
G1 X102.576 Y37.817 E22.20764
G1 X102.748 Y36.734 E22.2587
G1 X102.858 Y36.208 E22.28372
G1 X103.038 Y35.462 E22.31945
G1 X103.323 Y34.509 E22.36577
G0 F6000 X103.695 Y34.657
G1 F1200 X104.042 Y33.785 E22.40947
G1 X104.465 Y32.946 E22.45322
G1 X104.961 Y32.149 E22.49694
G1 X105.524 Y31.4 E22.54057
G1 X106.154 Y30.7 E22.58442
G1 X106.939 Y29.979 E22.63405
G1 X107.593 Y29.443 E22.67342
G1 X108.528 Y28.711 E22.72872
G1 X109.293 Y28.165 E22.77248
G1 X110.071 Y27.707 E22.81452
G1 X110.951 Y27.29 E22.85986
G1 X111.832 Y26.965 E22.90359
G1 X112.74 Y26.719 E22.94739
G1 X113.81 Y26.536 E22.99794
G1 X114.285 Y26.48 E23.02021
G1 X115.214 Y26.413 E23.06358
G1 X115.83 Y26.4 E23.09227
G1 X118.957 Y26.401 E23.23788
G1 X119.683 Y26.413 E23.27169
G1 X120.62 Y26.47 E23.3154
G1 X121.548 Y26.611 E23.35911
G1 X122.452 Y26.83 E23.40242
G1 X122.895 Y26.969 E23.42404
G1 X123.874 Y27.303 E23.4722
G1 X124.387 Y27.491 E23.49764
G1 X125.268 Y27.861 E23.54214
G1 X126.098 Y28.299 E23.58584
G1 X126.885 Y28.809 E23.62951
G1 X127.626 Y29.386 E23.67324
G1 X128.311 Y30.027 E23.71692
G1 X128.938 Y30.726 E23.76064
G1 X129.5 Y31.478 E23.80436
G1 X129.99 Y32.269 E23.84769
G1 X130.24 Y32.743 E23.87264
G1 X130.795 Y33.872 E23.93122
G1 X131.109 Y34.549 E23.96597
G1 X131.465 Y35.418 E24.0097
G1 X131.742 Y36.314 E24.05337
G1 X131.94 Y37.231 E24.09705
G1 X132.052 Y38.127 E24.1391
G1 X132.086 Y38.78 E24.16954
G1 X132.1 Y39.57 E24.20633
G1 X132.1 Y112.649 E27.6092
G1 X132.137 Y115.238 E27.72977
G1 X132.246 Y117.803 E27.84931
G1 X132.422 Y120.288 E27.96531
G1 X132.672 Y122.817 E28.08365
G1 X132.993 Y125.325 E28.20138
G1 X133.383 Y127.808 E28.31842
G1 X133.843 Y130.284 E28.43569
G1 X134.382 Y132.787 E28.55491
G1 X134.978 Y135.222 E28.67164
G1 X135.65 Y137.666 E28.78966
G1 X136.389 Y140.079 E28.90718
G1 X137.2 Y142.481 E29.02523
G1 X138.082 Y144.873 E29.14394
G1 X139.004 Y147.169 E29.25915
G1 X140.036 Y149.54 E29.37956
G1 X141.107 Y151.826 E29.4971
G1 X142.231 Y154.058 E29.61347
G1 X143.446 Y156.306 E29.73246
G1 X144.69 Y158.464 E29.84844
G1 X146.022 Y160.63 E29.96685
G1 X147.411 Y162.753 E30.08498
G1 X148.858 Y164.829 E30.20281
G1 X150.349 Y166.847 E30.31964
G1 X153.309 Y170.59 E30.54185
G1 X153.935 Y171.431 E30.59067
G1 X154.908 Y172.824 E30.66979
G1 X155.702 Y174.045 E30.73761
G1 X156.364 Y175.138 E30.79711
G1 X157.03 Y176.314 E30.86004
G1 X158.014 Y178.206 E30.95934
G1 X158.581 Y179.408 E31.02123
G1 X159.103 Y180.609 E31.0822
G1 X159.566 Y181.758 E31.13989
G1 X159.904 Y182.658 E31.18465
G1 X160.38 Y184.039 E31.25267
G1 X160.686 Y185.014 E31.30025
G1 X160.965 Y185.994 E31.3477
G1 X161.346 Y187.474 E31.41886
G1 X161.661 Y188.871 E31.48554
G1 X161.86 Y189.895 E31.53412
G1 X162.034 Y190.91 E31.58207
G1 X162.189 Y191.982 E31.63251
G1 X162.363 Y193.463 E31.70194
G1 X162.482 Y194.856 E31.76704
G1 X162.555 Y196.202 E31.82981
G1 X162.586 Y197.318 E31.88179
G1 X162.589 Y198.036 E31.91523
G1 X162.547 Y198.938 E31.95727
G1 X162.415 Y199.903 E32.00263
G1 X162.205 Y200.817 E32.0463
G1 X161.927 Y201.676 E32.08834
G1 X161.547 Y202.573 E32.1337
G1 X161.104 Y203.401 E32.17743
G1 X160.61 Y204.157 E32.21948
G1 X160.008 Y204.923 E32.26484
G1 X159.363 Y205.604 E32.30852
G1 X158.689 Y206.204 E32.35054
G1 X157.906 Y206.784 E32.39591
G1 X157.105 Y207.273 E32.43961
G1 X156.263 Y207.69 E32.48336
G1 X155.389 Y208.029 E32.52701
G1 X154.488 Y208.29 E32.57069
G1 X153.567 Y208.472 E32.6144
G1 X152.669 Y208.568 E32.65646
G1 X152.072 Y208.59 E32.68428
G1 X150.78 Y208.6 E32.74444
G1 X148.367 Y208.56 E32.85681
G1 X145.716 Y208.556 E32.98025
G1 X143.665 Y208.6 E33.07578
G1 X91.52 Y208.598 E35.50387
G1 X89.367 Y208.56 E35.60414
G1 X86.715 Y208.556 E35.72763
G1 X84.601 Y208.6 E35.82608
G1 X82.932 Y208.589 E35.9038
G1 X81.995 Y208.54 E35.94749
G1 X81.066 Y208.409 E35.99118
G1 X80.186 Y208.206 E36.03323
G1 X79.26 Y207.903 E36.0786
G1 X78.429 Y207.547 E36.12069
G1 X77.572 Y207.086 E36.16601
G1 X76.788 Y206.569 E36.20974
G1 X76.055 Y205.985 E36.25338
G1 X75.374 Y205.338 E36.29712
G1 X74.755 Y204.633 E36.3408
G1 X74.199 Y203.877 E36.3845
G1 X73.713 Y203.074 E36.42821
G1 X73.3 Y202.231 E36.47192
G1 X72.963 Y201.356 E36.51558
G1 X72.704 Y200.453 E36.55932
G1 X72.527 Y199.531 E36.60304
G1 X72.432 Y198.604 E36.64643
G1 X72.414 Y197.972 E36.67587
G1 X72.421 Y196.953 E36.72332
G1 X72.474 Y195.527 E36.78977
G1 X72.532 Y194.634 E36.83144
G1 X72.64 Y193.415 E36.88842
G1 X72.764 Y192.327 E36.93941
G1 X72.913 Y191.244 E36.99031
G1 X73.073 Y190.274 E37.03609
G1 X73.352 Y188.829 E37.10462
G1 X73.755 Y187.064 E37.18892
G1 X74.11 Y185.719 E37.25369
G1 X74.393 Y184.756 E37.30043
G1 X74.703 Y183.79 E37.34767
G1 X75.101 Y182.644 E37.40416
G1 X75.461 Y181.684 E37.4519
G1 X75.889 Y180.626 E37.50504
G1 X76.413 Y179.431 E37.5658
G1 X77.228 Y177.72 E37.65405
G1 X77.858 Y176.509 E37.71761
G1 X78.326 Y175.664 E37.76259
G1 X78.893 Y174.697 E37.81479
G1 X79.326 Y173.994 E37.85324
G1 X80.083 Y172.834 E37.91773
G1 X80.881 Y171.689 E37.98272
G1 X81.762 Y170.5 E38.05163
G1 X82.301 Y169.811 E38.09236
G1 X84.225 Y167.405 E38.23581
G1 X85.706 Y165.434 E38.35061
G1 X87.166 Y163.372 E38.46826
G1 X88.587 Y161.241 E38.58752
G1 X89.914 Y159.121 E38.70398
G1 X91.22 Y156.9 E38.82396
G1 X92.405 Y154.746 E38.93843
G1 X93.582 Y152.459 E39.0582
G1 X94.676 Y150.172 E39.17625
G1 X95.696 Y147.879 E39.29311
G1 X96.668 Y145.515 E39.41213
G1 X97.55 Y143.179 E39.5284
G1 X98.388 Y140.762 E39.64752
G1 X99.14 Y138.377 E39.76396
G1 X99.83 Y135.948 E39.88154
G1 X100.461 Y133.457 E40.0012
G1 X101.005 Y131.029 E40.11706
G1 X101.484 Y128.56 E40.23417
G1 X101.901 Y126.036 E40.35329
G1 X102.244 Y123.521 E40.47148
G1 X102.513 Y121.019 E40.58866
G1 X102.713 Y118.509 E40.7059
G1 X102.839 Y115.997 E40.82302
G1 X102.9 Y112.64 E40.97936
G1 X102.901 Y39.542 E44.38311
G1 X102.913 Y38.818 E44.41683
G1 X102.971 Y37.879 E44.46063
G1 X103.139 Y36.816 E44.51075
G1 X103.247 Y36.302 E44.5352
G1 X103.427 Y35.556 E44.57094
G1 X103.695 Y34.657 E44.61462
G0 F6000 X104.067 Y34.804
G1 F1200 X104.4 Y33.964 E44.65669
G1 X104.805 Y33.157 E44.69874
G1 X105.281 Y32.389 E44.74081
G1 X105.822 Y31.667 E44.78282
G1 X106.425 Y30.995 E44.82486
G1 X107.21 Y30.274 E44.87449
G1 X107.84 Y29.758 E44.91241
G1 X108.761 Y29.036 E44.96691
G1 X109.496 Y28.51 E45.00899
G1 X110.274 Y28.052 E45.05103
G1 X111.09 Y27.665 E45.09308
G1 X111.937 Y27.351 E45.13515
G1 X112.808 Y27.113 E45.17719
G1 X113.857 Y26.933 E45.22675
G1 X114.314 Y26.879 E45.24818
G1 X115.223 Y26.813 E45.29062
G1 X115.83 Y26.8 E45.31889
G1 X118.951 Y26.801 E45.46421
G1 X119.659 Y26.812 E45.49718
G1 X120.561 Y26.866 E45.53926
G1 X121.454 Y27 E45.58131
G1 X122.332 Y27.212 E45.62337
G1 X122.766 Y27.348 E45.64454
G1 X123.736 Y27.679 E45.69227
G1 X124.249 Y27.867 E45.71771
G1 X125.082 Y28.215 E45.75975
G1 X125.881 Y28.635 E45.80178
G1 X126.64 Y29.125 E45.84385
G1 X127.353 Y29.679 E45.88589
G1 X128.014 Y30.295 E45.92796
G1 X128.618 Y30.966 E45.97
G1 X129.16 Y31.689 E46.01208
G1 X129.636 Y32.456 E46.05411
G1 X129.881 Y32.919 E46.0785
G1 X130.432 Y34.04 E46.13666
G1 X130.739 Y34.701 E46.1706
G1 X131.083 Y35.537 E46.2127
G1 X131.351 Y36.399 E46.25473
G1 X131.543 Y37.281 E46.29676
G1 X131.655 Y38.177 E46.33881
G1 X131.686 Y38.787 E46.36725
G1 X131.7 Y39.577 E46.40404
G1 X131.7 Y112.649 E49.80658
G1 X131.737 Y115.255 E49.92794
G1 X131.846 Y117.82 E50.04748
G1 X132.024 Y120.327 E50.16451
G1 X132.275 Y122.868 E50.28341
G1 X132.596 Y125.376 E50.40114
G1 X132.99 Y127.881 E50.51922
G1 X133.452 Y130.368 E50.63701
G1 X133.993 Y132.882 E50.75675
G1 X134.592 Y135.328 E50.87401
G1 X135.265 Y137.772 E50.99205
G1 X136.01 Y140.207 E51.11062
G1 X136.821 Y142.609 E51.22867
G1 X137.711 Y145.022 E51.34843
G1 X138.637 Y147.329 E51.46418
G1 X139.669 Y149.7 E51.58459
G1 X140.75 Y152.006 E51.70318
G1 X141.879 Y154.248 E51.82007
G1 X143.099 Y156.506 E51.93957
G1 X144.349 Y158.674 E52.0561
G1 X145.687 Y160.849 E52.17501
G1 X147.083 Y162.982 E52.29371
G1 X148.536 Y165.067 E52.41205
G1 X150.027 Y167.085 E52.52888
G1 X152.988 Y170.829 E52.75115
G1 X153.607 Y171.66 E52.7994
G1 X154.573 Y173.042 E52.87791
G1 X155.36 Y174.252 E52.94512
G1 X156.016 Y175.335 E53.00408
G1 X156.676 Y176.5 E53.06643
G1 X157.493 Y178.058 E53.14835
G1 X157.652 Y178.377 E53.16494
G1 X158.214 Y179.568 E53.22627
G1 X158.732 Y180.759 E53.28674
G1 X159.192 Y181.899 E53.34398
G1 X159.526 Y182.788 E53.38821
G1 X159.998 Y184.159 E53.45572
G1 X160.301 Y185.124 E53.50282
G1 X160.578 Y186.094 E53.54979
G1 X160.956 Y187.562 E53.62038
G1 X161.268 Y188.948 E53.68653
G1 X161.466 Y189.962 E53.73464
G1 X161.638 Y190.967 E53.78212
G1 X161.792 Y192.029 E53.83208
G1 X161.964 Y193.497 E53.90091
G1 X162.083 Y194.89 E53.96601
G1 X162.155 Y196.213 E54.0277
G1 X162.186 Y197.32 E54.07927
G1 X162.189 Y198.017 E54.11173
G1 X162.147 Y198.919 E54.15377
G1 X162.025 Y199.814 E54.19583
G1 X161.824 Y200.694 E54.23787
G1 X161.546 Y201.553 E54.27991
G1 X161.194 Y202.385 E54.32197
G1 X160.769 Y203.182 E54.36403
G1 X160.275 Y203.938 E54.40608
G1 X159.717 Y204.648 E54.44813
G1 X159.097 Y205.305 E54.4902
G1 X158.423 Y205.905 E54.53221
G1 X157.697 Y206.443 E54.57429
G1 X156.927 Y206.915 E54.61634
G1 X156.118 Y207.317 E54.65841
G1 X155.277 Y207.645 E54.70044
G1 X154.41 Y207.898 E54.7425
G1 X153.524 Y208.074 E54.78456
G1 X152.626 Y208.17 E54.82661
G1 X152.069 Y208.19 E54.85257
G1 X150.787 Y208.2 E54.91226
G1 X148.374 Y208.16 E55.02464
G1 X145.708 Y208.156 E55.14878
G1 X143.665 Y208.2 E55.24393
G1 X91.527 Y208.198 E57.67169
G1 X89.374 Y208.16 E57.77196
G1 X86.708 Y208.156 E57.8961
G1 X84.603 Y208.2 E57.99414
G1 X82.952 Y208.19 E58.07102
G1 X82.05 Y208.144 E58.11308
G1 X81.156 Y208.019 E58.15511
G1 X80.276 Y207.816 E58.19716
G1 X79.418 Y207.535 E58.2392
G1 X78.587 Y207.179 E58.2813
