;FLAVOR:Marlin
;TIME:1886
;Filament used: 1.33403m
;Layer height: 0.28
;MINX:74.507
;MINY:74.506
;MINZ:0.28
;MAXX:160.494
;MAXY:160.494
;MAXZ:3.92
;Generated with Cura_SteamEngine 5.4.0
M140 S50
M105
M190 S50
M104 S200
M105
M109 S200
M82 ;absolute extrusion mode
; Ender 3 Custom Start G-code
G92 E0 ; Reset Extruder
G28 ; Home all axes
G1 Z2.0 F3000 ; Move Z Axis up little to prevent scratching of Heat Bed
G1 X0.1 Y20 Z0.3 F5000.0 ; Move to start position
G1 X0.1 Y200.0 Z0.3 F1500.0 E15 ; Draw the first line
G1 X0.4 Y200.0 Z0.3 F5000.0 ; Move to side a little
G1 X0.4 Y20 Z0.3 F1500.0 E30 ; Draw the second line
G92 E0 ; Reset Extruder
G1 Z2.0 F3000 ; Move Z Axis up little to prevent scratching of Heat Bed
G1 X5 Y20 Z0.3 F5000.0 ; Move over to prevent blob squish
G92 E0
G92 E0
G1 F2700 E-5
;LAYER_COUNT:14
;LAYER:0
M107
G0 F6000 X86.852 Y87.348 Z0.28
;TYPE:SKIRT
G1 F2700 E0
G1 F1200 X87.598 Y86.607 E0.04896
G1 X88.359 Y85.888 E0.09771
G1 X89.132 Y85.193 E0.14611
G1 X89.804 Y84.615 E0.18739
G1 X90.558 Y83.993 E0.2329
G1 X91.383 Y83.347 E0.28169
G1 X92.475 Y82.54 E0.34492
G1 X93.325 Y81.946 E0.39321
G1 X93.994 Y81.501 E0.43062
G1 X95.099 Y80.803 E0.49148
G1 X96.02 Y80.256 E0.54136
G1 X96.73 Y79.855 E0.57933
G1 X97.814 Y79.277 E0.63653
G1 X98.832 Y78.769 E0.68951
G1 X99.503 Y78.453 E0.72404
G1 X100.766 Y77.895 E0.78834
G1 X101.394 Y77.636 E0.81997
G1 X102.457 Y77.223 E0.87307
G1 X103.692 Y76.783 E0.93412
G1 X104.65 Y76.47 E0.98105
G1 X105.455 Y76.227 E1.0202
G1 X106.724 Y75.879 E1.08147
G1 X107.714 Y75.634 E1.12896
G1 X108.774 Y75.4 E1.17951
G1 X109.799 Y75.203 E1.22811
G1 X110.739 Y75.044 E1.2725
G1 X112.19 Y74.839 E1.34074
G1 X113.598 Y74.683 E1.4067
G1 X114.245 Y74.629 E1.43693
G1 X115.309 Y74.561 E1.48658
G1 X116.6 Y74.515 E1.54673
G1 X117.626 Y74.506 E1.59451
G1 X118.822 Y74.525 E1.65021
G1 X119.765 Y74.565 E1.69416
G1 X120.792 Y74.632 E1.74208
G1 X121.932 Y74.735 E1.79538
G1 X122.921 Y74.849 E1.84174
G1 X123.87 Y74.983 E1.88636
G1 X125.263 Y75.218 E1.95214
G1 X126.905 Y75.553 E2.03018
G1 X128.44 Y75.928 E2.10375
G1 X130.012 Y76.373 E2.17983
G1 X131.287 Y76.777 E2.24211
G1 X132.088 Y77.057 E2.28162
G1 X133.175 Y77.465 E2.33568
G1 X134.09 Y77.835 E2.38164
G1 X135.029 Y78.244 E2.42933
G1 X136.29 Y78.833 E2.49414
G1 X137.602 Y79.495 E2.56257
G1 X138.309 Y79.878 E2.60001
G1 X139.379 Y80.49 E2.65741
G1 X140.208 Y80.992 E2.70253
G1 X141.04 Y81.522 E2.74847
G1 X141.989 Y82.162 E2.80177
G1 X142.74 Y82.698 E2.84473
G1 X143.861 Y83.544 E2.91013
G1 X145.214 Y84.636 E2.99109
G1 X145.964 Y85.281 E3.03715
G1 X146.893 Y86.123 E3.09553
G1 X147.493 Y86.695 E3.13413
G1 X148.335 Y87.539 E3.18964
G1 X149.124 Y88.372 E3.24307
G1 X149.756 Y89.074 E3.28705
G1 X150.458 Y89.894 E3.33732
G1 X151.327 Y90.969 E3.40168
G1 X152.184 Y92.095 E3.46757
G1 X152.712 Y92.831 E3.50975
G1 X153.32 Y93.721 E3.55994
G1 X153.858 Y94.555 E3.60615
G1 X154.595 Y95.771 E3.67236
G1 X155.131 Y96.707 E3.72259
G1 X155.742 Y97.849 E3.7829
G1 X156.189 Y98.746 E3.82956
G1 X156.643 Y99.713 E3.87931
G1 X157.087 Y100.722 E3.93064
G1 X157.355 Y101.373 E3.96342
G1 X157.861 Y102.682 E4.02877
G1 X158.113 Y103.388 E4.06367
G1 X158.458 Y104.43 E4.11478
G1 X158.724 Y105.295 E4.15692
G1 X159.186 Y106.988 E4.23864
G1 X159.436 Y108.03 E4.28853
G1 X159.652 Y109.037 E4.33649
G1 X159.872 Y110.208 E4.39197
G1 X160.048 Y111.314 E4.44412
G1 X160.192 Y112.4 E4.49513
G1 X160.279 Y113.192 E4.53223
G1 X160.383 Y114.424 E4.5898
G1 X160.454 Y115.623 E4.64573
G1 X160.484 Y116.529 E4.68794
G1 X160.494 Y117.557 E4.73581
G1 X160.476 Y118.787 E4.79309
G1 X160.438 Y119.688 E4.83508
G1 X160.383 Y120.604 E4.87781
G1 X160.291 Y121.666 E4.92745
G1 X160.12 Y123.147 E4.99687
G1 X159.91 Y124.549 E5.06288
G1 X159.684 Y125.8 E5.12207
G1 X159.454 Y126.895 E5.17418
G1 X159.195 Y127.995 E5.2268
G1 X158.905 Y129.086 E5.27936
G1 X158.602 Y130.115 E5.32931
G1 X158.266 Y131.165 E5.38065
G1 X157.951 Y132.071 E5.42531
G1 X157.573 Y133.08 E5.47548
G1 X157.213 Y133.968 E5.5201
G1 X156.751 Y135.037 E5.57433
G1 X156.021 Y136.596 E5.65448
G1 X155.612 Y137.403 E5.69661
G1 X155.209 Y138.156 E5.73638
G1 X154.584 Y139.255 E5.79525
G1 X154.176 Y139.934 E5.83214
G1 X153.451 Y141.08 E5.89528
G1 X152.886 Y141.918 E5.94234
G1 X152.24 Y142.829 E5.99435
G1 X151.636 Y143.638 E6.04136
G1 X151.162 Y144.245 E6.07722
G1 X150.317 Y145.277 E6.13933
G1 X149.735 Y145.951 E6.18079
G1 X149.122 Y146.631 E6.22342
G1 X148.152 Y147.649 E6.2889
G1 X147.404 Y148.391 E6.33796
G1 X146.835 Y148.932 E6.37452
G1 X145.866 Y149.809 E6.43537
G1 X145.016 Y150.536 E6.48746
G1 X144.437 Y151.012 E6.52236
G1 X143.443 Y151.784 E6.58096
G1 X142.527 Y152.459 E6.63394
G1 X141.674 Y153.055 E6.6824
G1 X140.8 Y153.633 E6.73119
G1 X139.899 Y154.198 E6.78071
G1 X139.004 Y154.73 E6.82919
G1 X138.279 Y155.14 E6.86798
G1 X137.19 Y155.721 E6.92545
G1 X136.404 Y156.117 E6.96643
G1 X135.283 Y156.645 E7.02413
G1 X134.467 Y157.005 E7.06566
G1 X133.466 Y157.417 E7.11607
G1 X132.025 Y157.962 E7.1878
G1 X130.716 Y158.412 E7.25226
G1 X129.804 Y158.696 E7.29673
G1 X129.068 Y158.909 E7.33241
G1 X127.746 Y159.256 E7.39606
G1 X126.761 Y159.485 E7.44314
G1 X125.752 Y159.693 E7.49112
G1 X124.668 Y159.892 E7.54243
G1 X123.627 Y160.055 E7.5915
G1 X122.454 Y160.208 E7.64658
G1 X121.627 Y160.295 E7.6853
G1 X120.794 Y160.368 E7.72424
G1 X119.431 Y160.451 E7.78782
G1 X118.4 Y160.485 E7.83586
G1 X117.374 Y160.494 E7.88363
G1 X116.18 Y160.475 E7.93924
G1 X115.258 Y160.436 E7.98221
G1 X114.181 Y160.365 E8.03247
G1 X113.069 Y160.266 E8.08445
G1 X112.328 Y160.182 E8.11918
G1 X111.128 Y160.017 E8.17558
G1 X109.737 Y159.782 E8.24127
G1 X108.095 Y159.447 E8.3193
G1 X106.56 Y159.072 E8.39288
G1 X104.988 Y158.627 E8.46895
G1 X103.713 Y158.223 E8.53123
G1 X102.912 Y157.943 E8.57074
G1 X101.825 Y157.535 E8.62481
G1 X100.918 Y157.167 E8.67038
G1 X99.877 Y156.717 E8.72319
G1 X99.039 Y156.326 E8.76625
G1 X97.756 Y155.69 E8.83293
G1 X96.565 Y155.052 E8.89585
G1 X95.64 Y154.523 E8.94546
G1 X94.991 Y154.133 E8.98072
G1 X93.95 Y153.471 E9.03817
G1 X93.225 Y152.987 E9.07876
G1 X92.259 Y152.303 E9.13387
G1 X91.138 Y151.456 E9.19929
G1 X89.779 Y150.359 E9.28062
G1 X89.03 Y149.714 E9.32665
G1 X88.107 Y148.877 E9.38466
G1 X87.509 Y148.307 E9.42313
G1 X86.665 Y147.461 E9.47878
G1 X85.875 Y146.628 E9.53223
G1 X85.25 Y145.933 E9.57576
G1 X84.722 Y145.32 E9.61343
G1 X83.671 Y144.028 E9.69098
G1 X82.804 Y142.888 E9.75767
G1 X82.289 Y142.17 E9.79882
G1 X81.662 Y141.252 E9.85058
G1 X81.102 Y140.383 E9.89872
G1 X80.55 Y139.482 E9.94792
G1 X80.147 Y138.788 E9.98529
G1 X79.608 Y137.812 E10.03721
G1 X79.206 Y137.044 E10.07757
G1 X78.458 Y135.498 E10.15754
G1 X77.98 Y134.426 E10.2122
G1 X77.645 Y133.625 E10.25263
G1 X77.133 Y132.299 E10.31881
G1 X76.819 Y131.414 E10.36254
G1 X76.534 Y130.55 E10.4049
G1 X76.17 Y129.346 E10.46347
G1 X75.891 Y128.321 E10.51294
G1 X75.621 Y127.232 E10.56518
G1 X75.427 Y126.345 E10.60746
G1 X75.205 Y125.217 E10.66099
G1 X75.034 Y124.217 E10.70823
G1 X74.87 Y123.085 E10.76149
G1 X74.76 Y122.172 E10.80431
G1 X74.648 Y120.997 E10.85927
G1 X74.584 Y120.076 E10.90226
G1 X74.525 Y118.69 E10.96686
G1 X74.507 Y117.535 E11.02065
G1 X74.516 Y116.502 E11.06875
G1 X74.549 Y115.553 E11.11297
G1 X74.634 Y114.186 E11.17674
G1 X74.715 Y113.286 E11.21882
G1 X74.838 Y112.189 E11.27022
G1 X75.039 Y110.769 E11.337
G1 X75.316 Y109.2 E11.41119
G1 X75.546 Y108.105 E11.46329
G1 X75.806 Y107.003 E11.51601
G1 X76.096 Y105.913 E11.56853
G1 X76.399 Y104.884 E11.61848
G1 X76.654 Y104.08 E11.65776
G1 X77.061 Y102.898 E11.71597
G1 X77.348 Y102.129 E11.75419
G1 X77.786 Y101.033 E11.80915
G1 X78.377 Y99.676 E11.87807
G1 X78.975 Y98.414 E11.9431
G1 X79.419 Y97.54 E11.98874
G1 X79.757 Y96.906 E12.0222
G1 X80.29 Y95.96 E12.07276
G1 X80.835 Y95.047 E12.12227
G1 X81.547 Y93.923 E12.18422
G1 X82.114 Y93.08 E12.23153
G1 X82.601 Y92.388 E12.27093
G1 X83.372 Y91.351 E12.3311
G1 X83.842 Y90.749 E12.36667
G1 X84.696 Y89.708 E12.42936
G1 X85.266 Y89.048 E12.46997
G1 X86.05 Y88.184 E12.5243
G1 X86.852 Y87.348 E12.57824
G0 F6000 X87.134 Y87.632
G1 F1200 X87.873 Y86.898 E12.62674
G1 X88.627 Y86.185 E12.67506
G1 X89.393 Y85.496 E12.72304
G1 X90.058 Y84.924 E12.76388
G1 X90.805 Y84.308 E12.80897
G1 X91.621 Y83.669 E12.85723
G1 X92.704 Y82.868 E12.91995
G1 X93.547 Y82.279 E12.96784
G1 X94.208 Y81.839 E13.00481
G1 X95.303 Y81.147 E13.06513
G1 X96.217 Y80.604 E13.11463
G1 X96.918 Y80.208 E13.15212
G1 X97.992 Y79.635 E13.2088
G1 X99.003 Y79.131 E13.2614
G1 X99.665 Y78.819 E13.29548
G1 X100.918 Y78.265 E13.35927
G1 X101.539 Y78.009 E13.39055
G1 X102.591 Y77.6 E13.44311
G1 X103.816 Y77.163 E13.50367
G1 X104.766 Y76.853 E13.5502
G1 X105.561 Y76.613 E13.58887
G1 X106.82 Y76.267 E13.64967
G1 X107.8 Y76.025 E13.69667
G1 X108.85 Y75.793 E13.74674
G1 X109.866 Y75.597 E13.79493
G1 X110.795 Y75.44 E13.8388
G1 X112.234 Y75.237 E13.90647
G1 X113.632 Y75.082 E13.97196
G1 X114.27 Y75.028 E14.00178
G1 X115.323 Y74.961 E14.05091
G1 X116.604 Y74.915 E14.11059
G1 X117.62 Y74.906 E14.15791
G1 X118.805 Y74.925 E14.21309
G1 X119.739 Y74.964 E14.25662
G1 X120.756 Y75.03 E14.30408
G1 X121.886 Y75.132 E14.35691
G1 X122.865 Y75.245 E14.4028
G1 X123.803 Y75.377 E14.4469
G1 X125.183 Y75.61 E14.51207
G1 X126.81 Y75.942 E14.58939
G1 X128.331 Y76.313 E14.66229
G1 X129.891 Y76.754 E14.73778
G1 X131.155 Y77.155 E14.79953
G1 X131.947 Y77.431 E14.83858
G1 X133.025 Y77.836 E14.8922
G1 X133.93 Y78.202 E14.93766
G1 X134.86 Y78.607 E14.98489
G1 X136.11 Y79.19 E15.04912
G1 X137.411 Y79.847 E15.11698
G1 X138.118 Y80.23 E15.15443
G1 X139.172 Y80.832 E15.21095
G1 X139.993 Y81.329 E15.25563
G1 X140.817 Y81.854 E15.30113
G1 X141.757 Y82.487 E15.3539
G1 X142.499 Y83.017 E15.39636
G1 X143.61 Y83.855 E15.46116
G1 X144.953 Y84.939 E15.54152
G1 X145.695 Y85.577 E15.58709
G1 X146.617 Y86.413 E15.64504
G1 X147.21 Y86.978 E15.68318
G1 X148.045 Y87.814 E15.7382
G1 X148.827 Y88.639 E15.79113
G1 X149.452 Y89.334 E15.83465
G1 X150.147 Y90.146 E15.88442
G1 X151.009 Y91.211 E15.94822
G1 X151.859 Y92.328 E16.01358
G1 X152.382 Y93.056 E16.05532
G1 X152.984 Y93.938 E16.10504
G1 X153.516 Y94.762 E16.15071
G1 X154.248 Y95.97 E16.21649
G1 X154.778 Y96.896 E16.26617
G1 X155.384 Y98.028 E16.32596
G1 X155.827 Y98.916 E16.37216
G1 X156.277 Y99.874 E16.42145
G1 X156.717 Y100.875 E16.47236
G1 X156.982 Y101.517 E16.5047
G1 X157.484 Y102.817 E16.56959
G1 X157.733 Y103.514 E16.60406
G1 X158.076 Y104.547 E16.65474
G1 X158.338 Y105.4 E16.69629
G1 X158.797 Y107.081 E16.77743
G1 X159.045 Y108.114 E16.8269
G1 X159.259 Y109.111 E16.87438
G1 X159.477 Y110.271 E16.92934
G1 X159.651 Y111.367 E16.98102
G1 X159.794 Y112.444 E17.0316
G1 X159.88 Y113.226 E17.06824
G1 X159.984 Y114.448 E17.12534
G1 X160.054 Y115.636 E17.18076
G1 X160.084 Y116.533 E17.22255
G1 X160.094 Y117.551 E17.26996
G1 X160.076 Y118.77 E17.32672
G1 X160.039 Y119.664 E17.36839
G1 X159.984 Y120.569 E17.41061
G1 X159.892 Y121.631 E17.46024
G1 X159.724 Y123.088 E17.52854
G1 X159.516 Y124.478 E17.59398
G1 X159.292 Y125.718 E17.65265
G1 X159.065 Y126.803 E17.70427
G1 X158.808 Y127.892 E17.75637
G1 X158.521 Y128.973 E17.80845
G1 X158.221 Y129.993 E17.85796
G1 X157.888 Y131.034 E17.90885
G1 X157.576 Y131.931 E17.95307
G1 X157.202 Y132.93 E18.00274
G1 X156.846 Y133.809 E18.0469
G1 X156.389 Y134.867 E18.10057
G1 X155.664 Y136.415 E18.18016
G1 X155.259 Y137.214 E18.22188
G1 X154.861 Y137.958 E18.26116
G1 X154.241 Y139.049 E18.3196
G1 X153.838 Y139.72 E18.35604
G1 X153.119 Y140.857 E18.41868
G1 X152.56 Y141.687 E18.46528
G1 X151.92 Y142.59 E18.51682
G1 X151.321 Y143.392 E18.56343
G1 X150.852 Y143.992 E18.59889
G1 X150.014 Y145.016 E18.6605
G1 X149.438 Y145.683 E18.70154
G1 X148.832 Y146.355 E18.74367
G1 X147.87 Y147.365 E18.80862
G1 X147.128 Y148.101 E18.85729
G1 X146.559 Y148.642 E18.89385
G1 X145.606 Y149.505 E18.95371
G1 X144.762 Y150.227 E19.00543
G1 X144.191 Y150.696 E19.03984
G1 X143.206 Y151.462 E19.09794
G1 X142.298 Y152.131 E19.15046
G1 X141.453 Y152.721 E19.19845
G1 X140.587 Y153.294 E19.2468
G1 X139.695 Y153.854 E19.29584
G1 X138.807 Y154.382 E19.34395
G1 X138.091 Y154.787 E19.38225
G1 X137.01 Y155.364 E19.43931
G1 X136.233 Y155.755 E19.47981
G1 X135.122 Y156.279 E19.53701
G1 X134.315 Y156.635 E19.57808
G1 X133.324 Y157.043 E19.62799
G1 X131.895 Y157.584 E19.69913
G1 X130.597 Y158.03 E19.76304
G1 X129.693 Y158.312 E19.80714
G1 X128.967 Y158.522 E19.84233
G1 X127.655 Y158.866 E19.90549
G1 X126.68 Y159.093 E19.9521
G1 X125.68 Y159.3 E19.99965
G1 X124.606 Y159.497 E20.0505
G1 X123.575 Y159.658 E20.09909
G1 X122.412 Y159.81 E20.1537
G1 X121.592 Y159.897 E20.1921
G1 X120.77 Y159.969 E20.23052
G1 X119.418 Y160.051 E20.29359
G1 X118.396 Y160.085 E20.3412
G1 X117.38 Y160.094 E20.38852
G1 X116.197 Y160.075 E20.44361
G1 X115.284 Y160.037 E20.48616
G1 X114.216 Y159.967 E20.536
G1 X113.114 Y159.869 E20.58751
G1 X112.382 Y159.786 E20.62182
G1 X111.195 Y159.623 E20.67761
G1 X109.817 Y159.39 E20.74268
G1 X108.19 Y159.058 E20.82
G1 X106.669 Y158.687 E20.8929
G1 X105.109 Y158.246 E20.96839
G1 X103.845 Y157.845 E21.03014
G1 X103.053 Y157.569 E21.06919
G1 X101.975 Y157.164 E21.12281
G1 X101.077 Y156.8 E21.16793
G1 X100.046 Y156.354 E21.22024
G1 X99.217 Y155.968 E21.26282
G1 X97.945 Y155.337 E21.32894
G1 X96.764 Y154.705 E21.39131
G1 X95.846 Y154.18 E21.44055
G1 X95.206 Y153.795 E21.47533
G1 X94.172 Y153.138 E21.53238
G1 X93.456 Y152.66 E21.57246
G1 X92.5 Y151.984 E21.62698
G1 X91.389 Y151.145 E21.69181
G1 X90.04 Y150.056 E21.77254
G1 X89.299 Y149.418 E21.81807
G1 X88.383 Y148.587 E21.87566
G1 X87.792 Y148.024 E21.91367
G1 X86.955 Y147.186 E21.96882
G1 X86.172 Y146.36 E22.02181
G1 X85.553 Y145.672 E22.06491
G1 X85.032 Y145.068 E22.10205
G1 X83.989 Y143.786 E22.17901
G1 X83.129 Y142.655 E22.24517
G1 X82.619 Y141.945 E22.28587
G1 X81.998 Y141.035 E22.33717
G1 X81.443 Y140.174 E22.38487
G1 X80.896 Y139.281 E22.43363
G1 X80.497 Y138.595 E22.47059
G1 X79.962 Y137.627 E22.52209
G1 X79.566 Y136.87 E22.56187
G1 X78.823 Y135.335 E22.64128
G1 X78.349 Y134.272 E22.69547
G1 X78.018 Y133.481 E22.7354
G1 X77.51 Y132.165 E22.80108
G1 X77.199 Y131.289 E22.84437
G1 X76.917 Y130.434 E22.88629
G1 X76.556 Y129.241 E22.94433
G1 X76.279 Y128.225 E22.99337
G1 X76.012 Y127.146 E23.04512
G1 X75.819 Y126.268 E23.08698
G1 X75.599 Y125.15 E23.14004
G1 X75.43 Y124.159 E23.18685
G1 X75.267 Y123.037 E23.23965
G1 X75.158 Y122.134 E23.282
G1 X75.047 Y120.969 E23.33649
G1 X74.984 Y120.059 E23.37897
G1 X74.925 Y118.684 E23.44305
G1 X74.907 Y117.539 E23.49637
G1 X74.916 Y116.516 E23.54401
G1 X74.948 Y115.578 E23.58771
G1 X75.032 Y114.222 E23.65097
G1 X75.112 Y113.331 E23.69263
G1 X75.234 Y112.245 E23.74352
G1 X75.433 Y110.839 E23.80964
G1 X75.708 Y109.282 E23.88326
G1 X75.935 Y108.197 E23.93488
G1 X76.192 Y107.106 E23.98707
G1 X76.48 Y106.026 E24.03912
G1 X76.78 Y105.005 E24.08867
G1 X77.032 Y104.21 E24.1275
G1 X77.436 Y103.038 E24.18523
G1 X77.719 Y102.278 E24.22299
G1 X78.153 Y101.193 E24.2774
G1 X78.744 Y99.836 E24.34632
G1 X79.332 Y98.595 E24.41027
G1 X79.772 Y97.728 E24.45554
G1 X80.106 Y97.102 E24.48858
G1 X80.633 Y96.165 E24.53864
G1 X81.173 Y95.261 E24.58767
G1 X81.879 Y94.146 E24.64912
G1 X82.441 Y93.31 E24.69603
G1 X82.922 Y92.627 E24.73493
G1 X83.687 Y91.597 E24.79467
G1 X84.151 Y91.003 E24.82977
G1 X84.999 Y89.969 E24.89203
G1 X85.562 Y89.317 E24.93215
G1 X86.339 Y88.461 E24.98598
G1 X87.134 Y87.632 E25.03946
G0 F6000 X87.416 Y87.916
G1 F1200 X88.148 Y87.189 E25.0875
G1 X88.895 Y86.482 E25.13539
G1 X89.654 Y85.799 E25.18294
G1 X90.312 Y85.233 E25.22335
G1 X91.052 Y84.623 E25.26801
G1 X91.859 Y83.991 E25.31574
G1 X92.933 Y83.196 E25.37796
G1 X93.769 Y82.612 E25.42544
G1 X94.422 Y82.177 E25.46198
G1 X95.508 Y81.491 E25.52179
G1 X96.414 Y80.952 E25.57088
G1 X97.107 Y80.561 E25.60793
G1 X98.17 Y79.993 E25.66405
G1 X99.173 Y79.493 E25.71623
G1 X99.827 Y79.185 E25.7499
G1 X101.071 Y78.635 E25.81323
G1 X101.684 Y78.382 E25.84411
G1 X102.726 Y77.977 E25.89617
G1 X103.94 Y77.543 E25.9562
G1 X104.882 Y77.236 E26.00233
G1 X105.667 Y76.999 E26.04052
G1 X106.916 Y76.655 E26.10084
G1 X107.886 Y76.416 E26.14736
G1 X108.926 Y76.186 E26.19695
G1 X109.933 Y75.991 E26.24472
G1 X110.851 Y75.836 E26.28807
