;FLAVOR:Marlin
;TIME:35137
;Filament used: 19.8276m
;Layer height: 0.16
;MINX:13
;MINY:33
;MINZ:0.2
;MAXX:207
;MAXY:187
;MAXZ:7.8
;Generated with Creality Slicer 4.8.2-191
M140 S50
M105
M190 S50
M104 S200
M105
M109 S200
M82 ;absolute extrusion mode

G28 ;Home

G92 E0 ;Reset Extruder
G1 Z2.0 F3000 ;Move Z Axis up
G1 X10.1 Y20 Z0.28 F5000.0 ;Move to start position
G1 X10.1 Y200.0 Z0.28 F1500.0 E15 ;Draw the first line
G1 X10.4 Y200.0 Z0.28 F5000.0 ;Move to side a little
G1 X10.4 Y20 Z0.28 F1500.0 E30 ;Draw the second line
G92 E0 ;Reset Extruder
G1 Z2.0 F3000 ;Move Z Axis up

G92 E0
G92 E0
G1 F2700 E-1
;LAYER_COUNT:41
;LAYER:0
M107
G0 F6000 X18.412 Y34.539 Z0.2
;TYPE:SKIRT
G1 F2700 E0
G1 F1200 X19.239 Y34.097 E0.03119
G1 X20.101 Y33.727 E0.06239
G1 X20.991 Y33.431 E0.09358
G1 X21.903 Y33.213 E0.12477
G1 X22.83 Y33.072 E0.15596
G1 X23.701 Y33.013 E0.18499
G1 X24.022 Y33.004 E0.19567
G1 X24.33 Y33 E0.20592
G1 X195.293 Y33 E5.89217
G1 X196.149 Y33.011 E5.92065
G1 X197.085 Y33.065 E5.95183
G1 X198.013 Y33.197 E5.983
G1 X198.927 Y33.409 E6.01421
G1 X199.819 Y33.698 E6.0454
G1 X200.684 Y34.061 E6.0766
G1 X201.514 Y34.497 E6.10778
G1 X202.305 Y35.002 E6.13899
G1 X203.049 Y35.573 E6.17019
G1 X203.742 Y36.205 E6.20138
G1 X204.379 Y36.893 E6.23257
G1 X204.954 Y37.634 E6.26376
G1 X205.465 Y38.42 E6.29495
G1 X205.907 Y39.248 E6.32616
G1 X206.276 Y40.11 E6.35735
G1 X206.571 Y41 E6.38853
G1 X206.789 Y41.912 E6.41972
G1 X206.929 Y42.84 E6.45094
G1 X206.987 Y43.701 E6.47964
G1 X206.996 Y44.021 E6.49029
G1 X207 Y44.33 E6.50056
G1 X206.999 Y107.416 E8.59881
G1 X206.989 Y108.142 E8.62296
G1 X206.936 Y109.078 E8.65414
G1 X206.804 Y110.006 E8.68532
G1 X206.593 Y110.92 E8.71652
G1 X206.304 Y111.813 E8.74774
G1 X205.941 Y112.677 E8.77891
G1 X205.506 Y113.508 E8.8101
G1 X205.001 Y114.299 E8.84132
G1 X204.431 Y115.043 E8.87249
G1 X203.8 Y115.737 E8.90369
G1 X203.111 Y116.374 E8.9349
G1 X202.371 Y116.95 E8.96609
G1 X201.585 Y117.461 E8.99727
G1 X200.758 Y117.903 E9.02846
G1 X199.896 Y118.273 E9.05966
G1 X199.006 Y118.569 E9.09085
G1 X198.191 Y118.768 E9.11876
G1 X197.809 Y118.846 E9.13172
G1 X195.314 Y119.386 E9.21663
G1 X192.926 Y119.972 E9.29841
G1 X190.447 Y120.658 E9.38396
G1 X188.026 Y121.401 E9.46819
G1 X185.658 Y122.202 E9.55133
G1 X183.319 Y123.067 E9.63428
G1 X180.937 Y124.025 E9.71967
G1 X178.662 Y125.017 E9.80222
G1 X176.372 Y126.092 E9.88636
G1 X174.149 Y127.215 E9.9692
G1 X171.894 Y128.434 E10.05446
G1 X169.767 Y129.663 E10.13616
G1 X167.598 Y131 E10.22091
G1 X165.461 Y132.401 E10.3059
G1 X163.429 Y133.819 E10.38831
G1 X161.418 Y135.307 E10.47151
G1 X159.406 Y136.887 E10.5566
G1 X157.484 Y138.486 E10.63976
G1 X155.585 Y140.158 E10.72391
G1 X153.766 Y141.853 E10.80661
G1 X151.966 Y143.629 E10.89071
G1 X150.233 Y145.438 E10.97403
G1 X148.521 Y147.33 E11.0589
G1 X146.898 Y149.228 E11.14196
G1 X145.307 Y151.199 E11.22621
G1 X143.794 Y153.188 E11.30933
G1 X142.329 Y155.23 E11.39291
G1 X140.897 Y157.347 E11.47792
G1 X139.574 Y159.431 E11.56002
G1 X138.282 Y161.599 E11.64397
G1 X137.038 Y163.824 E11.72875
G1 X135.888 Y166.028 E11.81143
G1 X134.778 Y168.31 E11.89584
G1 X133.745 Y170.596 E11.97927
G1 X132.779 Y172.906 E12.06255
G1 X131.849 Y175.317 E12.1485
G1 X131.039 Y177.611 E12.22941
G1 X130.769 Y178.454 E12.25886
G1 X130.41 Y179.517 E12.29617
G1 X130.072 Y180.392 E12.32737
G1 X129.66 Y181.235 E12.35858
G1 X129.178 Y182.039 E12.38976
G1 X128.63 Y182.8 E12.42095
G1 X128.018 Y183.511 E12.45215
G1 X127.348 Y184.168 E12.48336
G1 X126.625 Y184.765 E12.51455
G1 X125.853 Y185.298 E12.54575
G1 X125.039 Y185.763 E12.57693
G1 X124.188 Y186.158 E12.60813
G1 X123.307 Y186.478 E12.63931
G1 X122.401 Y186.723 E12.67052
G1 X121.478 Y186.889 E12.70172
G1 X120.334 Y186.985 E12.7399
G1 X120.013 Y186.995 E12.75058
G1 X119.67 Y187 E12.76199
G1 X24.565 Y186.999 E15.9252
G1 X23.867 Y186.99 E15.94841
G1 X22.931 Y186.938 E15.97959
G1 X22.002 Y186.806 E16.0108
G1 X21.088 Y186.596 E16.04199
G1 X20.195 Y186.309 E16.07319
G1 X19.33 Y185.946 E16.10439
G1 X18.499 Y185.512 E16.13557
G1 X17.708 Y185.008 E16.16677
G1 X16.963 Y184.438 E16.19797
G1 X16.269 Y183.807 E16.22917
G1 X15.632 Y183.12 E16.26033
G1 X15.055 Y182.38 E16.29154
G1 X14.543 Y181.594 E16.32274
G1 X14.1 Y180.767 E16.35394
G1 X13.729 Y179.906 E16.38512
G1 X13.433 Y179.016 E16.41632
G1 X13.214 Y178.104 E16.44751
G1 X13.073 Y177.177 E16.4787
G1 X13.013 Y176.288 E16.50834
G1 X13.004 Y175.955 E16.51942
G1 X13 Y175.658 E16.52929
G1 X13.001 Y112.53 E18.62894
G1 X13.017 Y111.386 E18.66699
G1 X13.017 Y108.746 E18.7548
G1 X13.002 Y108.026 E18.77875
G1 X13 Y107.702 E18.78953
G1 X13.001 Y44.525 E20.89081
G1 X13.01 Y43.86 E20.91293
G1 X13.063 Y42.924 E20.94411
G1 X13.195 Y41.995 E20.97532
G1 X13.406 Y41.081 E21.00651
G1 X13.694 Y40.189 E21.03769
G1 X14.057 Y39.324 E21.06889
G1 X14.492 Y38.493 E21.10009
G1 X14.996 Y37.703 E21.13126
G1 X15.566 Y36.958 E21.16246
G1 X16.198 Y36.264 E21.19367
G1 X16.886 Y35.627 E21.22486
G1 X17.626 Y35.051 E21.25605
G1 X18.412 Y34.539 E21.28725
G0 F6000 X18.791 Y34.782
G1 F1200 X19.611 Y34.364 E21.31786
G1 X20.465 Y34.019 E21.3485
G1 X21.345 Y33.749 E21.37911
G1 X22.245 Y33.557 E21.40972
G1 X23.159 Y33.443 E21.44035
G1 X23.712 Y33.413 E21.45877
G1 X24.033 Y33.404 E21.46946
G1 X24.33 Y33.4 E21.47933
G1 X195.293 Y33.4 E27.16559
G1 X196.143 Y33.411 E27.19386
G1 X197.062 Y33.464 E27.22448
G1 X197.973 Y33.597 E27.2551
G1 X198.869 Y33.808 E27.28571
G1 X199.743 Y34.096 E27.31632
G1 X200.59 Y34.459 E27.34697
G1 X201.401 Y34.894 E27.37758
G1 X202.171 Y35.398 E27.40819
G1 X202.895 Y35.967 E27.43882
G1 X203.567 Y36.597 E27.46945
G1 X204.182 Y37.282 E27.50007
G1 X204.735 Y38.018 E27.53069
G1 X205.222 Y38.799 E27.5613
G1 X205.639 Y39.62 E27.59193
G1 X205.984 Y40.474 E27.62256
G1 X206.253 Y41.354 E27.65317
G1 X206.445 Y42.255 E27.68381
G1 X206.558 Y43.168 E27.71441
G1 X206.587 Y43.712 E27.73253
G1 X206.596 Y44.032 E27.74318
G1 X206.6 Y44.33 E27.75309
G1 X206.599 Y107.41 E29.85114
G1 X206.589 Y108.136 E29.87529
G1 X206.536 Y109.055 E29.9059
G1 X206.404 Y109.966 E29.93652
G1 X206.193 Y110.862 E29.96714
G1 X205.906 Y111.737 E29.99776
G1 X205.543 Y112.583 E30.02838
G1 X205.109 Y113.395 E30.05901
G1 X204.605 Y114.166 E30.08964
G1 X204.037 Y114.89 E30.12025
G1 X203.408 Y115.562 E30.15086
G1 X202.723 Y116.177 E30.18148
G1 X201.987 Y116.731 E30.21212
G1 X201.206 Y117.218 E30.24273
G1 X200.385 Y117.636 E30.27338
G1 X199.532 Y117.981 E30.30398
G1 X198.652 Y118.25 E30.33458
G1 X198.111 Y118.376 E30.35306
G1 X197.729 Y118.454 E30.36603
G1 X195.247 Y118.991 E30.45049
G1 X192.798 Y119.593 E30.53437
G1 X190.319 Y120.278 E30.61991
G1 X187.928 Y121.012 E30.7031
G1 X185.528 Y121.823 E30.78736
G1 X183.167 Y122.696 E30.87108
G1 X180.806 Y123.646 E30.95573
G1 X178.481 Y124.66 E31.04009
G1 X176.201 Y125.731 E31.12387
G1 X173.957 Y126.864 E31.20748
G1 X171.71 Y128.078 E31.29243
G1 X169.537 Y129.335 E31.37592
G1 X167.374 Y130.667 E31.46041
G1 X165.258 Y132.055 E31.54458
G1 X163.208 Y133.485 E31.62771
G1 X161.156 Y135.004 E31.71263
G1 X159.166 Y136.566 E31.79677
G1 X157.23 Y138.176 E31.88052
G1 X155.331 Y139.849 E31.96469
G1 X153.46 Y141.593 E32.04977
G1 X151.679 Y143.35 E32.13298
G1 X149.93 Y145.175 E32.21705
G1 X148.236 Y147.047 E32.30102
G1 X146.581 Y148.984 E32.38576
G1 X144.993 Y150.952 E32.46987
G1 X143.483 Y152.935 E32.55277
G1 X141.988 Y155.018 E32.63804
G1 X140.587 Y157.09 E32.72123
G1 X139.21 Y159.259 E32.80669
G1 X137.922 Y161.42 E32.89036
G1 X136.7 Y163.608 E32.97371
G1 X135.531 Y165.846 E33.05769
G1 X134.411 Y168.149 E33.14287
G1 X133.388 Y170.413 E33.2255
G1 X132.395 Y172.787 E33.31109
G1 X131.485 Y175.146 E33.39518
G1 X130.657 Y177.493 E33.47796
G1 X130.388 Y178.332 E33.50727
G1 X130.031 Y179.389 E33.54437
G1 X129.698 Y180.247 E33.57498
G1 X129.292 Y181.074 E33.60563
G1 X128.816 Y181.862 E33.63625
G1 X128.273 Y182.605 E33.66685
G1 X127.668 Y183.299 E33.69748
G1 X127.005 Y183.938 E33.7281
G1 X126.289 Y184.516 E33.75871
G1 X125.525 Y185.031 E33.78935
G1 X124.72 Y185.477 E33.81996
G1 X123.879 Y185.851 E33.85057
G1 X123.009 Y186.151 E33.88118
G1 X122.115 Y186.375 E33.91184
G1 X121.206 Y186.52 E33.94245
G1 X120.321 Y186.585 E33.97197
G1 X120 Y186.595 E33.98265
G1 X119.67 Y186.6 E33.99363
G1 X24.57 Y186.599 E37.15666
G1 X23.872 Y186.59 E37.17988
G1 X22.953 Y186.538 E37.2105
G1 X22.042 Y186.407 E37.24111
G1 X21.146 Y186.197 E37.27172
G1 X20.271 Y185.91 E37.30235
G1 X19.424 Y185.548 E37.33298
G1 X18.612 Y185.114 E37.3636
G1 X17.841 Y184.612 E37.3942
G1 X17.116 Y184.044 E37.42484
G1 X16.443 Y183.415 E37.45548
G1 X15.828 Y182.731 E37.48607
G1 X15.274 Y181.996 E37.51668
G1 X14.786 Y181.215 E37.54731
G1 X14.367 Y180.395 E37.57794
G1 X14.021 Y179.542 E37.60856
G1 X13.751 Y178.662 E37.63917
G1 X13.558 Y177.761 E37.66982
G1 X13.444 Y176.848 E37.70042
G1 X13.413 Y176.277 E37.71944
G1 X13.404 Y175.944 E37.73052
G1 X13.4 Y175.658 E37.74003
G1 X13.401 Y112.536 E39.83948
G1 X13.417 Y111.392 E39.87753
G1 X13.417 Y108.737 E39.96584
G1 X13.402 Y108.023 E39.98959
G1 X13.4 Y107.699 E40.00037
G1 X13.401 Y44.531 E42.10134
G1 X13.41 Y43.866 E42.12346
G1 X13.462 Y42.946 E42.15411
G1 X13.594 Y42.035 E42.18473
G1 X13.805 Y41.139 E42.21535
G1 X14.092 Y40.264 E42.24597
G1 X14.455 Y39.418 E42.27659
G1 X14.889 Y38.606 E42.30722
G1 X15.392 Y37.835 E42.33783
G1 X15.961 Y37.111 E42.36846
G1 X16.589 Y36.439 E42.39905
G1 X17.274 Y35.823 E42.42969
G1 X18.01 Y35.27 E42.46031
G1 X18.791 Y34.782 E42.49094
G0 F6000 X19.169 Y35.031
G1 F1200 X19.982 Y34.638 E42.52098
G1 X20.827 Y34.318 E42.55103
G1 X21.696 Y34.075 E42.58104
G1 X22.584 Y33.909 E42.61109
G1 X23.723 Y33.813 E42.6491
G1 X24.044 Y33.804 E42.65979
G1 X24.33 Y33.8 E42.6693
G1 X195.293 Y33.8 E48.35555
G1 X196.137 Y33.811 E48.38363
G1 X197.039 Y33.864 E48.41368
G1 X197.932 Y33.996 E48.4437
G1 X198.81 Y34.207 E48.47374
G1 X199.666 Y34.495 E48.50377
G1 X200.493 Y34.857 E48.5338
G1 X201.285 Y35.292 E48.56385
G1 X202.036 Y35.794 E48.5939
G1 X202.739 Y36.361 E48.62394
G1 X203.389 Y36.988 E48.65398
G1 X203.981 Y37.67 E48.68401
G1 X204.511 Y38.401 E48.71404
G1 X204.973 Y39.177 E48.74408
G1 X205.366 Y39.99 E48.77412
G1 X205.684 Y40.835 E48.80415
G1 X205.927 Y41.705 E48.83419
G1 X206.092 Y42.593 E48.86423
G1 X206.187 Y43.723 E48.90195
G1 X206.196 Y44.043 E48.91259
G1 X206.2 Y44.33 E48.92214
G1 X206.199 Y107.404 E51.01999
G1 X206.189 Y108.13 E51.04414
G1 X206.137 Y109.032 E51.07419
G1 X206.005 Y109.925 E51.10421
G1 X205.794 Y110.804 E51.13428
G1 X205.507 Y111.66 E51.16431
G1 X205.145 Y112.487 E51.19433
G1 X204.711 Y113.279 E51.22437
G1 X204.209 Y114.03 E51.25442
G1 X203.643 Y114.734 E51.28446
G1 X203.016 Y115.384 E51.3145
G1 X202.335 Y115.977 E51.34453
G1 X201.603 Y116.506 E51.37457
G1 X200.828 Y116.97 E51.40461
G1 X200.015 Y117.362 E51.43463
G1 X199.17 Y117.682 E51.46469
G1 X198.031 Y117.984 E51.50388
G1 X197.649 Y118.062 E51.51685
G1 X195.139 Y118.605 E51.60226
G1 X192.692 Y119.206 E51.68607
G1 X190.242 Y119.883 E51.77061
G1 X187.788 Y120.637 E51.85599
G1 X185.409 Y121.441 E51.93952
G1 X182.985 Y122.338 E52.02548
G1 X180.676 Y123.267 E52.10826
G1 X178.317 Y124.295 E52.19385
G1 X176.029 Y125.369 E52.27792
G1 X173.766 Y126.512 E52.36224
G1 X171.526 Y127.723 E52.44693
G1 X169.332 Y128.991 E52.53122
G1 X167.141 Y130.342 E52.61683
G1 X165.039 Y131.72 E52.70043
G1 X162.963 Y133.168 E52.78461
G1 X160.917 Y134.683 E52.86929
G1 X158.93 Y136.242 E52.95329
G1 X156.955 Y137.885 E53.03874
G1 X155.057 Y139.556 E53.12284
G1 X153.189 Y141.298 E53.2078
G1 X151.41 Y143.054 E53.29094
G1 X149.628 Y144.913 E53.37658
G1 X147.936 Y146.782 E53.46044
G1 X146.267 Y148.735 E53.54588
G1 X144.692 Y150.686 E53.62928
G1 X143.143 Y152.722 E53.71437
G1 X141.676 Y154.766 E53.79805
G1 X140.235 Y156.898 E53.88364
G1 X138.888 Y159.019 E53.96721
G1 X137.573 Y161.226 E54.05265
G1 X136.354 Y163.407 E54.13575
G1 X135.161 Y165.693 E54.22152
G1 X134.059 Y167.959 E54.30533
G1 X133.013 Y170.272 E54.38976
G1 X132.029 Y172.625 E54.47459
G1 X131.106 Y175.017 E54.55986
G1 X130.278 Y177.364 E54.64264
G1 X130.007 Y178.21 E54.67219
G1 X129.652 Y179.261 E54.70908
G1 X129.325 Y180.103 E54.73912
G1 X128.925 Y180.912 E54.76914
G1 X128.454 Y181.683 E54.79919
G1 X127.918 Y182.409 E54.82921
G1 X127.319 Y183.085 E54.85925
G1 X126.662 Y183.706 E54.88932
G1 X125.954 Y184.266 E54.91934
G1 X125.198 Y184.761 E54.94939
G1 X124.402 Y185.187 E54.97942
G1 X123.572 Y185.541 E55.00943
G1 X122.713 Y185.82 E55.03947
G1 X121.833 Y186.022 E55.0695
G1 X120.938 Y186.146 E55.09956
G1 X120.309 Y186.185 E55.12052
G1 X119.988 Y186.195 E55.1312
G1 X119.67 Y186.2 E55.14178
G1 X24.575 Y186.199 E58.30465
G1 X23.877 Y186.19 E58.32787
G1 X22.976 Y186.139 E58.35788
G1 X22.082 Y186.007 E58.38794
G1 X21.204 Y185.798 E58.41796
G1 X20.347 Y185.511 E58.44802
G1 X19.52 Y185.15 E58.47803
G1 X18.727 Y184.717 E58.50808
G1 X17.976 Y184.216 E58.53811
G1 X17.272 Y183.65 E58.56815
G1 X16.621 Y183.024 E58.59819
G1 X16.028 Y182.343 E58.62822
G1 X15.498 Y181.612 E58.65826
G1 X15.034 Y180.837 E58.6883
G1 X14.64 Y180.024 E58.71835
G1 X14.32 Y179.18 E58.74837
G1 X14.076 Y178.31 E58.77842
G1 X13.91 Y177.422 E58.80847
G1 X13.813 Y176.267 E58.84702
G1 X13.804 Y175.934 E58.8581
G1 X13.8 Y175.658 E58.86728
G1 X13.801 Y112.541 E60.96656
G1 X13.817 Y111.397 E61.00461
G1 X13.817 Y108.773 E61.09189
G1 X13.802 Y108.021 E61.1169
G1 X13.8 Y107.697 E61.12768
G1 X13.801 Y44.536 E63.22842
G1 X13.81 Y43.871 E63.25054
G1 X13.862 Y42.969 E63.28059
G1 X13.994 Y42.076 E63.31062
G1 X14.204 Y41.198 E63.34064
G1 X14.491 Y40.341 E63.3707
G1 X14.853 Y39.514 E63.40073
G1 X15.286 Y38.722 E63.43075
G1 X15.788 Y37.971 E63.4608
G1 X16.355 Y37.267 E63.49086
G1 X16.981 Y36.617 E63.52088
G1 X17.662 Y36.024 E63.55091
G1 X18.394 Y35.494 E63.58097
G1 X19.169 Y35.031 E63.611
G1 F2700 E62.611
;MESH:body_top.stl
G0 F6000 X23.347 Y108.653
G0 X24.42 Y111.335
G0 X24.42 Y112.42
G0 X118.818 Y113.182
G0 X119 Y175
;TYPE:WALL-INNER
G1 F2700 E63.611
G1 F1200 X25 Y175 E66.73745
G1 X25 Y113 E68.79958
G1 X119 Y113 E71.92603
G1 X119 Y175 E73.98816
G0 F6000 X119.4 Y175.4
G1 F1200 X24.6 Y175.4 E77.14122
G1 X24.6 Y112.6 E79.22995
G1 X119.4 Y112.6 E82.38302
G1 X119.4 Y175.4 E84.47175
G0 F6000 X119.8 Y175.8
;TYPE:WALL-OUTER
G1 F1200 X24.2 Y175.8 E87.65142
G1 X24.2 Y112.2 E89.76677
G1 X119.8 Y112.2 E92.94643
G1 X119.8 Y175.8 E95.06178
G0 F6000 X119.53 Y175.53
G0 X118.89 Y174.61
G0 X118.61 Y174.61
;TYPE:SKIN
G1 F1200 X25.39 Y174.61 E98.16229
G1 X25.39 Y113.39 E100.19847
G1 X118.61 Y113.39 E103.29898
G1 X118.61 Y174.61 E105.33517
G1 F2700 E104.33517
G0 F6000 X118.89 Y174.61
G0 X118.89 Y113.924
G0 X118.449 Y113.924
G1 F2700 E105.33517
G1 F1200 X118.075 Y113.55 E105.35276
G0 F6000 X117.509 Y113.55
G1 F1200 X118.449 Y114.489 E105.39695
G0 F6000 X118.449 Y115.055
G1 F1200 X116.944 Y113.55 E105.46774
G0 F6000 X116.378 Y113.55
G1 F1200 X118.449 Y115.621 E105.56516
G0 F6000 X118.449 Y116.186
G1 F1200 X115.812 Y113.55 E105.68917
G0 F6000 X115.247 Y113.55
G1 F1200 X118.449 Y116.752 E105.83978
G0 F6000 X118.449 Y117.318
G1 F1200 X114.681 Y113.55 E106.01702
G0 F6000 X114.115 Y113.55
G1 F1200 X118.449 Y117.883 E106.22085
G0 F6000 X118.449 Y118.449
G1 F1200 X113.55 Y113.55 E106.45129
G0 F6000 X112.984 Y113.55
G1 F1200 X118.449 Y119.015 E106.70834
G0 F6000 X118.449 Y119.58
G1 F1200 X112.418 Y113.55 E106.992
G0 F6000 X111.852 Y113.55
G1 F1200 X118.449 Y120.146 E107.30228
G0 F6000 X118.449 Y120.712
G1 F1200 X111.287 Y113.55 E107.63916
G0 F6000 X110.721 Y113.55
G1 F1200 X118.449 Y121.278 E108.00266
G0 F6000 X118.449 Y121.843
G1 F1200 X110.155 Y113.55 E108.39276
G0 F6000 X109.59 Y113.55
G1 F1200 X118.449 Y122.409 E108.80946
G0 F6000 X118.449 Y122.975
G1 F1200 X109.024 Y113.55 E109.25278
G0 F6000 X108.458 Y113.55
G1 F1200 X118.449 Y123.54 E109.7227
G0 F6000 X118.449 Y124.106
G1 F1200 X107.893 Y113.55 E110.21923
G0 F6000 X107.327 Y113.55
G1 F1200 X118.449 Y124.672 E110.74237
G0 F6000 X118.449 Y125.237
G1 F1200 X106.761 Y113.55 E111.29211
G0 F6000 X106.196 Y113.55
G1 F1200 X118.449 Y125.803 E111.86846
G0 F6000 X118.449 Y126.369
G1 F1200 X105.63 Y113.55 E112.47142
G0 F6000 X105.064 Y113.55
G1 F1200 X118.449 Y126.934 E113.10099
G0 F6000 X118.449 Y127.5
