;FLAVOR:Marlin
;TIME:17746
;Filament used: 14.3893m
;Layer height: 0.28
;MINX:13
;MINY:33
;MINZ:0.28
;MAXX:207
;MAXY:187
;MAXZ:7.84
;Generated with Creality Slicer 4.8.2-191
M140 S50
M105
M190 S50
M104 S200
M105
M109 S200
M82 ;absolute extrusion mode

G28 ;Home

G92 E0 ;Reset Extruder
G1 Z2.0 F3000 ;Move Z Axis up
G1 X10.1 Y20 Z0.28 F5000.0 ;Move to start position
G1 X10.1 Y200.0 Z0.28 F1500.0 E15 ;Draw the first line
G1 X10.4 Y200.0 Z0.28 F5000.0 ;Move to side a little
G1 X10.4 Y20 Z0.28 F1500.0 E30 ;Draw the second line
G92 E0 ;Reset Extruder
G1 Z2.0 F3000 ;Move Z Axis up

G92 E0
G92 E0
G1 F2700 E-1.5
;LAYER_COUNT:28
;LAYER:0
M107
G0 F6000 X18.412 Y34.539 Z0.28
;TYPE:SKIRT
G1 F2700 E0
G1 F1200 X19.239 Y34.097 E0.04366
G1 X20.101 Y33.727 E0.08734
G1 X20.991 Y33.431 E0.13102
G1 X21.903 Y33.213 E0.17468
G1 X22.83 Y33.072 E0.21834
G1 X23.701 Y33.013 E0.25899
G1 X24.022 Y33.004 E0.27394
G1 X24.33 Y33 E0.28829
G1 X195.293 Y33 E8.24904
G1 X196.149 Y33.011 E8.2889
G1 X197.085 Y33.065 E8.33256
G1 X198.013 Y33.197 E8.37621
G1 X198.927 Y33.409 E8.4199
G1 X199.819 Y33.698 E8.46356
G1 X200.684 Y34.061 E8.50724
G1 X201.514 Y34.497 E8.55089
G1 X202.305 Y35.002 E8.59459
G1 X203.049 Y35.573 E8.63826
G1 X203.742 Y36.205 E8.68194
G1 X204.379 Y36.893 E8.7256
G1 X204.954 Y37.634 E8.76927
G1 X205.465 Y38.42 E8.81292
G1 X205.907 Y39.248 E8.85663
G1 X206.276 Y40.11 E8.90029
G1 X206.571 Y41 E8.94395
G1 X206.789 Y41.912 E8.98761
G1 X206.929 Y42.84 E9.03131
G1 X206.987 Y43.701 E9.07149
G1 X206.996 Y44.021 E9.0864
G1 X207 Y44.33 E9.10079
G1 X206.999 Y107.416 E12.03834
G1 X206.989 Y108.142 E12.07215
G1 X206.936 Y109.078 E12.1158
G1 X206.804 Y110.006 E12.15945
G1 X206.593 Y110.92 E12.20313
G1 X206.304 Y111.813 E12.24683
G1 X205.941 Y112.677 E12.29047
G1 X205.506 Y113.508 E12.33415
G1 X205.001 Y114.299 E12.37784
G1 X204.431 Y115.043 E12.42149
G1 X203.8 Y115.737 E12.46516
G1 X203.111 Y116.374 E12.50886
G1 X202.371 Y116.95 E12.55252
G1 X201.585 Y117.461 E12.59618
G1 X200.758 Y117.903 E12.63984
G1 X199.896 Y118.273 E12.68352
G1 X199.006 Y118.569 E12.72719
G1 X198.191 Y118.768 E12.76626
G1 X197.809 Y118.846 E12.78441
G1 X195.314 Y119.386 E12.90328
G1 X192.926 Y119.972 E13.01777
G1 X190.447 Y120.658 E13.13755
G1 X188.026 Y121.401 E13.25547
G1 X185.658 Y122.202 E13.37187
G1 X183.319 Y123.067 E13.48799
G1 X180.937 Y124.025 E13.60754
G1 X178.662 Y125.017 E13.72311
G1 X176.372 Y126.092 E13.8409
G1 X174.149 Y127.215 E13.95687
G1 X171.894 Y128.434 E14.07624
G1 X169.767 Y129.663 E14.19062
G1 X167.598 Y131 E14.30927
G1 X165.461 Y132.401 E14.42825
G1 X163.429 Y133.819 E14.54363
G1 X161.418 Y135.307 E14.66012
G1 X159.406 Y136.887 E14.77924
G1 X157.484 Y138.486 E14.89566
G1 X155.585 Y140.158 E15.01348
G1 X153.766 Y141.853 E15.12925
G1 X151.966 Y143.629 E15.24699
G1 X150.233 Y145.438 E15.36365
G1 X148.521 Y147.33 E15.48246
G1 X146.898 Y149.228 E15.59874
G1 X145.307 Y151.199 E15.71669
G1 X143.794 Y153.188 E15.83306
G1 X142.329 Y155.23 E15.95008
G1 X140.897 Y157.347 E16.06909
G1 X139.574 Y159.431 E16.18403
G1 X138.282 Y161.599 E16.30155
G1 X137.038 Y163.824 E16.42025
G1 X135.888 Y166.028 E16.53601
G1 X134.778 Y168.31 E16.65417
G1 X133.745 Y170.596 E16.77098
G1 X132.779 Y172.906 E16.88757
G1 X131.849 Y175.317 E17.0079
G1 X131.039 Y177.611 E17.12118
G1 X130.769 Y178.454 E17.1624
G1 X130.41 Y179.517 E17.21464
G1 X130.072 Y180.392 E17.25832
G1 X129.66 Y181.235 E17.30201
G1 X129.178 Y182.039 E17.34566
G1 X128.63 Y182.8 E17.38933
G1 X128.018 Y183.511 E17.43301
G1 X127.348 Y184.168 E17.47671
G1 X126.625 Y184.765 E17.52037
G1 X125.853 Y185.298 E17.56405
G1 X125.039 Y185.763 E17.6077
G1 X124.188 Y186.158 E17.65139
G1 X123.307 Y186.478 E17.69503
G1 X122.401 Y186.723 E17.73873
G1 X121.478 Y186.889 E17.7824
G1 X120.334 Y186.985 E17.83586
G1 X120.013 Y186.995 E17.85081
G1 X119.67 Y187 E17.86679
G1 X24.565 Y186.999 E22.29527
G1 X23.867 Y186.99 E22.32778
G1 X22.931 Y186.938 E22.37143
G1 X22.002 Y186.806 E22.41512
G1 X21.088 Y186.596 E22.45879
G1 X20.195 Y186.309 E22.50247
G1 X19.33 Y185.946 E22.54615
G1 X18.499 Y185.512 E22.5898
G1 X17.708 Y185.008 E22.63348
G1 X16.963 Y184.438 E22.67716
G1 X16.269 Y183.807 E22.72083
G1 X15.632 Y183.12 E22.76446
G1 X15.055 Y182.38 E22.80815
G1 X14.543 Y181.594 E22.85183
G1 X14.1 Y180.767 E22.89552
G1 X13.729 Y179.906 E22.93917
G1 X13.433 Y179.016 E22.98285
G1 X13.214 Y178.104 E23.02652
G1 X13.073 Y177.177 E23.07018
G1 X13.013 Y176.288 E23.11167
G1 X13.004 Y175.955 E23.12718
G1 X13 Y175.658 E23.14101
G1 X13.001 Y112.53 E26.08052
G1 X13.017 Y111.386 E26.13379
G1 X13.017 Y108.746 E26.25672
G1 X13.002 Y108.026 E26.29025
G1 X13 Y107.702 E26.30534
G1 X13.001 Y44.525 E29.24713
G1 X13.01 Y43.86 E29.2781
G1 X13.063 Y42.924 E29.32175
G1 X13.195 Y41.995 E29.36544
G1 X13.406 Y41.081 E29.40912
G1 X13.694 Y40.189 E29.45277
G1 X14.057 Y39.324 E29.49645
G1 X14.492 Y38.493 E29.54012
G1 X14.996 Y37.703 E29.58376
G1 X15.566 Y36.958 E29.62744
G1 X16.198 Y36.264 E29.67114
G1 X16.886 Y35.627 E29.7148
G1 X17.626 Y35.051 E29.75847
G1 X18.412 Y34.539 E29.80215
G0 F6000 X18.791 Y34.782
G1 F1200 X19.611 Y34.364 E29.84501
G1 X20.465 Y34.019 E29.88789
G1 X21.345 Y33.749 E29.93076
G1 X22.245 Y33.557 E29.97361
G1 X23.159 Y33.443 E30.0165
G1 X23.712 Y33.413 E30.04228
G1 X24.033 Y33.404 E30.05724
G1 X24.33 Y33.4 E30.07107
G1 X195.293 Y33.4 E38.03182
G1 X196.143 Y33.411 E38.0714
G1 X197.062 Y33.464 E38.11427
G1 X197.973 Y33.597 E38.15714
G1 X198.869 Y33.808 E38.2
G1 X199.743 Y34.096 E38.24285
G1 X200.59 Y34.459 E38.28576
G1 X201.401 Y34.894 E38.32861
G1 X202.171 Y35.398 E38.37146
G1 X202.895 Y35.967 E38.41434
G1 X203.567 Y36.597 E38.45723
G1 X204.182 Y37.282 E38.5001
G1 X204.735 Y38.018 E38.54297
G1 X205.222 Y38.799 E38.58582
G1 X205.639 Y39.62 E38.6287
G1 X205.984 Y40.474 E38.67159
G1 X206.253 Y41.354 E38.71444
G1 X206.445 Y42.255 E38.75733
G1 X206.558 Y43.168 E38.80017
G1 X206.587 Y43.712 E38.82554
G1 X206.596 Y44.032 E38.84045
G1 X206.6 Y44.33 E38.85432
G1 X206.599 Y107.41 E41.79159
G1 X206.589 Y108.136 E41.8254
G1 X206.536 Y109.055 E41.86826
G1 X206.404 Y109.966 E41.91113
G1 X206.193 Y110.862 E41.95399
G1 X205.906 Y111.737 E41.99687
G1 X205.543 Y112.583 E42.03974
G1 X205.109 Y113.395 E42.08261
G1 X204.605 Y114.166 E42.1255
G1 X204.037 Y114.89 E42.16835
G1 X203.408 Y115.562 E42.21121
G1 X202.723 Y116.177 E42.25407
G1 X201.987 Y116.731 E42.29697
G1 X201.206 Y117.218 E42.33983
G1 X200.385 Y117.636 E42.38273
G1 X199.532 Y117.981 E42.42557
G1 X198.652 Y118.25 E42.46842
G1 X198.111 Y118.376 E42.49428
G1 X197.729 Y118.454 E42.51244
G1 X195.247 Y118.991 E42.63068
G1 X192.798 Y119.593 E42.74812
G1 X190.319 Y120.278 E42.86787
G1 X187.928 Y121.012 E42.98434
G1 X185.528 Y121.823 E43.1023
G1 X183.167 Y122.696 E43.21951
G1 X180.806 Y123.646 E43.33802
G1 X178.481 Y124.66 E43.45613
G1 X176.201 Y125.731 E43.57342
G1 X173.957 Y126.864 E43.69047
G1 X171.71 Y128.078 E43.8094
G1 X169.537 Y129.335 E43.92629
G1 X167.374 Y130.667 E44.04458
G1 X165.258 Y132.055 E44.16241
G1 X163.208 Y133.485 E44.2788
G1 X161.156 Y135.004 E44.39768
G1 X159.166 Y136.566 E44.51548
G1 X157.23 Y138.176 E44.63273
G1 X155.331 Y139.849 E44.75057
G1 X153.46 Y141.593 E44.86967
G1 X151.679 Y143.35 E44.98617
G1 X149.93 Y145.175 E45.10387
G1 X148.236 Y147.047 E45.22143
G1 X146.581 Y148.984 E45.34006
G1 X144.993 Y150.952 E45.45781
G1 X143.483 Y152.935 E45.57387
G1 X141.988 Y155.018 E45.69326
G1 X140.587 Y157.09 E45.80973
G1 X139.21 Y159.259 E45.92936
G1 X137.922 Y161.42 E46.0465
G1 X136.7 Y163.608 E46.1632
G1 X135.531 Y165.846 E46.28077
G1 X134.411 Y168.149 E46.40002
G1 X133.388 Y170.413 E46.5157
G1 X132.395 Y172.787 E46.63552
G1 X131.485 Y175.146 E46.75326
G1 X130.657 Y177.493 E46.86915
G1 X130.388 Y178.332 E46.91017
G1 X130.031 Y179.389 E46.96212
G1 X129.698 Y180.247 E47.00498
G1 X129.292 Y181.074 E47.04788
G1 X128.816 Y181.862 E47.09074
G1 X128.273 Y182.605 E47.1336
G1 X127.668 Y183.299 E47.17647
G1 X127.005 Y183.938 E47.21934
G1 X126.289 Y184.516 E47.26219
G1 X125.525 Y185.031 E47.30509
G1 X124.72 Y185.477 E47.34795
G1 X123.879 Y185.851 E47.3908
G1 X123.009 Y186.151 E47.43366
G1 X122.115 Y186.375 E47.47657
G1 X121.206 Y186.52 E47.51943
G1 X120.321 Y186.585 E47.56075
G1 X120 Y186.595 E47.57571
G1 X119.67 Y186.6 E47.59108
G1 X24.57 Y186.599 E52.01933
G1 X23.872 Y186.59 E52.05183
G1 X22.953 Y186.538 E52.0947
G1 X22.042 Y186.407 E52.13755
G1 X21.146 Y186.197 E52.1804
G1 X20.271 Y185.91 E52.22328
G1 X19.424 Y185.548 E52.26617
G1 X18.612 Y185.114 E52.30905
G1 X17.841 Y184.612 E52.35189
G1 X17.116 Y184.044 E52.39477
G1 X16.443 Y183.415 E52.43767
G1 X15.828 Y182.731 E52.4805
G1 X15.274 Y181.996 E52.52336
G1 X14.786 Y181.215 E52.56624
G1 X14.367 Y180.395 E52.60912
G1 X14.021 Y179.542 E52.65198
G1 X13.751 Y178.662 E52.69484
G1 X13.558 Y177.761 E52.73775
G1 X13.444 Y176.848 E52.78059
G1 X13.413 Y176.277 E52.80722
G1 X13.404 Y175.944 E52.82273
G1 X13.4 Y175.658 E52.83605
G1 X13.401 Y112.536 E55.77527
G1 X13.417 Y111.392 E55.82855
G1 X13.417 Y108.737 E55.95217
G1 X13.402 Y108.023 E55.98543
G1 X13.4 Y107.699 E56.00052
G1 X13.401 Y44.531 E58.94188
G1 X13.41 Y43.866 E58.97285
G1 X13.462 Y42.946 E59.01576
G1 X13.594 Y42.035 E59.05862
G1 X13.805 Y41.139 E59.10148
G1 X14.092 Y40.264 E59.14436
G1 X14.455 Y39.418 E59.18723
G1 X14.889 Y38.606 E59.2301
G1 X15.392 Y37.835 E59.27297
G1 X15.961 Y37.111 E59.31584
G1 X16.589 Y36.439 E59.35867
G1 X17.274 Y35.823 E59.40157
G1 X18.01 Y35.27 E59.44444
G1 X18.791 Y34.782 E59.48732
G0 F6000 X19.169 Y35.031
G1 F1200 X19.982 Y34.638 E59.52937
G1 X20.827 Y34.318 E59.57144
G1 X21.696 Y34.075 E59.61346
G1 X22.584 Y33.909 E59.65552
G1 X23.723 Y33.813 E59.70875
G1 X24.044 Y33.804 E59.7237
G1 X24.33 Y33.8 E59.73702
G1 X195.293 Y33.8 E67.69777
G1 X196.137 Y33.811 E67.73708
G1 X197.039 Y33.864 E67.77915
G1 X197.932 Y33.996 E67.82118
G1 X198.81 Y34.207 E67.86323
G1 X199.666 Y34.495 E67.90528
G1 X200.493 Y34.857 E67.94732
G1 X201.285 Y35.292 E67.9894
G1 X202.036 Y35.794 E68.03146
G1 X202.739 Y36.361 E68.07351
G1 X203.389 Y36.988 E68.11557
G1 X203.981 Y37.67 E68.15762
G1 X204.511 Y38.401 E68.19966
G1 X204.973 Y39.177 E68.24172
G1 X205.366 Y39.99 E68.28376
G1 X205.684 Y40.835 E68.3258
G1 X205.927 Y41.705 E68.36786
G1 X206.092 Y42.593 E68.40992
G1 X206.187 Y43.723 E68.46272
G1 X206.196 Y44.043 E68.47763
G1 X206.2 Y44.33 E68.491
G1 X206.199 Y107.404 E71.42799
G1 X206.189 Y108.13 E71.46179
G1 X206.137 Y109.032 E71.50387
G1 X206.005 Y109.925 E71.5459
G1 X205.794 Y110.804 E71.58799
G1 X205.507 Y111.66 E71.63003
G1 X205.145 Y112.487 E71.67207
G1 X204.711 Y113.279 E71.71412
G1 X204.209 Y114.03 E71.75618
G1 X203.643 Y114.734 E71.79825
G1 X203.016 Y115.384 E71.8403
G1 X202.335 Y115.977 E71.88235
G1 X201.603 Y116.506 E71.9244
G1 X200.828 Y116.97 E71.96646
G1 X200.015 Y117.362 E72.00849
G1 X199.17 Y117.682 E72.05056
G1 X198.031 Y117.984 E72.10543
G1 X197.649 Y118.062 E72.12359
G1 X195.139 Y118.605 E72.24317
G1 X192.692 Y119.206 E72.36049
G1 X190.242 Y119.883 E72.47885
G1 X187.788 Y120.637 E72.59839
G1 X185.409 Y121.441 E72.71532
G1 X182.985 Y122.338 E72.83568
G1 X180.676 Y123.267 E72.95157
G1 X178.317 Y124.295 E73.07139
G1 X176.029 Y125.369 E73.18908
G1 X173.766 Y126.512 E73.30714
G1 X171.526 Y127.723 E73.42571
G1 X169.332 Y128.991 E73.5437
G1 X167.141 Y130.342 E73.66356
G1 X165.039 Y131.72 E73.7806
G1 X162.963 Y133.168 E73.89846
G1 X160.917 Y134.683 E74.017
G1 X158.93 Y136.242 E74.1346
G1 X156.955 Y137.885 E74.25423
G1 X155.057 Y139.556 E74.37198
G1 X153.189 Y141.298 E74.49091
G1 X151.41 Y143.054 E74.60731
G1 X149.628 Y144.913 E74.72722
G1 X147.936 Y146.782 E74.84461
G1 X146.267 Y148.735 E74.96424
G1 X144.692 Y150.686 E75.08099
G1 X143.143 Y152.722 E75.20011
G1 X141.676 Y154.766 E75.31727
G1 X140.235 Y156.898 E75.43709
G1 X138.888 Y159.019 E75.55409
G1 X137.573 Y161.226 E75.67371
G1 X136.354 Y163.407 E75.79006
G1 X135.161 Y165.693 E75.91013
G1 X134.059 Y167.959 E76.02746
G1 X133.013 Y170.272 E76.14566
G1 X132.029 Y172.625 E76.26442
G1 X131.106 Y175.017 E76.38381
G1 X130.278 Y177.364 E76.49969
G1 X130.007 Y178.21 E76.54106
G1 X129.652 Y179.261 E76.59271
G1 X129.325 Y180.103 E76.63477
G1 X128.925 Y180.912 E76.6768
G1 X128.454 Y181.683 E76.71887
G1 X127.918 Y182.409 E76.76089
G1 X127.319 Y183.085 E76.80295
G1 X126.662 Y183.706 E76.84504
G1 X125.954 Y184.266 E76.88708
G1 X125.198 Y184.761 E76.92915
G1 X124.402 Y185.187 E76.97119
G1 X123.572 Y185.541 E77.01321
G1 X122.713 Y185.82 E77.05526
G1 X121.833 Y186.022 E77.09731
G1 X120.938 Y186.146 E77.13938
G1 X120.309 Y186.185 E77.16872
G1 X119.988 Y186.195 E77.18368
G1 X119.67 Y186.2 E77.19849
G1 X24.575 Y186.199 E81.62651
G1 X23.877 Y186.19 E81.65901
G1 X22.976 Y186.139 E81.70104
G1 X22.082 Y186.007 E81.74311
G1 X21.204 Y185.798 E81.78514
G1 X20.347 Y185.511 E81.82722
G1 X19.52 Y185.15 E81.86924
G1 X18.727 Y184.717 E81.91131
G1 X17.976 Y184.216 E81.95335
G1 X17.272 Y183.65 E81.99541
G1 X16.621 Y183.024 E82.03747
G1 X16.028 Y182.343 E82.07951
G1 X15.498 Y181.612 E82.12156
G1 X15.034 Y180.837 E82.16362
G1 X14.64 Y180.024 E82.20569
G1 X14.32 Y179.18 E82.24772
G1 X14.076 Y178.31 E82.28979
G1 X13.91 Y177.422 E82.33186
G1 X13.813 Y176.267 E82.38583
G1 X13.804 Y175.934 E82.40134
G1 X13.8 Y175.658 E82.41419
G1 X13.801 Y112.541 E85.35318
G1 X13.817 Y111.397 E85.40646
G1 X13.817 Y108.773 E85.52864
G1 X13.802 Y108.021 E85.56367
G1 X13.8 Y107.697 E85.57875
G1 X13.801 Y44.536 E88.51979
G1 X13.81 Y43.871 E88.55076
G1 X13.862 Y42.969 E88.59283
G1 X13.994 Y42.076 E88.63487
G1 X14.204 Y41.198 E88.6769
G1 X14.491 Y40.341 E88.71899
G1 X14.853 Y39.514 E88.76102
G1 X15.286 Y38.722 E88.80305
G1 X15.788 Y37.971 E88.84512
G1 X16.355 Y37.267 E88.88721
G1 X16.981 Y36.617 E88.92923
G1 X17.662 Y36.024 E88.97128
G1 X18.394 Y35.494 E89.01336
G1 X19.169 Y35.031 E89.05539
G1 F2700 E87.55539
;MESH:body_top.stl
G0 F6000 X23.347 Y108.653
G0 X87.33 Y108.654
G0 X100.006 Y122.346
G0 X98.636 Y121.778
G0 X98.552 Y124
G0 X98.969 Y126.084
G0 X100.148 Y127.852
G0 X101.916 Y129.031
G0 X104 Y129.612
;TYPE:WALL-INNER
G1 F2700 E89.05539
G1 F1200 X106.147 Y129.184 E89.15733
G1 X107.968 Y127.968 E89.25929
G1 X109.184 Y126.147 E89.36125
G1 X109.612 Y124 E89.4632
G1 X109.184 Y121.853 E89.56514
G1 X107.968 Y120.032 E89.6671
G1 X106.147 Y118.816 E89.76906
G1 X104 Y118.388 E89.871
G1 X101.853 Y118.816 E89.97294
G1 X100.032 Y120.032 E90.0749
G1 X98.816 Y121.853 E90.17686
G1 X98.388 Y124 E90.2788
G1 X98.816 Y126.147 E90.38074
G1 X100.032 Y127.968 E90.4827
G1 X101.853 Y129.184 E90.58466
G1 X104 Y129.612 E90.6866
G0 F6000 X104 Y129.204
;TYPE:WALL-OUTER
G1 F1200 X105.991 Y128.807 E90.78114
G1 X107.68 Y127.68 E90.87568
G1 X108.807 Y125.991 E90.97023
G1 X109.204 Y124 E91.06477
G1 X108.807 Y122.009 E91.1593
G1 X107.68 Y120.32 E91.25385
G1 X105.991 Y119.193 E91.3484
G1 X104 Y118.796 E91.44293
G1 X102.009 Y119.193 E91.53746
G1 X100.32 Y120.32 E91.63201
G1 X99.193 Y122.009 E91.72656
G1 X98.796 Y124 E91.82109
G1 X99.193 Y125.991 E91.91563
G1 X100.32 Y127.68 E92.01018
G1 X102.009 Y128.807 E92.10472
G1 X104 Y129.204 E92.19926
G0 F6000 X104 Y129.644
G1 F2700 E90.69926
G0 F6000 X101.778 Y129.364
G0 X102.346 Y127.994
G0 X94.091 Y127.774
G0 X93.654 Y127.994
G0 X90.346 Y127.994
G0 X89.735 Y127.658
G0 X82.55 Y127.468
G0 X81.654 Y127.994
G0 X78.346 Y127.994
G0 X77.239 Y127.327
G0 X67.057 Y127.057
G0 X68.105 Y128.105
G0 X66.147 Y129.184
;TYPE:WALL-INNER
G1 F2700 E92.19926
G1 F1200 X67.968 Y127.968 E92.30122
G1 X69.184 Y126.147 E92.40318
G1 X69.612 Y124 E92.50512
G1 X69.184 Y121.853 E92.60706
G1 X67.968 Y120.032 E92.70902
G1 X66.147 Y118.816 E92.81098
G1 X64 Y118.388 E92.91292
G1 X61.853 Y118.816 E93.01486
G1 X60.032 Y120.032 E93.11682
G1 X58.816 Y121.853 E93.21878
G1 X58.388 Y124 E93.32072
G1 X58.816 Y126.147 E93.42266
G1 X60.032 Y127.968 E93.52463
G1 X61.853 Y129.184 E93.62659
G1 X64 Y129.612 E93.72853
G1 X66.147 Y129.184 E93.83047
G0 F6000 X65.991 Y128.807
;TYPE:WALL-OUTER
G1 F1200 X67.68 Y127.68 E93.92501
G1 X68.807 Y125.991 E94.01956
G1 X69.204 Y124 E94.1141
G1 X68.807 Y122.009 E94.20863
G1 X67.68 Y120.32 E94.30318
G1 X65.991 Y119.193 E94.39773
G1 X64 Y118.796 E94.49226
G1 X62.009 Y119.193 E94.58679
G1 X60.32 Y120.32 E94.68134
