;FLAVOR:Marlin
;TIME:5344
;Filament used: 4.6329m
;Layer height: 0.28
;MINX:67.702
;MINY:31.766
;MINZ:0.28
;MAXX:167.298
;MAXY:203.234
;MAXZ:3.92
;Generated with Cura_SteamEngine 5.4.0
M140 S50
M105
M190 S50
M104 S200
M105
M109 S200
M82 ;absolute extrusion mode
; Ender 3 Custom Start G-code
G92 E0 ; Reset Extruder
G28 ; Home all axes
G1 Z2.0 F3000 ; Move Z Axis up little to prevent scratching of Heat Bed
G1 X0.1 Y20 Z0.3 F5000.0 ; Move to start position
G1 X0.1 Y200.0 Z0.3 F1500.0 E15 ; Draw the first line
G1 X0.4 Y200.0 Z0.3 F5000.0 ; Move to side a little
G1 X0.4 Y20 Z0.3 F1500.0 E30 ; Draw the second line
G92 E0 ; Reset Extruder
G1 Z2.0 F3000 ; Move Z Axis up little to prevent scratching of Heat Bed
G1 X5 Y20 Z0.3 F5000.0 ; Move over to prevent blob squish
G92 E0
G92 E0
G1 F2700 E-5
;LAYER_COUNT:14
;LAYER:0
M107
;MESH:6479.stl
G0 F6000 X90.7 Y155.875 Z0.28
;TYPE:WALL-INNER
G1 F2700 E0
G1 F1200 X90.7 Y35.366 E5.6114
G1 X90.3 Y35.366 E5.63003
G1 X90.3 Y155.875 E11.24143
G1 X90.7 Y155.875 E11.26006
G0 F6000 X91.149 Y156.275
G1 F1200 X91.1 Y155.802 E11.2822
G1 X91.1 Y34.966 E16.90883
G1 X89.9 Y34.966 E16.96471
G1 X89.897 Y156.275 E22.61336
G1 X91.149 Y156.275 E22.67166
G0 F6000 X91.651 Y156.675
G1 F1200 X91.565 Y156.43 E22.68375
G1 X91.5 Y155.802 E22.71315
G1 X91.5 Y34.566 E28.35841
G1 X89.5 Y34.566 E28.45154
G1 X89.5 Y156.228 E34.11663
G1 X89.462 Y156.675 E34.13752
G1 X91.651 Y156.675 E34.23945
G0 F6000 X92.251 Y157.076
G1 F1200 X92.175 Y156.968 E34.2456
G1 X91.956 Y156.346 E34.2763
G1 X91.9 Y155.802 E34.30177
G1 X91.9 Y34.166 E39.96565
G1 X89.1 Y34.166 E40.09603
G1 X89.1 Y156.228 E45.77975
G1 X89.064 Y156.663 E45.80007
G1 X88.97 Y157.094 E45.82061
G1 X89.411 Y157.075 E45.84117
G1 X92.251 Y157.076 E45.97341
G0 F6000 X93.116 Y157.475
G1 F1200 X92.912 Y157.326 E45.98517
G1 X92.532 Y156.789 E46.0158
G1 X92.348 Y156.263 E46.04175
G1 X92.3 Y155.802 E46.06333
G1 X92.3 Y33.766 E51.74584
G1 X88.7 Y33.766 E51.91347
G1 X88.7 Y156.228 E57.61582
G1 X88.669 Y156.597 E57.63306
G1 X88.545 Y157.04 E57.65448
G1 X88.217 Y157.605 E57.6849
G1 X88.104 Y157.704 E57.6919
G1 X88.952 Y157.523 E57.73227
G1 X89.254 Y157.475 E57.74651
G1 X93.116 Y157.475 E57.92634
G1 F2700 E52.92634
G0 F6000 X101.921 Y161.514
G0 X104.351 Y163.288
G0 X106.068 Y164.77
G0 X108.363 Y167.314
G0 X110.542 Y171.088
G0 X111.889 Y175.232
G0 X112.344 Y179.566
G0 X111.889 Y183.899
G0 X110.425 Y188.378
G0 X108.363 Y191.817
G0 X102.602 Y198.782
G1 F2700 E57.92634
G1 F1218.3 X106.347 Y196.06 E58.13869
G1 F1221.4 X109.454 Y192.609 E58.35113
G1 F1230.8 X110.5 Y190.803 E58.44588
G1 F1165 X110.796 Y190.241 E58.47634
G1 F1148.3 X111.127 Y189.703 E58.50708
G1 F1173.6 X111.553 Y188.948 E58.54835
G1 F1167.9 X111.768 Y188.589 E58.56838
G1 F1212.1 X111.897 Y188.22 E58.5864
G1 F1227.6 X113.207 Y184.179 E58.77975
G1 F1221.4 X113.693 Y179.565 E58.99201
G1 F1227.6 X113.464 Y177.349 E59.09341
G1 F1071.4 X113.303 Y176.388 E59.14422
G1 F1076.2 X113.292 Y175.692 E59.18036
G1 F1269.8 X113.263 Y175.35 E59.19547
G1 F1263.2 X113.211 Y174.953 E59.21318
G1 F1224.5 X111.775 Y170.543 E59.42482
G1 F1218.3 X109.452 Y166.519 E59.63793
G1 F1227.6 X107.318 Y164.144 E59.78326
G1 F1145.6 X106.826 Y163.643 E59.81751
G1 F1132.1 X106.345 Y163.073 E59.85432
G1 F1209.1 X102.602 Y160.35 E60.06824
G1 F1218.3 X98.351 Y158.457 E60.28167
G1 F1209.1 X93.917 Y157.513 E60.49118
G1 F1197 X93.697 Y157.414 E60.50244
G1 X93.2 Y157.049 E60.53123
G1 F1200 X92.89 Y156.609 E60.55629
G1 X92.739 Y156.179 E60.57751
G1 X92.7 Y155.802 E60.59516
G1 X92.7 Y33.366 E66.29629
G1 X88.304 Y33.366 E66.50099
G1 X88.3 Y156.228 E72.22196
G1 X88.275 Y156.53 E72.23607
G1 X88.173 Y156.893 E72.25362
G1 X87.905 Y157.355 E72.2785
G1 X87.459 Y157.752 E72.3063
G1 F1194 X87.175 Y157.9 E72.32129
G1 F1212.1 X86.872 Y157.984 E72.33578
G1 F1227.6 X84.648 Y158.458 E72.43928
G1 F1221.4 X80.398 Y160.35 E72.65211
G1 F1212.1 X76.655 Y163.073 E72.86549
G1 F1209.1 X73.548 Y166.519 E73.07992
G1 F1221.4 X71.225 Y170.543 E73.29249
G1 F1227.6 X69.789 Y174.953 E73.50359
G1 F1259.8 X69.737 Y175.351 E73.52139
G1 F1263.2 X69.707 Y175.693 E73.53658
G1 F1073.8 X69.697 Y176.388 E73.57275
G1 X69.538 Y177.349 E73.62343
G1 F1227.6 X69.307 Y179.565 E73.72485
G1 F1218.3 X69.793 Y184.179 E73.93764
G1 F1227.6 X71.102 Y188.22 E74.13098
G1 F1209.1 X71.232 Y188.589 E74.14906
G1 F1162.2 X71.447 Y188.95 E74.16926
G1 F1167.9 X71.872 Y189.703 E74.21063
G1 F1145.6 X72.204 Y190.243 E74.24155
G1 F1162.2 X72.5 Y190.803 E74.272
G1 F1230.8 X73.546 Y192.609 E74.36676
G1 F1218.3 X76.653 Y196.06 E74.57974
G1 F1221.4 X80.398 Y198.781 E74.79152
G1 X84.648 Y200.674 E75.00437
G1 F1218.3 X89.176 Y201.636 E75.21668
G1 X93.824 Y201.637 E75.42987
G1 X98.352 Y200.674 E75.64219
G1 X102.602 Y198.782 E75.85556
G0 F6000 X102.802 Y199.128
G1 F1200 X106.614 Y196.357 E76.07501
G1 X109.776 Y192.843 E76.29513
G1 X112.138 Y188.753 E76.51505
G1 X113.598 Y184.262 E76.73494
G1 X114.091 Y179.565 E76.95486
G1 X113.599 Y174.87 E77.17467
G1 X112.14 Y170.38 E77.39451
G1 X109.775 Y166.284 E77.61474
G1 X106.614 Y162.774 E77.83469
G1 X102.801 Y160.004 E78.05415
G1 X98.474 Y158.077 E78.27471
G1 X94.15 Y157.158 E78.48055
G1 X93.875 Y157.056 E78.49421
G1 X93.489 Y156.772 E78.51652
G1 X93.248 Y156.43 E78.536
G1 X93.13 Y156.095 E78.55254
G1 X93.1 Y155.802 E78.56626
G1 X93.1 Y33.052 E84.28201
G1 X92.909 Y32.966 E84.29176
G1 X88.102 Y32.966 E84.5156
G1 X88.018 Y33.017 E84.52017
G1 X87.9 Y33.219 E84.53107
G1 X87.9 Y156.396 E90.2667
G1 X87.801 Y156.745 E90.2836
G1 X87.593 Y157.105 E90.30296
G1 F1203 X87.246 Y157.413 E90.32451
G1 X86.953 Y157.563 E90.3398
G1 F1200 X84.525 Y158.078 E90.45537
G1 X80.199 Y160.005 E90.67589
G1 X76.386 Y162.774 E90.89531
G1 X73.225 Y166.284 E91.11526
G1 X70.861 Y170.381 E91.33552
G1 X69.4 Y174.87 E91.55533
G1 X68.908 Y179.565 E91.77515
G1 X69.402 Y184.262 E91.99507
G1 X70.862 Y188.753 E92.21496
G1 X73.223 Y192.844 E92.4349
G1 X76.386 Y196.357 E92.65502
G1 X80.199 Y199.126 E92.87445
G1 X84.525 Y201.054 E93.09498
G1 X89.134 Y202.033 E93.31438
G1 X93.866 Y202.034 E93.53473
G1 X98.475 Y201.053 E93.75415
G1 X102.802 Y199.128 E93.97467
G0 F6000 X103.003 Y199.476
G1 F1200 X106.883 Y196.656 E94.19802
G1 X110.102 Y193.08 E94.42206
G1 X112.505 Y188.917 E94.64588
G1 X113.992 Y184.345 E94.86975
G1 X114.493 Y179.565 E95.09354
G1 X113.993 Y174.787 E95.31724
G1 X112.507 Y170.217 E95.54101
G1 X110.1 Y166.048 E95.76517
G1 X106.883 Y162.475 E95.98904
G1 X103.002 Y159.656 E96.2124
G1 X98.599 Y157.695 E96.43683
G1 X94.25 Y156.771 E96.64386
G1 X94.054 Y156.698 E96.6536
G1 X93.778 Y156.495 E96.66956
G1 X93.605 Y156.251 E96.68348
G1 X93.5 Y155.952 E96.69824
G1 X93.5 Y32.89 E102.42852
G1 X93.348 Y32.683 E102.44048
G1 X93.089 Y32.628 E102.45281
G1 X93.05 Y32.566 E102.45622
G1 X87.957 Y32.566 E102.69337
G1 X87.922 Y32.622 E102.69645
G1 X87.673 Y32.711 E102.70876
G1 X87.586 Y33.014 E102.72344
G1 X87.5 Y33.066 E102.72812
G1 X87.5 Y156.346 E108.46855
G1 X87.43 Y156.597 E108.48068
G1 X87.281 Y156.854 E108.49452
G1 F1203 X87.033 Y157.075 E108.50995
G1 X86.823 Y157.183 E108.52091
G1 F1200 X84.401 Y157.695 E108.63619
G1 X79.998 Y159.656 E108.86062
G1 X76.117 Y162.475 E109.08398
G1 X72.9 Y166.048 E109.30785
G1 X70.494 Y170.217 E109.53199
G1 X69.007 Y174.787 E109.75577
G1 X68.506 Y179.565 E109.97947
G1 X69.008 Y184.345 E110.20327
G1 X70.495 Y188.917 E110.42714
G1 X72.898 Y193.08 E110.65096
G1 X76.117 Y196.656 E110.875
G1 X79.998 Y199.475 E111.09836
G1 X84.4 Y201.436 E111.32276
G1 X89.092 Y202.433 E111.54611
G1 X93.908 Y202.434 E111.77037
G1 X98.599 Y201.436 E111.99369
G1 X103.003 Y199.476 E112.21815
G0 F6000 X103.204 Y199.824
G1 F1200 X107.153 Y196.955 E112.44544
G1 X110.427 Y193.317 E112.67333
G1 X112.873 Y189.081 E112.9011
G1 X114.386 Y184.429 E113.12889
G1 X114.896 Y179.565 E113.35662
G1 X114.386 Y174.703 E113.58425
G1 X112.875 Y170.053 E113.81192
G1 X110.425 Y165.811 E114.04003
G1 X107.153 Y162.176 E114.26776
G1 X103.204 Y159.307 E114.49505
G1 X98.723 Y157.312 E114.72344
G1 X94.268 Y156.367 E114.9355
G1 X94.066 Y156.218 E114.94719
G1 X93.9 Y155.891 E114.96427
G1 X93.9 Y32.76 E120.69776
G1 X93.557 Y32.291 E120.72482
G1 X93.253 Y32.263 E120.73903
G1 X93.191 Y32.166 E120.74439
G1 X87.813 Y32.166 E120.99482
G1 X87.753 Y32.26 E121.00001
G1 X87.291 Y32.415 E121.0227
G1 X87.271 Y32.723 E121.03707
G1 X87.228 Y32.835 E121.04266
G1 X87.1 Y32.914 E121.04966
G1 X87.1 Y156.301 E126.79508
G1 X86.969 Y156.604 E126.81045
G1 F1203 X86.82 Y156.736 E126.8197
G1 X86.625 Y156.816 E126.82949
G1 F1200 X84.277 Y157.313 E126.94124
G1 X79.796 Y159.307 E127.16962
G1 X75.847 Y162.176 E127.39691
G1 X72.575 Y165.811 E127.62464
G1 X70.126 Y170.053 E127.85272
G1 X68.614 Y174.703 E128.0804
G1 X68.104 Y179.565 E128.30804
G1 X68.614 Y184.429 E128.53577
G1 X70.127 Y189.081 E128.76356
G1 X72.573 Y193.317 E128.99132
G1 X75.847 Y196.955 E129.21922
G1 X79.796 Y199.824 E129.44651
G1 X84.276 Y201.819 E129.67487
G1 X89.05 Y202.833 E129.90212
G1 X93.95 Y202.834 E130.13029
G1 X98.724 Y201.818 E130.35756
G1 X103.204 Y199.824 E130.5859
G0 F6000 X103.05 Y199.567
G0 X102.4 Y198.452
G1 F1230.8 X98.268 Y200.291 E130.79123
G1 F1227.6 X93.785 Y201.25 E130.9999
G1 F1221.4 X89.217 Y201.244 E131.20888
G1 F1224.5 X84.733 Y200.291 E131.41807
G1 F1227.6 X80.6 Y198.452 E131.62397
G1 F1230.8 X76.909 Y195.77 E131.83111
G1 X73.861 Y192.385 E132.03791
G1 F1237.1 X72.836 Y190.609 E132.13053
G1 F1162.2 X72.609 Y190.089 E132.15781
G1 F1145.6 X72.596 Y189.544 E132.1844
G1 F1200 X72.646 Y189.265 E132.1976
G1 X72.381 Y189.161 E132.21085
G1 F1188.1 X71.937 Y188.856 E132.23619
G1 F1156.6 X71.79 Y188.71 E132.2462
G1 F1162.2 X71.587 Y188.391 E132.26438
G1 F1209.1 X71.472 Y188.1 E132.27884
G1 F1233.9 X70.172 Y184.1 E132.4693
G1 X69.695 Y179.565 E132.67579
G1 X69.923 Y177.389 E132.77487
G1 F1073.8 X70.161 Y176.554 E132.82005
G1 F946.7 X70.263 Y176.441 E132.82903
G1 X70.182 Y176.313 E132.83797
G1 F1073.8 X70.092 Y175.7 E132.87021
G1 F1263.2 X70.106 Y175.389 E132.88398
G1 X70.157 Y175.084 E132.89766
G1 F1233.9 X71.578 Y170.701 E133.10631
G1 X73.863 Y166.744 E133.31323
G1 X75.971 Y164.404 E133.45585
G1 F1218.3 X76.458 Y164.016 E133.48441
G1 F1200 X77.017 Y163.828 E133.51187
G1 X77.305 Y163.806 E133.52532
G1 X78.213 Y163.806 E133.5676
G1 X78.146 Y163.239 E133.59419
G1 X78.351 Y162.532 E133.62846
G1 F1191.1 X78.644 Y162.124 E133.65203
G1 F1209.1 X78.885 Y161.926 E133.66644
G1 F1230.8 X80.598 Y160.68 E133.76261
G1 F1227.6 X84.734 Y158.84 E133.96866
G1 F1230.8 X86.952 Y158.364 E134.07165
G1 F1212.1 X87.291 Y158.284 E134.0877
G1 F1191.1 X89.22 Y157.875 E134.18021
G1 F1194 X93.743 Y157.874 E134.39187
G1 F1206 X98.238 Y158.828 E134.60477
G1 F1224.5 X102.402 Y160.68 E134.81273
G1 F1227.6 X104.115 Y161.926 E134.90915
G1 F1212.1 X104.355 Y162.122 E134.92343
G1 F1197 X104.651 Y162.531 E134.947
G1 F1200 X104.855 Y163.239 E134.98131
G1 X104.787 Y163.805 E135.00785
G1 X105.695 Y163.806 E135.05013
G1 X105.983 Y163.828 E135.06358
G1 F1132.1 X106.554 Y163.992 E135.09291
G1 F1145.6 X107.029 Y164.404 E135.12358
G1 F1233.9 X109.137 Y166.744 E135.2662
G1 F1237.1 X111.424 Y170.705 E135.47278
G1 F1243.5 X112.844 Y175.083 E135.6796
G1 F1273.2 X112.893 Y175.388 E135.69315
G1 F1269.8 X112.908 Y175.699 E135.70685
G1 F1076.2 X112.818 Y176.313 E135.73907
G1 F946.7 X112.737 Y176.441 E135.74801
G1 X112.839 Y176.554 E135.757
G1 F1071.4 X113.077 Y177.389 E135.80228
G1 F1230.8 X113.301 Y179.598 E135.90308
G1 X112.827 Y184.108 E136.10896
G1 F1233.9 X111.529 Y188.101 E136.29909
G1 F1215.2 X111.416 Y188.392 E136.31345
G1 F1170.7 X111.212 Y188.71 E136.33148
G1 F1165 X111.066 Y188.858 E136.34145
G1 F1191.1 X110.619 Y189.161 E136.36679
G1 F1200 X110.354 Y189.265 E136.38004
G1 X110.404 Y189.544 E136.39324
G1 F1148.3 X110.393 Y190.087 E136.41967
G1 F1165 X110.165 Y190.609 E136.44699
G1 F1233.9 X109.139 Y192.385 E136.53987
G1 F1230.8 X106.088 Y195.773 E136.74686
G1 F1227.6 X102.4 Y198.452 E136.95434
G0 F6000 X102.068 Y198.168
G1 F1200 X98.146 Y199.913 E137.15422
G1 X93.74 Y200.856 E137.36403
G1 X89.259 Y200.856 E137.57269
G1 X84.853 Y199.913 E137.78249
G1 X80.798 Y198.109 E137.98915
G1 X77.173 Y195.474 E138.19783
G1 X74.28 Y192.261 E138.39915
G1 X74.108 Y192.025 E138.41275
G1 X73.176 Y190.413 E138.49945
G1 X73.019 Y190.002 E138.51994
G1 X72.994 Y189.581 E138.53958
G1 X73.037 Y189.344 E138.5508
G1 X73.2 Y188.955 E138.57043
G1 X72.782 Y188.89 E138.59013
G1 X72.558 Y188.802 E138.60134
G1 X72.153 Y188.518 E138.62437
G1 X71.899 Y188.139 E138.64562
G1 X70.559 Y184.015 E138.84753
G1 X70.107 Y179.712 E139.049
G1 X70.107 Y179.419 E139.06264
G1 X70.315 Y177.43 E139.15576
G1 X70.539 Y176.803 E139.18677
G1 X70.823 Y176.49 E139.20645
G1 X70.597 Y176.133 E139.22612
G1 X70.485 Y175.673 E139.24817
G1 X70.536 Y175.192 E139.27069
G1 X71.94 Y170.862 E139.48265
G1 X74.181 Y166.98 E139.69137
G1 X76.264 Y164.668 E139.83627
G1 X76.646 Y164.369 E139.85886
G1 X77.132 Y164.206 E139.88273
G1 X78.795 Y164.206 E139.96016
G1 X78.682 Y164.039 E139.96955
G1 X78.609 Y163.811 E139.9807
G1 X78.545 Y163.27 E140.00607
G1 X78.704 Y162.72 E140.03273
G1 X78.974 Y162.349 E140.05409
G1 X80.798 Y161.022 E140.15912
G1 X84.853 Y159.219 E140.36577
G1 X89.231 Y158.281 E140.57425
G1 X93.735 Y158.274 E140.78398
G1 X98.121 Y159.207 E140.99278
G1 X102.204 Y161.024 E141.20087
G1 X104.033 Y162.355 E141.3062
G1 X104.297 Y162.719 E141.32714
G1 X104.456 Y163.27 E141.35385
G1 X104.391 Y163.811 E141.37922
G1 X104.318 Y164.039 E141.39037
G1 X104.164 Y164.206 E141.40094
G1 X105.868 Y164.206 E141.48029
G1 X106.354 Y164.367 E141.50413
G1 X106.736 Y164.668 E141.52677
G1 X108.818 Y166.979 E141.67161
G1 X110.985 Y170.732 E141.87341
G1 X111.105 Y170.999 E141.88704
G1 X112.467 Y175.191 E142.09228
G1 X112.516 Y175.672 E142.11479
G1 X112.403 Y176.133 E142.1369
G1 X112.176 Y176.49 E142.15659
G1 X112.461 Y176.803 E142.17631
G1 X112.685 Y177.43 E142.20731
G1 X112.905 Y179.596 E142.30869
G1 X112.456 Y183.869 E142.50875
G1 X112.397 Y184.156 E142.52239
G1 X111.1 Y188.147 E142.7178
G1 X110.847 Y188.522 E142.73886
G1 X110.442 Y188.802 E142.76179
G1 X110.218 Y188.89 E142.773
G1 X109.801 Y188.955 E142.79265
G1 X109.963 Y189.344 E142.81227
G1 X110.006 Y189.581 E142.82348
G1 X109.983 Y190.001 E142.84307
G1 X109.823 Y190.412 E142.86361
G1 X108.819 Y192.151 E142.95711
G1 X105.822 Y195.477 E143.16558
G1 X102.322 Y198.021 E143.36706
G1 X102.068 Y198.168 E143.38072
G0 F6000 X101.977 Y197.77
G1 F1200 X97.989 Y199.54 E143.58389
G1 X93.697 Y200.45 E143.78819
G1 X89.303 Y200.451 E143.99279
G1 X85.012 Y199.539 E144.19706
G1 X80.997 Y197.753 E144.40168
G1 X77.448 Y195.173 E144.60599
G1 X74.51 Y191.918 E144.81016
G1 X73.522 Y190.212 E144.90196
G1 X73.41 Y189.919 E144.91657
G1 X73.388 Y189.533 E144.93457
G1 X73.581 Y189.069 E144.95797
G1 F1176.5 X74.311 Y188.553 E145.00043
G1 X73.154 Y188.546 E145.05538
G1 F1200 X72.805 Y188.492 E145.07183
G1 X72.49 Y188.272 E145.08972
G1 X72.267 Y187.978 E145.1069
G1 X70.958 Y183.931 E145.30496
G1 X70.5 Y179.565 E145.50937
G1 X70.713 Y177.471 E145.60738
G1 X70.873 Y177.024 E145.62949
G1 X71.077 Y176.798 E145.64367
G1 F1179.4 X71.708 Y176.568 E145.67549
G1 X71.127 Y176.232 E145.70729
G1 F1200 X70.965 Y175.974 E145.72147
G1 X70.884 Y175.637 E145.73761
G1 X70.921 Y175.301 E145.75335
G1 X72.313 Y171.026 E145.9627
G1 X74.506 Y167.217 E146.16736
G1 X76.561 Y164.936 E146.31032
G1 X76.834 Y164.722 E146.32647
G1 X77.181 Y164.606 E146.34351
G1 X80.015 Y164.606 E146.47547
G1 X79.372 Y164.373 E146.50732
G1 X79.063 Y163.915 E146.53304
G1 X78.989 Y163.688 E146.54416
G1 X78.943 Y163.3 E146.56235
G1 X79.057 Y162.908 E146.58136
G1 X79.251 Y162.642 E146.59669
G1 X80.997 Y161.378 E146.69706
G1 X85.012 Y159.593 E146.90166
G1 X89.281 Y158.679 E147.10495
G1 X93.693 Y158.679 E147.31039
G1 X97.988 Y159.593 E147.51486
G1 X102.003 Y161.379 E147.71948
G1 X103.754 Y162.646 E147.82012
G1 X103.943 Y162.907 E147.83512
G1 X104.057 Y163.3 E147.85418
G1 X104.011 Y163.688 E147.87237
G1 X103.937 Y163.915 E147.88349
G1 F1153.8 X103.38 Y164.542 E147.9241
G1 F1093.4 X103.274 Y164.589 E147.93003
G1 F1134.8 X104.439 Y164.606 E147.9874
G1 F1200 X105.819 Y164.606 E148.05166
G1 X106.166 Y164.721 E148.06868
