;FLAVOR:Marlin
;TIME:4118
;Filament used: 3.82149m
;Layer height: 0.28
;MINX:84.45
;MINY:96.7
;MINZ:0.28
;MAXX:150.55
;MAXY:138.3
;MAXZ:8.12
;Generated with Cura_SteamEngine 5.4.0
M140 S50
M105
M190 S50
M104 S200
M105
M109 S200
M82 ;absolute extrusion mode
; Ender 3 Custom Start G-code
G92 E0 ; Reset Extruder
G28 ; Home all axes
G1 Z2.0 F3000 ; Move Z Axis up little to prevent scratching of Heat Bed
G1 X0.1 Y20 Z0.3 F5000.0 ; Move to start position
G1 X0.1 Y200.0 Z0.3 F1500.0 E15 ; Draw the first line
G1 X0.4 Y200.0 Z0.3 F5000.0 ; Move to side a little
G1 X0.4 Y20 Z0.3 F1500.0 E30 ; Draw the second line
G92 E0 ; Reset Extruder
G1 Z2.0 F3000 ; Move Z Axis up little to prevent scratching of Heat Bed
G1 X5 Y20 Z0.3 F5000.0 ; Move over to prevent blob squish
G92 E0
G92 E0
G1 F2700 E-5
;LAYER_COUNT:29
;LAYER:0
M107
;MESH:landscapeHalf.stl
G0 F6000 X92.172 Y134.106 Z0.28
;TYPE:WALL-INNER
G1 F2700 E0
G1 F1200 X91.671 Y134.265 E0.02448
G1 X91.25 Y134.3 E0.04415
G1 X90.75 Y134.3 E0.06743
G1 X90.26 Y134.233 E0.09046
G1 X89.78 Y134.026 E0.1148
G1 X89.348 Y133.793 E0.13765
G1 X89.1 Y133.595 E0.15243
G1 X88.805 Y133.228 E0.17436
G1 X88.606 Y132.762 E0.19795
G1 X88.476 Y132.311 E0.21981
G1 X88.45 Y132 E0.23434
G1 X88.45 Y103 E1.5847
G1 X88.575 Y102.31 E1.61735
G1 X88.805 Y101.772 E1.6446
G1 X89.1 Y101.405 E1.66652
G1 X89.348 Y101.206 E1.68133
G1 X89.785 Y100.972 E1.70441
G1 X90.335 Y100.735 E1.7323
G1 X90.75 Y100.7 E1.75169
G1 X91.25 Y100.7 E1.77497
G1 X91.624 Y100.736 E1.79247
G1 X92.173 Y100.894 E1.81907
G1 X92.616 Y101.191 E1.8439
G1 X92.779 Y101.351 E1.85454
G1 X93.292 Y102.056 E1.89514
G1 X93.419 Y102.324 E1.90895
G1 X93.515 Y102.642 E1.92441
G1 X93.55 Y103 E1.94116
G1 F1197 X93.547 Y132.256 E3.30685
G1 X93.419 Y132.676 E3.32735
G1 F1200 X93.291 Y132.944 E3.34118
G1 X92.861 Y133.536 E3.37525
G1 X92.616 Y133.809 E3.39233
G1 X92.172 Y134.106 E3.4172
G0 F6000 X92.417 Y133.466
G1 F1200 X92.002 Y133.744 E3.44046
G1 X91.646 Y133.857 E3.45785
G1 X91.25 Y133.9 E3.4764
G1 X90.75 Y133.9 E3.49968
G1 X90.369 Y133.848 E3.51759
G1 X90.028 Y133.701 E3.53488
G1 X89.446 Y133.394 E3.56552
G1 X89.147 Y133.02 E3.58781
G1 X88.992 Y132.658 E3.60615
G1 X88.85 Y132.174 E3.62964
G1 X88.85 Y103 E4.9881
G1 X88.952 Y102.434 E5.01488
G1 X89.147 Y101.98 E5.03789
G1 X89.376 Y101.694 E5.05495
G1 X89.569 Y101.54 E5.06645
G1 X90.031 Y101.298 E5.09073
G1 X90.369 Y101.152 E5.10788
G1 X90.75 Y101.1 E5.12578
G1 X91.25 Y101.1 E5.14906
G1 X91.575 Y101.133 E5.16427
G1 X92.002 Y101.256 E5.18497
G1 X92.418 Y101.535 E5.20829
G1 X93.013 Y102.355 E5.25547
G1 X93.123 Y102.721 E5.27326
G1 X93.15 Y103 E5.28631
G1 X93.146 Y132.198 E6.64589
G1 X93.014 Y132.644 E6.66755
G1 X92.417 Y133.466 E6.71486
G0 F6000 X90.173 Y133.4
G0 X90.173 Y133.332
G1 F1200 X90.148 Y133.282 E6.71746
G1 X89.955 Y133.216 E6.72696
G1 X89.653 Y133.017 E6.7438
G1 X89.489 Y132.813 E6.75599
G1 X89.379 Y132.554 E6.76909
G1 X89.358 Y132.451 E6.77399
G1 X89.25 Y132.132 E6.78967
G1 X89.25 Y103 E8.14618
G1 X89.328 Y102.565 E8.16675
G1 X89.489 Y102.187 E8.18589
G1 X89.653 Y101.983 E8.19807
G1 X89.955 Y101.784 E8.21491
G1 X90.148 Y101.718 E8.22441
G1 X90.234 Y101.642 E8.22976
G1 X90.477 Y101.537 E8.24208
G1 X90.75 Y101.5 E8.25491
G1 X91.25 Y101.5 E8.27819
G1 X91.527 Y101.53 E8.29117
G1 X91.831 Y101.618 E8.3059
G1 X92.132 Y101.819 E8.32276
G1 X92.622 Y102.507 E8.36209
G1 X92.75 Y102.851 E8.37918
G1 X92.747 Y132.088 E9.74058
G1 X92.664 Y132.434 E9.75714
G1 X92.132 Y133.181 E9.79985
G1 X91.831 Y133.382 E9.8167
G1 X91.577 Y133.463 E9.82911
G1 X91.25 Y133.5 E9.84444
G1 X90.75 Y133.5 E9.86772
G1 X90.477 Y133.463 E9.88055
G1 X90.173 Y133.332 E9.89596
G0 F6000 X90.397 Y132.986
G1 F1200 X90.37 Y132.933 E9.89873
G1 X90.111 Y132.847 E9.91144
G1 X89.93 Y132.728 E9.92153
G1 X89.831 Y132.606 E9.92884
G1 X89.747 Y132.325 E9.9425
G1 X89.65 Y132.075 E9.95499
G1 X89.65 Y103 E11.30884
G1 X89.831 Y102.394 E11.33829
G1 X89.93 Y102.272 E11.3456
G1 X90.111 Y102.153 E11.35569
G1 X90.37 Y102.067 E11.3684
G1 X90.397 Y102.014 E11.37117
G1 X90.631 Y101.9 E11.38329
G1 X91.329 Y101.9 E11.41579
G1 X91.661 Y101.98 E11.43169
G1 X91.848 Y102.117 E11.44249
G1 X92.273 Y102.704 E11.47623
G1 X92.35 Y102.909 E11.48643
G1 X92.348 Y132.053 E12.8435
G1 X92.273 Y132.296 E12.85534
G1 X91.84 Y132.899 E12.8899
G1 X91.604 Y133.057 E12.90313
G1 X91.25 Y133.1 E12.91973
G1 X90.631 Y133.1 E12.94856
G1 X90.397 Y132.986 E12.96068
G0 F6000 X90.397 Y133.4
G0 X92.992 Y133.629
G0 X93.755 Y132.238
G0 X94.223 Y133.126
G0 X97.672 Y134.106
G1 F1200 X97.171 Y134.265 E12.98515
G1 X96.75 Y134.3 E13.00482
G1 X96.25 Y134.3 E13.02811
G1 X95.76 Y134.233 E13.05113
G1 X95.24 Y134.009 E13.0775
G1 X94.747 Y133.721 E13.10409
G1 X94.48 Y133.47 E13.12115
G1 X94.202 Y133.061 E13.14418
G1 F1194 X93.953 Y132.258 E13.18352
G1 X93.95 Y103 E14.55271
G1 F1200 X93.985 Y102.642 E14.56946
G1 X94.201 Y101.94 E14.60366
G1 X94.48 Y101.53 E14.62675
G1 X94.747 Y101.279 E14.64381
G1 X95.24 Y100.991 E14.6704
G1 X95.835 Y100.735 E14.70056
G1 X96.25 Y100.7 E14.71995
G1 X96.75 Y100.7 E14.74324
G1 X97.124 Y100.736 E14.76073
G1 X97.673 Y100.894 E14.78733
G1 X98.116 Y101.191 E14.81217
G1 X98.279 Y101.351 E14.8228
G1 X98.792 Y102.056 E14.8634
G1 X98.919 Y102.324 E14.87721
G1 X99.015 Y102.642 E14.89268
G1 X99.05 Y103 E14.90943
G1 F1197 X99.047 Y132.256 E16.27512
G1 X98.919 Y132.676 E16.29561
G1 F1200 X98.791 Y132.944 E16.30944
G1 X98.361 Y133.536 E16.34351
G1 X98.116 Y133.809 E16.36059
G1 X97.672 Y134.106 E16.38547
G0 F6000 X97.917 Y133.466
G1 F1200 X97.502 Y133.744 E16.40872
G1 X97.146 Y133.857 E16.42612
G1 X96.75 Y133.9 E16.44466
G1 X96.25 Y133.9 E16.46795
G1 X95.869 Y133.848 E16.48585
G1 X95.528 Y133.701 E16.50314
G1 X95.299 Y133.584 E16.51512
G1 X94.991 Y133.404 E16.53173
G1 X94.783 Y133.208 E16.54504
G1 F1203 X94.566 Y132.89 E16.56292
G1 X94.354 Y132.2 E16.59645
G1 X94.35 Y103 E17.95272
G1 F1200 X94.377 Y102.722 E17.96573
G1 X94.567 Y102.11 E17.99557
G1 X94.783 Y101.792 E18.01347
G1 X94.991 Y101.596 E18.02677
G1 X95.299 Y101.416 E18.04338
G1 X95.528 Y101.299 E18.05536
G1 X95.869 Y101.152 E18.07265
G1 X96.25 Y101.1 E18.09056
G1 X96.75 Y101.1 E18.11384
G1 X97.075 Y101.133 E18.12905
G1 X97.502 Y101.256 E18.14974
G1 X97.918 Y101.535 E18.17306
G1 X98.513 Y102.355 E18.22024
G1 X98.623 Y102.721 E18.23804
G1 X98.65 Y103 E18.25109
G1 X98.646 Y132.198 E19.61067
G1 X98.514 Y132.644 E19.63233
G1 X97.917 Y133.466 E19.67963
G0 F6000 X95.673 Y133.4
G0 X95.673 Y133.332
G1 F1200 X95.648 Y133.282 E19.68223
G1 X95.455 Y133.216 E19.69173
G1 X95.235 Y133.087 E19.70361
G1 X95.087 Y132.947 E19.71309
G1 X94.912 Y132.657 E19.72887
G1 X94.822 Y132.376 E19.74261
G1 X94.753 Y132.087 E19.75644
G1 X94.75 Y102.854 E21.11765
G1 X94.86 Y102.549 E21.13275
G1 X94.912 Y102.343 E21.14264
G1 X95.137 Y101.971 E21.16289
G1 X95.455 Y101.784 E21.18006
G1 X95.648 Y101.718 E21.18956
G1 X95.734 Y101.642 E21.19491
G1 X95.977 Y101.537 E21.20723
G1 X96.25 Y101.5 E21.22006
G1 X96.75 Y101.5 E21.24334
G1 X97.027 Y101.53 E21.25632
G1 X97.331 Y101.618 E21.27105
G1 X97.632 Y101.819 E21.28791
G1 X98.122 Y102.507 E21.32724
G1 X98.25 Y102.851 E21.34433
G1 X98.247 Y132.088 E22.70573
G1 X98.164 Y132.434 E22.72229
G1 X97.632 Y133.181 E22.765
G1 X97.331 Y133.382 E22.78185
G1 X97.077 Y133.463 E22.79426
G1 X96.75 Y133.5 E22.80959
G1 X96.25 Y133.5 E22.83287
G1 X95.977 Y133.463 E22.8457
G1 X95.673 Y133.332 E22.86111
G0 F6000 X95.897 Y132.986
G1 F1200 X95.87 Y132.933 E22.86388
G1 X95.518 Y132.816 E22.88115
G1 X95.314 Y132.575 E22.89586
G1 X95.247 Y132.325 E22.90791
G1 X95.152 Y132.053 E22.92132
G1 X95.15 Y102.914 E24.27816
G1 X95.247 Y102.675 E24.29017
G1 X95.314 Y102.425 E24.30222
G1 X95.518 Y102.184 E24.31692
G1 X95.87 Y102.067 E24.3342
G1 X95.897 Y102.014 E24.33697
G1 X96.131 Y101.9 E24.34909
G1 X96.829 Y101.9 E24.38159
G1 X97.161 Y101.98 E24.39749
G1 X97.348 Y102.117 E24.40828
G1 X97.773 Y102.704 E24.44203
G1 X97.85 Y102.909 E24.45223
G1 X97.848 Y132.053 E25.80929
G1 X97.773 Y132.296 E25.82113
G1 X97.34 Y132.899 E25.8557
G1 X97.16 Y133.02 E25.8658
G1 X96.827 Y133.1 E25.88175
G1 X96.131 Y133.1 E25.91416
G1 X95.897 Y132.986 E25.92628
G0 F6000 X95.897 Y133.4
G0 X98.492 Y133.629
G0 X99.255 Y132.238
G0 X99.732 Y133.134
G0 X103.13 Y134.125
G1 F1200 X102.668 Y134.265 E25.94876
G1 X102.25 Y134.3 E25.96829
G1 X101.75 Y134.3 E25.99157
G1 X101.26 Y134.233 E26.0146
G1 X100.74 Y134.009 E26.04096
G1 X100.247 Y133.721 E26.06755
G1 X99.98 Y133.47 E26.08461
G1 X99.702 Y133.061 E26.10764
G1 F1194 X99.453 Y132.258 E26.14698
G1 X99.45 Y103 E27.51617
G1 F1200 X99.485 Y102.642 E27.53292
G1 X99.701 Y101.94 E27.56712
G1 X99.98 Y101.53 E27.59021
G1 X100.247 Y101.279 E27.60728
G1 X100.74 Y100.991 E27.63386
G1 X101.335 Y100.735 E27.66402
G1 X101.75 Y100.7 E27.68342
G1 X102.25 Y100.7 E27.7067
G1 X102.624 Y100.736 E27.72419
G1 X103.131 Y100.875 E27.74867
G1 X103.552 Y101.135 E27.77171
G1 X103.861 Y101.464 E27.79273
G1 X104.207 Y101.94 E27.82013
G1 X104.372 Y102.216 E27.83511
G1 X104.476 Y102.485 E27.84853
G1 X104.532 Y102.737 E27.86056
G1 X104.551 Y102.999 E27.87279
G1 X104.551 Y112.633 E28.32139
G1 F973.6 X104.647 Y113.031 E28.34488
G1 F871.1 X104.61 Y114.174 E28.41824
G1 F1002.1 X104.572 Y115.318 E28.48206
G1 F1137.4 X104.55 Y117.582 E28.59329
G1 X104.572 Y119.682 E28.69645
G1 F1000 X104.608 Y120.821 E28.76013
G1 F869.6 X104.644 Y121.961 E28.83342
G1 F857.1 X104.617 Y122.076 E28.84112
G1 F961.9 X104.584 Y123.013 E28.89559
G1 F1108.5 X104.551 Y123.951 E28.94289
G1 F1200 X104.551 Y132.001 E29.31774
G1 X104.532 Y132.263 E29.32997
G1 X104.476 Y132.515 E29.34199
G1 X104.371 Y132.785 E29.35548
G1 X104.207 Y133.06 E29.37039
G1 X103.861 Y133.536 E29.39779
G1 X103.552 Y133.865 E29.41881
G1 X103.13 Y134.125 E29.44189
G0 F6000 X102.969 Y133.759
G1 F1200 X102.646 Y133.857 E29.4576
G1 X102.25 Y133.9 E29.47615
G1 X101.75 Y133.9 E29.49943
G1 X101.369 Y133.848 E29.51734
G1 X101.028 Y133.701 E29.53463
G1 X100.799 Y133.584 E29.5466
G1 X100.491 Y133.404 E29.56322
G1 X100.283 Y133.208 E29.57652
G1 F1203 X100.066 Y132.89 E29.59441
G1 X99.854 Y132.2 E29.62793
G1 X99.85 Y103 E30.98421
G1 F1200 X99.877 Y102.722 E30.99721
G1 X100.067 Y102.11 E31.02705
G1 X100.283 Y101.792 E31.04495
G1 X100.491 Y101.596 E31.05826
G1 X100.799 Y101.416 E31.07487
G1 X101.028 Y101.299 E31.08685
G1 X101.369 Y101.152 E31.10414
G1 X101.75 Y101.1 E31.12204
G1 X102.25 Y101.1 E31.14533
G1 X102.575 Y101.133 E31.16054
G1 X102.969 Y101.241 E31.17956
G1 X103.297 Y101.443 E31.1975
G1 X103.537 Y101.699 E31.21384
G1 X103.883 Y102.175 E31.24124
G1 X104.079 Y102.505 E31.25911
G1 X104.151 Y102.999 E31.28236
G1 X104.151 Y132.138 E32.63919
G1 X104.092 Y132.401 E32.65174
G1 X103.98 Y132.692 E32.66626
G1 X103.537 Y133.301 E32.70133
G1 X103.297 Y133.557 E32.71767
G1 X102.969 Y133.759 E32.7356
G0 F6000 X101.173 Y133.4
G0 X101.173 Y133.332
G1 F1200 X101.148 Y133.282 E32.73821
G1 X100.955 Y133.216 E32.7477
G1 X100.735 Y133.087 E32.75958
G1 X100.587 Y132.947 E32.76907
G1 X100.412 Y132.657 E32.78484
G1 X100.322 Y132.376 E32.79858
G1 X100.253 Y132.087 E32.81241
G1 X100.25 Y102.854 E34.17362
G1 X100.36 Y102.549 E34.18872
G1 X100.412 Y102.343 E34.19861
G1 X100.637 Y101.971 E34.21886
G1 X100.955 Y101.784 E34.23603
G1 X101.148 Y101.718 E34.24553
G1 X101.234 Y101.642 E34.25088
G1 X101.477 Y101.537 E34.2632
G1 X101.75 Y101.5 E34.27603
G1 X102.25 Y101.5 E34.29931
G1 X102.527 Y101.53 E34.31229
G1 X102.808 Y101.607 E34.32585
G1 X103.042 Y101.752 E34.33867
G1 X103.214 Y101.934 E34.35033
G1 X103.629 Y102.508 E34.38331
G1 X103.709 Y102.713 E34.39356
G1 X103.751 Y102.999 E34.40702
G1 X103.751 Y132.097 E35.76195
G1 X103.63 Y132.49 E35.78109
G1 X103.214 Y133.066 E35.81418
G1 X103.042 Y133.248 E35.82584
G1 X102.808 Y133.393 E35.83866
G1 X102.577 Y133.463 E35.8499
G1 X102.25 Y133.5 E35.86522
G1 X101.75 Y133.5 E35.8885
G1 X101.477 Y133.463 E35.90133
G1 X101.173 Y133.332 E35.91674
G0 F6000 X101.397 Y132.986
G1 F1200 X101.37 Y132.933 E35.91951
G1 X101.018 Y132.816 E35.93679
G1 X100.814 Y132.575 E35.95149
G1 X100.747 Y132.325 E35.96354
G1 X100.652 Y132.053 E35.97696
G1 X100.65 Y102.914 E37.33379
G1 X100.747 Y102.675 E37.3458
G1 X100.814 Y102.425 E37.35785
G1 X101.018 Y102.184 E37.37256
G1 X101.37 Y102.067 E37.38983
G1 X101.397 Y102.014 E37.3926
G1 X101.631 Y101.9 E37.40472
G1 X102.329 Y101.9 E37.43722
G1 X102.647 Y101.973 E37.45241
G1 X102.829 Y102.086 E37.46239
G1 X103.277 Y102.702 E37.49785
G1 X103.349 Y102.95 E37.50988
G1 X103.349 Y132.05 E38.8649
G1 X103.278 Y132.296 E38.87682
G1 X102.829 Y132.914 E38.91239
G1 X102.646 Y133.027 E38.9224
G1 X102.327 Y133.1 E38.93764
G1 X101.631 Y133.1 E38.97005
G1 X101.397 Y132.986 E38.98217
G0 F6000 X101.397 Y133.4
G0 X102.722 Y133.457
G0 X103.078 Y133.328
G0 X104.712 Y132
G0 X104.712 Y123.95
G0 X104.846 Y122.066
G0 X108.71 Y127.917
G0 X111.479 Y129.274
G1 F1200 X111.168 Y129.3 E38.9967
G1 X110.332 Y129.3 E39.03563
G1 X110.012 Y129.272 E39.05059
G1 X109.635 Y129.169 E39.06879
G1 X108.667 Y128.653 E39.11986
G1 X108.413 Y128.489 E39.13394
G1 X108.172 Y128.264 E39.1493
G1 X107.404 Y127.406 E39.20291
G1 X107.167 Y127.07 E39.22206
G1 X106.495 Y125.841 E39.28728
G1 X106.38 Y125.584 E39.30039
G1 X105.818 Y124.017 E39.37791
G1 F1108.5 X105.546 Y123.01 E39.43049
G1 F961.9 X105.274 Y122.002 E39.49114
G1 F857.1 X105.227 Y121.911 E39.49781
G1 F869.6 X105.121 Y120.792 E39.57004
G1 F1000 X105.015 Y119.673 E39.63285
G1 F1137.4 X104.951 Y117.426 E39.74328
G1 X105.015 Y115.327 E39.84644
G1 F1002.1 X105.122 Y114.205 E39.90929
G1 F871.1 X105.23 Y113.082 E39.98165
G1 F973.6 X105.404 Y112.729 E40.00424
G1 F1200 X105.784 Y111.079 E40.08308
G1 X106.38 Y109.416 E40.16534
G1 X106.495 Y109.159 E40.17845
G1 X107.167 Y107.93 E40.24367
G1 X107.404 Y107.594 E40.26282
G1 X108.172 Y106.736 E40.31644
G1 X108.413 Y106.511 E40.33179
G1 X108.667 Y106.347 E40.34587
G1 X109.657 Y105.825 E40.39798
G1 X110.021 Y105.726 E40.41555
G1 X110.332 Y105.7 E40.43008
G1 X111.168 Y105.7 E40.46901
G1 X111.479 Y105.726 E40.48354
G1 X111.752 Y105.797 E40.49667
G1 X112.015 Y105.911 E40.51002
G1 X112.833 Y106.347 E40.55318
G1 X113.066 Y106.495 E40.56604
G1 X113.296 Y106.7 E40.58038
G1 X114.182 Y107.69 E40.64225
G1 X114.333 Y107.93 E40.65545
G1 X115.066 Y109.281 E40.72702
G1 X115.715 Y111.074 E40.81581
G1 X116.161 Y113.013 E40.90846
G1 F1126.8 X116.331 Y114.088 E40.96243
G1 F1004.2 X116.501 Y115.164 E41.02304
G1 X116.525 Y116.295 E41.08599
G1 F1124.1 X116.55 Y117.426 E41.14223
G1 F1129.4 X116.527 Y118.593 E41.19997
G1 F1019.1 X116.504 Y119.76 E41.26397
G1 F993.8 X116.485 Y119.834 E41.26827
G1 F1100.9 X116.161 Y121.987 E41.37877
G1 F1200 X115.715 Y123.926 E41.47142
G1 X115.066 Y125.719 E41.56021
G1 X114.333 Y127.07 E41.63178
G1 X114.181 Y127.311 E41.64505
G1 X113.264 Y128.332 E41.70895
G1 X113.066 Y128.505 E41.72119
G1 X112.833 Y128.653 E41.73405
G1 X112.015 Y129.089 E41.77721
G1 X111.752 Y129.203 E41.79056
G1 X111.479 Y129.274 E41.80369
G0 F6000 X110.151 Y128.9
G1 F1200 X109.762 Y128.78 E41.82265
G1 X108.715 Y128.226 E41.8778
G1 X108.47 Y127.998 E41.89339
G1 X107.703 Y127.14 E41.94698
G1 X107.518 Y126.878 E41.96191
G1 X106.793 Y125.552 E42.03228
G1 X106.167 Y123.804 E42.11874
G1 X105.714 Y121.825 E42.21327
G1 X105.447 Y119.778 E42.3094
G1 X105.351 Y117.442 E42.41826
G1 X105.447 Y115.222 E42.52173
G1 X105.715 Y113.169 E42.61814
G1 X106.167 Y111.196 E42.71239
G1 X106.793 Y109.448 E42.79884
G1 X107.518 Y108.122 E42.86922
G1 X107.703 Y107.86 E42.88415
G1 X108.47 Y107.002 E42.93774
G1 X108.715 Y106.774 E42.95332
G1 X109.808 Y106.196 E43.0109
G1 X110.164 Y106.1 E43.02806
G1 X111.333 Y106.1 E43.0825
G1 X111.696 Y106.194 E43.09996
G1 X112.771 Y106.767 E43.15668
G1 X112.98 Y106.949 E43.16959
G1 X113.906 Y107.982 E43.23418
G1 X114.701 Y109.445 E43.31172
G1 X115.331 Y111.189 E43.39806
G1 X115.787 Y113.171 E43.49276
G1 X116.063 Y115.344 E43.59476
G1 X116.149 Y117.558 E43.69793
G1 X116.059 Y119.72 E43.79869
G1 X115.786 Y121.831 E43.8978
G1 X115.331 Y123.811 E43.9924
G1 X114.701 Y125.555 E44.07875
G1 X113.905 Y127.02 E44.15638
G1 X112.98 Y128.051 E44.22088
G1 X112.771 Y128.233 E44.23379
G1 X111.696 Y128.806 E44.29051
G1 X111.333 Y128.9 E44.30797
G1 X110.151 Y128.9 E44.36301
