;FLAVOR:Marlin
;TIME:230
;Filament used: 0.042073m
;Layer height: 0.12
;MINX:95.012
;MINY:95.012
;MINZ:0.12
;MAXX:124.988
;MAXY:124.988
;MAXZ:2.4
;Generated with Creality Slicer 4.8.2-191
M140 S50
M105
M190 S50
M104 S200
M105
M109 S200
M82 ;absolute extrusion mode

G28 ;Home

G92 E0 ;Reset Extruder
G1 Z2.0 F3000 ;Move Z Axis up
G1 X10.1 Y20 Z0.28 F5000.0 ;Move to start position
G1 X10.1 Y200.0 Z0.28 F1500.0 E15 ;Draw the first line
G1 X10.4 Y200.0 Z0.28 F5000.0 ;Move to side a little
G1 X10.4 Y20 Z0.28 F1500.0 E30 ;Draw the second line
G92 E0 ;Reset Extruder
G1 Z2.0 F3000 ;Move Z Axis up

G92 E0
G92 E0
;LAYER_COUNT:20
;LAYER:0
M107
G0 F6000 X99.568 Y99.238 Z0.12
;TYPE:SKIRT
G1 F1200 X99.775 Y99.041 E0.0057
G1 X100.331 Y98.546 E0.02056
G1 X100.496 Y98.409 E0.02484
G1 X100.782 Y98.179 E0.03216
G1 X101.281 Y97.809 E0.04456
G1 X101.537 Y97.63 E0.05079
G1 X102.261 Y97.165 E0.06796
G1 X102.521 Y97.012 E0.07398
G1 X103.095 Y96.697 E0.08705
G1 X103.277 Y96.604 E0.09113
G1 X103.657 Y96.418 E0.09957
G1 X104.212 Y96.175 E0.11166
G1 X104.49 Y96.062 E0.11765
G1 X105.168 Y95.812 E0.13207
G1 X105.391 Y95.738 E0.13676
G1 X105.784 Y95.615 E0.14498
G1 X106.276 Y95.482 E0.15515
G1 X106.568 Y95.41 E0.16115
G1 X107.425 Y95.234 E0.17861
G1 X107.645 Y95.198 E0.18306
G1 X107.991 Y95.147 E0.19004
G1 X108.414 Y95.096 E0.19854
G1 X108.623 Y95.075 E0.20273
G1 X109.126 Y95.036 E0.2128
G1 X109.614 Y95.017 E0.22255
G1 X109.904 Y95.012 E0.22834
G1 X110.723 Y95.028 E0.24468
G1 X110.95 Y95.041 E0.24922
G1 X111.579 Y95.095 E0.26182
G1 X111.831 Y95.124 E0.26688
G1 X112.355 Y95.197 E0.27744
G1 X112.489 Y95.219 E0.28015
G1 X112.875 Y95.29 E0.28798
G1 X113.074 Y95.33 E0.29203
G1 X113.574 Y95.442 E0.30226
G1 X113.983 Y95.55 E0.3107
G1 X114.226 Y95.619 E0.31574
G1 X115.401 Y96.026 E0.34056
G1 X115.995 Y96.27 E0.35337
G1 X117.253 Y96.883 E0.3813
G1 X117.522 Y97.036 E0.38747
G1 X118.152 Y97.423 E0.40223
G1 X118.4 Y97.587 E0.40816
G1 X119.075 Y98.071 E0.42474
G1 X119.298 Y98.244 E0.43037
G1 X119.875 Y98.724 E0.44535
G1 X120.219 Y99.034 E0.45459
G1 X120.292 Y99.102 E0.45658
G1 X120.746 Y99.551 E0.46932
G1 X120.94 Y99.754 E0.47492
G1 X121.505 Y100.392 E0.49193
G1 X121.693 Y100.622 E0.49786
G1 X122.184 Y101.271 E0.5141
G1 X122.362 Y101.525 E0.52029
G1 X122.837 Y102.264 E0.53782
G1 X122.991 Y102.526 E0.54389
G1 X123.339 Y103.165 E0.55841
G1 X123.466 Y103.418 E0.56406
G1 X123.816 Y104.188 E0.58093
G1 X123.924 Y104.452 E0.58663
G1 X124.196 Y105.193 E0.60238
G1 X124.291 Y105.483 E0.60847
G1 X124.514 Y106.256 E0.62452
G1 X124.587 Y106.55 E0.63057
G1 X124.779 Y107.504 E0.64999
G1 X124.826 Y107.805 E0.65607
G1 X124.904 Y108.413 E0.6683
G1 X124.925 Y108.624 E0.67253
G1 X124.959 Y109.043 E0.68092
G1 X124.983 Y109.612 E0.69229
G1 X124.988 Y109.904 E0.69812
G1 X124.974 Y110.694 E0.71388
G1 X124.962 Y110.913 E0.71826
G1 X124.907 Y111.562 E0.73126
G1 X124.877 Y111.824 E0.73652
G1 X124.763 Y112.584 E0.75186
G1 X124.702 Y112.912 E0.75851
G1 X124.567 Y113.536 E0.77126
G1 X124.455 Y113.965 E0.7801
G1 X124.387 Y114.206 E0.7851
G1 X123.968 Y115.416 E0.81065
G1 X123.722 Y116.012 E0.82352
G1 X123.131 Y117.226 E0.85047
G1 X122.979 Y117.495 E0.85663
G1 X122.626 Y118.077 E0.87022
G1 X122.511 Y118.254 E0.87443
G1 X122.291 Y118.58 E0.88228
G1 X121.929 Y119.075 E0.89451
G1 X121.756 Y119.298 E0.90015
G1 X121.276 Y119.875 E0.91513
G1 X120.966 Y120.219 E0.92437
G1 X120.898 Y120.292 E0.92636
G1 X120.449 Y120.746 E0.9391
G1 X120.246 Y120.94 E0.9447
G1 X119.667 Y121.456 E0.96018
G1 X119.316 Y121.744 E0.96924
G1 X119.244 Y121.801 E0.97107
G1 X118.719 Y122.191 E0.98413
G1 X118.463 Y122.37 E0.99036
G1 X117.739 Y122.835 E1.00753
G1 X117.479 Y122.988 E1.01355
G1 X116.819 Y123.347 E1.02854
G1 X116.565 Y123.474 E1.03421
G1 X115.808 Y123.817 E1.0508
G1 X115.534 Y123.929 E1.0567
G1 X114.823 Y124.192 E1.07183
G1 X114.596 Y124.267 E1.0766
G1 X114.216 Y124.385 E1.08454
G1 X113.724 Y124.518 E1.09471
G1 X113.432 Y124.59 E1.10072
G1 X112.575 Y124.766 E1.11818
G1 X112.355 Y124.802 E1.12262
G1 X112.009 Y124.853 E1.1296
G1 X111.586 Y124.904 E1.13811
G1 X111.377 Y124.925 E1.1423
G1 X110.874 Y124.964 E1.15237
G1 X110.386 Y124.983 E1.16211
G1 X110.096 Y124.988 E1.1679
G1 X109.277 Y124.972 E1.18425
G1 X109.05 Y124.959 E1.18878
G1 X108.421 Y124.905 E1.20138
G1 X108.169 Y124.876 E1.20645
G1 X107.645 Y124.803 E1.217
G1 X107.511 Y124.781 E1.21971
G1 X107.125 Y124.71 E1.22755
G1 X106.926 Y124.67 E1.2316
G1 X106.426 Y124.558 E1.24182
G1 X106.017 Y124.45 E1.25026
G1 X105.774 Y124.381 E1.2553
G1 X104.585 Y123.968 E1.28042
G1 X103.991 Y123.723 E1.29325
G1 X102.884 Y123.192 E1.31775
G1 X102.704 Y123.093 E1.32185
G1 X102.346 Y122.887 E1.33009
G1 X101.918 Y122.623 E1.34012
G1 X101.735 Y122.504 E1.34448
G1 X101.376 Y122.26 E1.35314
G1 X100.929 Y121.932 E1.36421
G1 X100.707 Y121.76 E1.36981
G1 X100.127 Y121.277 E1.38487
G1 X99.777 Y120.962 E1.39427
G1 X99.703 Y120.893 E1.39629
G1 X99.253 Y120.448 E1.40892
G1 X99.059 Y120.245 E1.41452
G1 X98.494 Y119.607 E1.43153
G1 X98.306 Y119.377 E1.43746
G1 X97.803 Y118.711 E1.45411
G1 X97.625 Y118.456 E1.46032
G1 X97.178 Y117.762 E1.47679
G1 X97.02 Y117.495 E1.48298
G1 X96.659 Y116.833 E1.49803
G1 X96.562 Y116.64 E1.50234
G1 X96.383 Y116.267 E1.5106
G1 X96.2 Y115.851 E1.51967
G1 X96.109 Y115.631 E1.52442
G1 X95.968 Y115.272 E1.53212
G1 X95.774 Y114.72 E1.54379
G1 X95.69 Y114.459 E1.54926
G1 X95.477 Y113.705 E1.5649
G1 X95.406 Y113.415 E1.57086
G1 X95.224 Y112.508 E1.58932
G1 X95.174 Y112.19 E1.59574
G1 X95.092 Y111.554 E1.60854
G1 X95.072 Y111.35 E1.61263
G1 X95.037 Y110.893 E1.62178
G1 X95.018 Y110.46 E1.63043
G1 X95.013 Y110.25 E1.63462
G1 X95.012 Y109.778 E1.64404
G1 X95.029 Y109.257 E1.65444
G1 X95.041 Y109.048 E1.65862
G1 X95.095 Y108.421 E1.67118
G1 X95.124 Y108.169 E1.67624
G1 X95.197 Y107.645 E1.6868
G1 X95.219 Y107.511 E1.68951
G1 X95.29 Y107.125 E1.69734
G1 X95.33 Y106.926 E1.70139
G1 X95.442 Y106.426 E1.71162
G1 X95.55 Y106.017 E1.72006
G1 X95.619 Y105.774 E1.7251
G1 X96.032 Y104.585 E1.75022
G1 X96.277 Y103.991 E1.76304
G1 X96.805 Y102.888 E1.78744
G1 X96.905 Y102.706 E1.79159
G1 X97.156 Y102.273 E1.80157
G1 X97.423 Y101.848 E1.81159
G1 X97.587 Y101.6 E1.81752
G1 X98.028 Y100.98 E1.83271
G1 X98.162 Y100.805 E1.83711
G1 X98.415 Y100.488 E1.8452
G1 X98.722 Y100.127 E1.85466
G1 X98.877 Y99.953 E1.85931
G1 X99.126 Y99.683 E1.86664
G1 X99.568 Y99.238 E1.87915
G0 F6000 X99.843 Y99.527
G1 F1200 X100.05 Y99.33 E1.88486
G1 X100.587 Y98.854 E1.89918
G1 X100.752 Y98.717 E1.90346
G1 X101.029 Y98.494 E1.91055
G1 X101.51 Y98.137 E1.92251
G1 X101.766 Y97.958 E1.92874
G1 X102.464 Y97.509 E1.9453
G1 X102.724 Y97.356 E1.95132
G1 X103.277 Y97.053 E1.96391
G1 X103.459 Y96.96 E1.96799
G1 X103.828 Y96.78 E1.97618
G1 X104.363 Y96.545 E1.98784
G1 X104.641 Y96.432 E1.99383
G1 X105.294 Y96.191 E2.00772
G1 X105.517 Y96.117 E2.01241
G1 X105.898 Y95.999 E2.02037
G1 X106.371 Y95.87 E2.03015
G1 X106.663 Y95.798 E2.03615
G1 X107.489 Y95.629 E2.05298
G1 X107.954 Y95.556 E2.06237
G1 X108.047 Y95.543 E2.06425
G1 X108.454 Y95.494 E2.07243
G1 X108.663 Y95.473 E2.07662
G1 X109.151 Y95.435 E2.08639
G1 X109.621 Y95.417 E2.09577
G1 X109.911 Y95.412 E2.10156
G1 X110.7 Y95.427 E2.11731
G1 X110.927 Y95.44 E2.12185
G1 X111.533 Y95.492 E2.13398
G1 X111.785 Y95.521 E2.13905
G1 X112.29 Y95.592 E2.14922
G1 X112.424 Y95.614 E2.15193
G1 X112.796 Y95.682 E2.15948
G1 X112.995 Y95.722 E2.16353
G1 X113.477 Y95.83 E2.17339
G1 X113.873 Y95.935 E2.18156
G1 X114.116 Y96.004 E2.1866
G1 X115.249 Y96.396 E2.21053
G1 X115.843 Y96.64 E2.22334
G1 X117.056 Y97.231 E2.25027
G1 X117.325 Y97.384 E2.25645
G1 X117.931 Y97.756 E2.27064
G1 X118.179 Y97.92 E2.27657
G1 X118.829 Y98.387 E2.29254
G1 X119.052 Y98.56 E2.29818
G1 X119.609 Y99.023 E2.31263
G1 X119.946 Y99.327 E2.32169
G1 X120.019 Y99.395 E2.32368
G1 X120.457 Y99.827 E2.33595
G1 X120.651 Y100.03 E2.34156
G1 X121.195 Y100.646 E2.35796
G1 X121.383 Y100.876 E2.36389
G1 X121.857 Y101.501 E2.37954
G1 X122.035 Y101.755 E2.38573
G1 X122.492 Y102.467 E2.40261
G1 X122.646 Y102.729 E2.40868
G1 X122.981 Y103.345 E2.42267
G1 X123.108 Y103.598 E2.42832
G1 X123.446 Y104.339 E2.44457
G1 X123.554 Y104.603 E2.45027
G1 X123.816 Y105.317 E2.46544
G1 X123.911 Y105.607 E2.47153
G1 X124.126 Y106.353 E2.48703
G1 X124.199 Y106.647 E2.49307
G1 X124.384 Y107.566 E2.51178
G1 X124.431 Y107.867 E2.51786
G1 X124.506 Y108.452 E2.52963
G1 X124.527 Y108.663 E2.53386
G1 X124.56 Y109.071 E2.54203
G1 X124.583 Y109.619 E2.55298
G1 X124.588 Y109.911 E2.5588
G1 X124.574 Y110.672 E2.57399
G1 X124.562 Y110.891 E2.57837
G1 X124.509 Y111.517 E2.59091
G1 X124.479 Y111.779 E2.59617
G1 X124.369 Y112.511 E2.61094
G1 X124.308 Y112.839 E2.6176
G1 X124.178 Y113.44 E2.62987
G1 X124.07 Y113.856 E2.63845
G1 X124.002 Y114.097 E2.64344
G1 X123.598 Y115.263 E2.66807
G1 X123.352 Y115.859 E2.68094
G1 X122.783 Y117.03 E2.70692
G1 X122.631 Y117.299 E2.71308
G1 X122.291 Y117.859 E2.72616
G1 X122.176 Y118.036 E2.73037
G1 X121.962 Y118.353 E2.738
G1 X121.613 Y118.829 E2.74978
G1 X121.44 Y119.052 E2.75541
G1 X120.977 Y119.609 E2.76987
G1 X120.673 Y119.946 E2.77893
G1 X120.605 Y120.019 E2.78092
G1 X120.173 Y120.457 E2.79319
G1 X119.97 Y120.651 E2.7988
G1 X119.412 Y121.148 E2.81371
G1 X119.067 Y121.43 E2.8226
G1 X118.995 Y121.487 E2.82443
G1 X118.49 Y121.863 E2.837
G1 X118.234 Y122.042 E2.84323
G1 X117.536 Y122.491 E2.85979
G1 X117.276 Y122.644 E2.86582
G1 X116.64 Y122.989 E2.88025
G1 X116.386 Y123.116 E2.88592
G1 X115.657 Y123.447 E2.9019
G1 X115.383 Y123.559 E2.90781
G1 X114.697 Y123.812 E2.9224
G1 X114.47 Y123.887 E2.92717
G1 X114.102 Y124.001 E2.93486
G1 X113.629 Y124.13 E2.94464
G1 X113.337 Y124.202 E2.95064
G1 X112.511 Y124.371 E2.96747
G1 X112.046 Y124.444 E2.97686
G1 X111.953 Y124.457 E2.97873
G1 X111.546 Y124.506 E2.98691
G1 X111.337 Y124.527 E2.99111
G1 X110.849 Y124.565 E3.00087
G1 X110.379 Y124.583 E3.01026
G1 X110.089 Y124.588 E3.01605
G1 X109.3 Y124.573 E3.0318
G1 X109.073 Y124.56 E3.03633
G1 X108.467 Y124.508 E3.04847
G1 X108.215 Y124.479 E3.05353
G1 X107.71 Y124.408 E3.06371
G1 X107.576 Y124.386 E3.06642
G1 X107.204 Y124.318 E3.07397
G1 X107.005 Y124.278 E3.07802
G1 X106.523 Y124.17 E3.08788
G1 X106.127 Y124.065 E3.09605
G1 X105.884 Y123.996 E3.10109
G1 X104.737 Y123.598 E3.12532
G1 X104.143 Y123.353 E3.13814
G1 X103.077 Y122.842 E3.16174
G1 X102.897 Y122.743 E3.16583
G1 X102.551 Y122.544 E3.1738
G1 X102.461 Y122.49 E3.17589
G1 X102.136 Y122.287 E3.18354
G1 X101.953 Y122.168 E3.1879
G1 X101.605 Y121.932 E3.19629
G1 X101.174 Y121.615 E3.20697
G1 X100.952 Y121.443 E3.21257
G1 X100.393 Y120.979 E3.22707
G1 X100.05 Y120.67 E3.23628
G1 X99.976 Y120.601 E3.2383
G1 X99.542 Y120.172 E3.25048
G1 X99.348 Y119.969 E3.25608
G1 X98.804 Y119.353 E3.27248
G1 X98.616 Y119.123 E3.27841
G1 X98.131 Y118.482 E3.29445
G1 X97.953 Y118.227 E3.30066
G1 X97.523 Y117.558 E3.31653
G1 X97.365 Y117.291 E3.32272
G1 X97.016 Y116.653 E3.33723
G1 X96.919 Y116.46 E3.34154
G1 X96.746 Y116.099 E3.34953
G1 X96.57 Y115.698 E3.35827
G1 X96.479 Y115.478 E3.36302
G1 X96.341 Y115.129 E3.37051
G1 X96.155 Y114.597 E3.38176
G1 X96.071 Y114.336 E3.38723
G1 X95.865 Y113.61 E3.40229
G1 X95.794 Y113.32 E3.40825
G1 X95.619 Y112.445 E3.42605
G1 X95.569 Y112.127 E3.43248
G1 X95.491 Y111.515 E3.44479
G1 X95.471 Y111.311 E3.44888
G1 X95.436 Y110.868 E3.45775
G1 X95.418 Y110.45 E3.4661
G1 X95.413 Y110.24 E3.47029
G1 X95.412 Y109.782 E3.47943
G1 X95.428 Y109.28 E3.48945
G1 X95.44 Y109.071 E3.49363
G1 X95.492 Y108.467 E3.50573
G1 X95.521 Y108.215 E3.51079
G1 X95.592 Y107.71 E3.52097
G1 X95.614 Y107.576 E3.52368
G1 X95.682 Y107.204 E3.53122
G1 X95.722 Y107.005 E3.53528
G1 X95.83 Y106.523 E3.54513
G1 X95.935 Y106.127 E3.55331
G1 X96.004 Y105.884 E3.55835
G1 X96.402 Y104.737 E3.58258
G1 X96.647 Y104.143 E3.5954
G1 X97.156 Y103.081 E3.6189
G1 X97.256 Y102.899 E3.62305
G1 X97.447 Y102.565 E3.63072
G1 X97.499 Y102.478 E3.63275
G1 X97.756 Y102.069 E3.64239
G1 X97.92 Y101.821 E3.64832
G1 X98.346 Y101.224 E3.66296
G1 X98.48 Y101.049 E3.66735
G1 X98.725 Y100.741 E3.67521
G1 X99.021 Y100.393 E3.68433
G1 X99.176 Y100.219 E3.68898
G1 X99.418 Y99.956 E3.69611
G1 X99.843 Y99.527 E3.70816
G0 F6000 X100.119 Y99.817
G1 F1200 X100.326 Y99.62 E3.71386
G1 X100.842 Y99.161 E3.72764
G1 X101.007 Y99.024 E3.73192
G1 X101.276 Y98.808 E3.73881
G1 X101.739 Y98.465 E3.75031
G1 X101.995 Y98.286 E3.75654
G1 X102.667 Y97.854 E3.77248
G1 X102.927 Y97.701 E3.7785
G1 X103.459 Y97.409 E3.79061
G1 X103.641 Y97.316 E3.79469
G1 X103.999 Y97.142 E3.80264
G1 X104.513 Y96.916 E3.81384
G1 X104.791 Y96.803 E3.81983
G1 X105.42 Y96.571 E3.83321
G1 X105.643 Y96.497 E3.8379
G1 X106.011 Y96.382 E3.84559
G1 X106.467 Y96.259 E3.85502
G1 X106.759 Y96.187 E3.86102
G1 X107.554 Y96.024 E3.87721
G1 X108.009 Y95.952 E3.88641
G1 X108.102 Y95.939 E3.88828
G1 X108.494 Y95.892 E3.89616
G1 X108.703 Y95.871 E3.90035
G1 X109.176 Y95.834 E3.90982
G1 X109.628 Y95.817 E3.91885
G1 X109.918 Y95.812 E3.92463
G1 X110.677 Y95.827 E3.93978
G1 X110.904 Y95.84 E3.94432
G1 X111.487 Y95.89 E3.956
G1 X111.739 Y95.919 E3.96106
G1 X112.226 Y95.987 E3.97087
G1 X112.36 Y96.009 E3.97358
G1 X112.717 Y96.074 E3.98082
G1 X112.916 Y96.114 E3.98488
G1 X113.38 Y96.219 E3.99437
G1 X113.764 Y96.32 E4.00229
G1 X114.007 Y96.389 E4.00733
G1 X115.097 Y96.766 E4.03035
G1 X115.691 Y97.01 E4.04317
G1 X116.858 Y97.579 E4.06908
G1 X117.127 Y97.732 E4.07525
G1 X117.71 Y98.09 E4.0889
G1 X117.958 Y98.254 E4.09484
G1 X118.584 Y98.703 E4.11021
G1 X118.807 Y98.876 E4.11584
G1 X119.343 Y99.322 E4.12976
G1 X119.673 Y99.619 E4.13862
G1 X119.746 Y99.687 E4.14061
G1 X120.168 Y100.104 E4.15245
G1 X120.362 Y100.307 E4.15805
G1 X120.885 Y100.899 E4.17382
G1 X121.073 Y101.129 E4.17974
G1 X121.529 Y101.73 E4.1948
G1 X121.707 Y101.984 E4.20099
G1 X122.147 Y102.669 E4.21724
G1 X122.301 Y102.931 E4.2233
G1 X122.624 Y103.524 E4.23678
G1 X122.751 Y103.777 E4.24243
G1 X123.076 Y104.491 E4.25808
G1 X123.184 Y104.755 E4.26377
G1 X123.436 Y105.442 E4.27838
G1 X123.531 Y105.732 E4.28447
G1 X123.737 Y106.449 E4.29935
G1 X123.81 Y106.743 E4.3054
G1 X123.989 Y107.627 E4.3234
G1 X124.036 Y107.928 E4.32948
G1 X124.108 Y108.492 E4.34082
G1 X124.129 Y108.703 E4.34506
G1 X124.161 Y109.098 E4.35296
G1 X124.184 Y109.625 E4.36349
G1 X124.189 Y109.917 E4.36932
G1 X124.175 Y110.65 E4.38395
G1 X124.163 Y110.869 E4.38833
G1 X124.112 Y111.471 E4.40038
G1 X124.082 Y111.733 E4.40565
G1 X123.976 Y112.438 E4.41987
G1 X123.915 Y112.766 E4.42653
G1 X123.79 Y113.345 E4.43835
G1 X123.685 Y113.748 E4.44666
G1 X123.617 Y113.989 E4.45166
G1 X123.228 Y115.111 E4.47536
G1 X122.982 Y115.707 E4.48822
G1 X122.434 Y116.833 E4.51321
G1 X122.282 Y117.102 E4.51938
G1 X121.955 Y117.641 E4.53196
G1 X121.84 Y117.818 E4.53617
G1 X121.633 Y118.126 E4.54358
G1 X121.297 Y118.584 E4.55492
G1 X121.124 Y118.807 E4.56055
G1 X120.678 Y119.343 E4.57446
G1 X120.381 Y119.673 E4.58332
G1 X120.313 Y119.746 E4.58531
G1 X119.896 Y120.168 E4.59715
G1 X119.693 Y120.362 E4.60276
G1 X119.156 Y120.84 E4.6171
G1 X118.819 Y121.116 E4.6258
G1 X118.747 Y121.173 E4.62763
G1 X118.261 Y121.535 E4.63972
G1 X118.005 Y121.714 E4.64596
G1 X117.333 Y122.146 E4.6619
G1 X117.073 Y122.299 E4.66792
G1 X116.462 Y122.631 E4.6818
G1 X116.208 Y122.758 E4.68746
G1 X115.505 Y123.077 E4.70287
G1 X115.231 Y123.189 E4.70878
G1 X114.572 Y123.432 E4.72279
G1 X114.345 Y123.507 E4.72756
G1 X113.989 Y123.618 E4.73501
G1 X113.533 Y123.741 E4.74443
G1 X113.241 Y123.813 E4.75043
G1 X112.446 Y123.976 E4.76663
G1 X111.991 Y124.048 E4.77582
G1 X111.898 Y124.061 E4.77769
G1 X111.506 Y124.108 E4.78557
G1 X111.297 Y124.129 E4.78977
G1 X110.824 Y124.166 E4.79923
G1 X110.372 Y124.183 E4.80826
G1 X110.082 Y124.188 E4.81405
G1 X109.323 Y124.173 E4.8292
G1 X109.096 Y124.16 E4.83373
G1 X108.513 Y124.11 E4.84541
G1 X108.261 Y124.081 E4.85047
G1 X107.774 Y124.013 E4.86029
G1 X107.64 Y123.991 E4.863
G1 X107.283 Y123.926 E4.87024
G1 X107.084 Y123.886 E4.87429
G1 X106.62 Y123.781 E4.88378
G1 X106.236 Y123.68 E4.89171
G1 X105.993 Y123.611 E4.89675
G1 X104.89 Y123.228 E4.92005
G1 X104.296 Y122.983 E4.93287
G1 X103.269 Y122.491 E4.9556
G1 X103.089 Y122.392 E4.9597
G1 X102.757 Y122.201 E4.96734
