;FLAVOR:Marlin
;TIME:27057
;Filament used: 14.9044m
;Layer height: 0.16
;MINX:19
;MINY:55
;MINZ:0.2
;MAXX:201
;MAXY:165
;MAXZ:15.8
;Generated with Creality Slicer 4.8.2-191
M140 S50
M105
M190 S50
M104 S200
M105
M109 S200
M82 ;absolute extrusion mode

G28 ;Home

G92 E0 ;Reset Extruder
G1 Z2.0 F3000 ;Move Z Axis up
G1 X10.1 Y20 Z0.28 F5000.0 ;Move to start position
G1 X10.1 Y200.0 Z0.28 F1500.0 E15 ;Draw the first line
G1 X10.4 Y200.0 Z0.28 F5000.0 ;Move to side a little
G1 X10.4 Y20 Z0.28 F1500.0 E30 ;Draw the second line
G92 E0 ;Reset Extruder
G1 Z2.0 F3000 ;Move Z Axis up

G92 E0
G92 E0
G1 F2700 E-1
;LAYER_COUNT:81
;LAYER:0
M107
G0 F6000 X28.123 Y56.216 Z0.2
;TYPE:SKIRT
G1 F2700 E0
G1 F1200 X28.996 Y55.873 E0.0312
G1 X29.895 Y55.605 E0.0624
G1 X30.437 Y55.482 E0.08088
G1 X31.049 Y55.36 E0.10164
G1 X31.343 Y55.306 E0.11158
G1 X32.155 Y55.167 E0.13898
G1 X33.085 Y55.048 E0.17017
G1 X33.701 Y55.013 E0.19069
G1 X34.02 Y55.004 E0.2013
G1 X34.33 Y55 E0.21161
G1 X185.293 Y55 E5.23266
G1 X186.147 Y55.011 E5.26107
G1 X186.622 Y55.028 E5.27688
G1 X187.175 Y55.062 E5.2953
G1 X188.108 Y55.161 E5.32651
G1 X189.029 Y55.34 E5.35772
G1 X190.203 Y55.691 E5.39847
G1 X190.96 Y55.964 E5.42524
G1 X191.52 Y56.175 E5.44514
G1 X192.317 Y56.49 E5.47364
G1 X193.173 Y56.872 E5.50482
G1 X193.994 Y57.326 E5.53603
G1 X194.773 Y57.849 E5.56723
G1 X195.504 Y58.436 E5.59841
G1 X196.378 Y59.29 E5.63906
G1 X196.971 Y59.94 E5.66832
G1 X197.405 Y60.431 E5.69012
G1 X197.858 Y60.956 E5.71318
G1 X198.44 Y61.691 E5.74436
G1 X198.957 Y62.474 E5.77557
G1 X199.406 Y63.298 E5.80678
G1 X199.783 Y64.156 E5.83795
G1 X200.169 Y65.348 E5.87962
G1 X200.407 Y66.259 E5.91094
G1 X200.545 Y66.821 E5.93019
G1 X200.705 Y67.51 E5.95371
G1 X200.878 Y68.432 E5.98492
G1 X200.986 Y69.692 E6.02698
G1 X200.996 Y70.051 E6.03892
G1 X201 Y70.357 E6.0491
G1 X200.999 Y149.427 E8.67898
G1 X200.989 Y150.147 E8.70293
G1 X200.936 Y151.083 E8.73411
G1 X200.76 Y152.232 E8.77277
G1 X200.691 Y152.564 E8.78405
G1 X200.597 Y152.977 E8.79814
G1 X200.346 Y153.983 E8.83262
G1 X200.176 Y154.633 E8.85497
G1 X199.9 Y155.53 E8.88618
G1 X199.549 Y156.399 E8.91736
G1 X199.125 Y157.236 E8.94856
G1 X198.632 Y158.033 E8.97973
G1 X197.881 Y159.015 E9.02085
G1 X197.262 Y159.734 E9.05241
G1 X196.845 Y160.202 E9.07325
G1 X196.409 Y160.68 E9.09477
G1 X195.773 Y161.323 E9.12485
G1 X195.06 Y161.933 E9.15606
G1 X194.299 Y162.48 E9.18723
G1 X193.493 Y162.96 E9.21844
G1 X192.321 Y163.507 E9.26145
G1 X191.454 Y163.849 E9.29245
G1 X190.941 Y164.043 E9.31069
G1 X190.24 Y164.298 E9.3355
G1 X189.346 Y164.581 E9.36669
G1 X188.431 Y164.787 E9.39789
G1 X187.548 Y164.909 E9.42754
G1 X187.069 Y164.949 E9.44352
G1 X186.758 Y164.968 E9.45389
G1 X186.403 Y164.983 E9.4657
G1 X185.986 Y164.995 E9.47958
G1 X185.67 Y165 E9.49009
G1 X34.55 Y164.999 E14.51636
G1 X33.848 Y164.989 E14.53971
G1 X32.912 Y164.936 E14.57089
G1 X31.998 Y164.805 E14.6016
G1 X30.967 Y164.622 E14.63643
G1 X30.485 Y164.528 E14.65277
G1 X29.573 Y164.309 E14.68396
G1 X28.683 Y164.014 E14.71515
G1 X27.822 Y163.643 E14.74633
G1 X26.995 Y163.201 E14.77752
G1 X26.483 Y162.879 E14.79763
G1 X25.668 Y162.333 E14.83026
G1 X25.234 Y162.032 E14.84783
G1 X24.657 Y161.623 E14.87135
G1 X23.915 Y161.049 E14.90255
G1 X23.226 Y160.413 E14.93374
G1 X22.593 Y159.721 E14.96493
G1 X22.021 Y158.978 E14.99612
G1 X21.358 Y157.911 E15.0379
G1 X20.882 Y157.034 E15.07109
G1 X20.618 Y156.527 E15.0901
G1 X20.306 Y155.909 E15.11313
G1 X19.92 Y155.055 E15.1443
G1 X19.607 Y154.171 E15.17549
G1 X19.371 Y153.263 E15.20669
G1 X19.22 Y152.39 E15.23616
G1 X19.137 Y151.745 E15.25779
G1 X19.078 Y151.222 E15.2753
G1 X19.013 Y150.293 E15.30627
G1 X19.004 Y149.967 E15.31712
G1 X19 Y149.663 E15.32723
G1 X19.001 Y70.549 E17.95857
G1 X19.011 Y69.852 E17.98176
G1 X19.058 Y68.988 E18.01053
G1 X19.079 Y68.763 E18.01805
G1 X19.12 Y68.391 E18.0305
G1 X19.212 Y67.671 E18.05464
G1 X19.454 Y66.385 E18.09816
G1 X19.72 Y65.486 E18.12935
G1 X20.062 Y64.612 E18.16056
G1 X20.305 Y64.097 E18.1795
G1 X20.688 Y63.338 E18.20778
G1 X21.008 Y62.729 E18.23066
G1 X21.344 Y62.11 E18.25408
G1 X21.827 Y61.306 E18.28528
G1 X22.376 Y60.545 E18.31649
G1 X22.987 Y59.835 E18.34765
G1 X23.657 Y59.178 E18.37886
G1 X24.621 Y58.405 E18.41995
G1 X25.393 Y57.856 E18.45146
G1 X25.902 Y57.507 E18.47199
G1 X26.482 Y57.12 E18.49518
G1 X27.283 Y56.633 E18.52636
G1 X28.123 Y56.216 E18.55755
G0 F6000 X28.317 Y56.568
G1 F1200 X29.175 Y56.234 E18.58817
G1 X30.058 Y55.976 E18.61877
G1 X30.515 Y55.875 E18.63434
G1 X31.127 Y55.753 E18.65509
G1 X31.41 Y55.7 E18.66467
G1 X32.222 Y55.561 E18.69207
G1 X33.136 Y55.445 E18.72271
G1 X33.712 Y55.413 E18.7419
G1 X34.031 Y55.404 E18.75251
G1 X34.33 Y55.4 E18.76246
G1 X185.293 Y55.4 E23.78351
G1 X186.141 Y55.411 E23.81172
G1 X186.599 Y55.428 E23.82696
G1 X187.15 Y55.461 E23.84532
G1 X188.065 Y55.56 E23.87593
G1 X188.968 Y55.737 E23.90653
G1 X190.067 Y56.068 E23.94471
G1 X190.983 Y56.399 E23.9771
G1 X191.531 Y56.608 E23.99661
G1 X192.169 Y56.861 E24.01944
G1 X193.01 Y57.238 E24.05009
G1 X193.814 Y57.685 E24.08069
G1 X194.577 Y58.201 E24.11132
G1 X195.292 Y58.781 E24.14195
G1 X196.083 Y59.56 E24.17887
G1 X196.672 Y60.206 E24.20795
G1 X197.102 Y60.692 E24.22953
G1 X197.555 Y61.217 E24.25259
G1 X198.126 Y61.94 E24.28324
G1 X198.632 Y62.709 E24.31385
G1 X199.069 Y63.519 E24.34446
G1 X199.434 Y64.364 E24.37508
G1 X199.782 Y65.45 E24.41301
G1 X200.019 Y66.354 E24.44409
G1 X200.155 Y66.911 E24.46316
G1 X200.315 Y67.6 E24.48669
G1 X200.484 Y68.505 E24.51731
G1 X200.586 Y69.703 E24.5573
G1 X200.596 Y70.062 E24.56924
G1 X200.6 Y70.357 E24.57906
G1 X200.599 Y149.421 E27.20874
G1 X200.589 Y150.141 E27.23269
G1 X200.536 Y151.06 E27.2633
G1 X200.368 Y152.151 E27.30002
G1 X200.299 Y152.483 E27.31129
G1 X200.209 Y152.88 E27.32483
G1 X199.959 Y153.882 E27.35918
G1 X199.789 Y154.532 E27.38153
G1 X199.518 Y155.412 E27.41215
G1 X199.171 Y156.265 E27.44278
G1 X198.752 Y157.084 E27.47338
G1 X198.263 Y157.864 E27.504
G1 X197.577 Y158.754 E27.54137
G1 X196.962 Y159.468 E27.57272
G1 X196.549 Y159.932 E27.59338
G1 X196.113 Y160.41 E27.6149
G1 X195.5 Y161.03 E27.64389
G1 X194.8 Y161.629 E27.67454
G1 X194.051 Y162.164 E27.70515
G1 X193.258 Y162.632 E27.73578
G1 X192.173 Y163.135 E27.77555
G1 X191.312 Y163.476 E27.80636
G1 X190.805 Y163.667 E27.82438
G1 X190.104 Y163.922 E27.84919
G1 X189.226 Y164.199 E27.87981
G1 X188.327 Y164.399 E27.91044
G1 X187.509 Y164.511 E27.9379
G1 X187.044 Y164.549 E27.95342
G1 X186.733 Y164.568 E27.96378
G1 X186.392 Y164.584 E27.97513
G1 X185.975 Y164.596 E27.98901
G1 X185.67 Y164.6 E27.99915
G1 X34.556 Y164.599 E33.02523
G1 X33.854 Y164.589 E33.04858
G1 X32.935 Y164.536 E33.07919
G1 X32.071 Y164.412 E33.10823
G1 X31.044 Y164.229 E33.14292
G1 X30.562 Y164.135 E33.15926
G1 X29.667 Y163.92 E33.18987
G1 X28.794 Y163.628 E33.22049
G1 X27.949 Y163.261 E33.25113
G1 X27.14 Y162.822 E33.28174
G1 X26.705 Y162.547 E33.29886
G1 X26.04 Y162.103 E33.32545
G1 X25.465 Y161.706 E33.34869
G1 X24.888 Y161.297 E33.37222
G1 X24.161 Y160.732 E33.40284
G1 X23.485 Y160.107 E33.43346
G1 X22.867 Y159.425 E33.46407
G1 X22.309 Y158.692 E33.49471
G1 X21.709 Y157.719 E33.53273
G1 X21.237 Y156.849 E33.56565
G1 X20.976 Y156.347 E33.58447
G1 X20.664 Y155.729 E33.6075
G1 X20.285 Y154.89 E33.63812
G1 X19.98 Y154.021 E33.66875
G1 X19.752 Y153.129 E33.69937
G1 X19.617 Y152.337 E33.72609
G1 X19.535 Y151.7 E33.74746
G1 X19.476 Y151.177 E33.76496
G1 X19.413 Y150.282 E33.7948
G1 X19.404 Y149.956 E33.80565
G1 X19.4 Y149.663 E33.8154
G1 X19.401 Y70.555 E36.44654
G1 X19.411 Y69.858 E36.46972
G1 X19.456 Y69.025 E36.49747
G1 X19.477 Y68.8 E36.50499
G1 X19.516 Y68.441 E36.517
G1 X19.608 Y67.721 E36.54114
G1 X19.842 Y66.482 E36.58308
G1 X20.104 Y65.599 E36.61371
G1 X20.442 Y64.743 E36.64432
G1 X20.663 Y64.278 E36.66144
G1 X21.131 Y63.353 E36.69592
G1 X21.36 Y62.92 E36.71221
G1 X21.696 Y62.301 E36.73564
G1 X22.17 Y61.512 E36.76625
G1 X22.711 Y60.767 E36.79688
G1 X23.314 Y60.071 E36.82751
G1 X23.975 Y59.431 E36.85811
G1 X24.853 Y58.731 E36.89545
G1 X25.62 Y58.185 E36.92677
G1 X26.124 Y57.84 E36.94708
G1 X26.704 Y57.453 E36.97027
G1 X27.491 Y56.975 E37.0009
G1 X28.317 Y56.568 E37.03153
G0 F6000 X28.509 Y56.921
G1 F1200 X29.352 Y56.596 E37.06158
G1 X30.593 Y56.267 E37.10428
G1 X31.205 Y56.145 E37.12503
G1 X31.478 Y56.094 E37.13427
G1 X32.29 Y55.955 E37.16167
G1 X33.186 Y55.842 E37.19171
G1 X33.723 Y55.813 E37.20959
G1 X34.042 Y55.804 E37.22021
G1 X34.33 Y55.8 E37.22979
G1 X185.293 Y55.8 E42.25084
G1 X186.136 Y55.811 E42.27888
G1 X186.576 Y55.827 E42.29352
G1 X187.124 Y55.86 E42.31178
G1 X188.022 Y55.958 E42.34183
G1 X188.908 Y56.134 E42.37187
G1 X189.931 Y56.444 E42.40742
G1 X190.841 Y56.773 E42.43961
G1 X191.384 Y56.98 E42.45894
G1 X192.022 Y57.233 E42.48176
G1 X192.846 Y57.603 E42.51181
G1 X193.634 Y58.044 E42.54184
G1 X194.38 Y58.553 E42.57188
G1 X195.078 Y59.127 E42.60194
G1 X195.788 Y59.83 E42.63517
G1 X196.373 Y60.472 E42.66406
G1 X196.8 Y60.954 E42.68547
G1 X197.253 Y61.479 E42.70854
G1 X197.812 Y62.188 E42.73857
G1 X198.306 Y62.944 E42.7686
G1 X198.731 Y63.74 E42.79862
G1 X199.085 Y64.571 E42.82866
G1 X199.396 Y65.551 E42.86285
G1 X199.594 Y66.305 E42.88878
G1 X199.766 Y67.002 E42.91266
G1 X199.926 Y67.691 E42.93619
G1 X200.091 Y68.579 E42.96623
G1 X200.186 Y69.714 E43.00411
G1 X200.196 Y70.073 E43.01605
G1 X200.2 Y70.357 E43.0255
G1 X200.199 Y149.416 E45.65501
G1 X200.189 Y150.136 E45.67896
G1 X200.137 Y151.037 E45.70898
G1 X199.977 Y152.07 E45.74375
G1 X199.908 Y152.402 E45.75503
G1 X199.82 Y152.784 E45.76807
G1 X199.572 Y153.781 E45.80224
G1 X199.402 Y154.431 E45.82458
G1 X199.135 Y155.294 E45.85463
G1 X198.793 Y156.129 E45.88464
G1 X198.378 Y156.932 E45.9147
G1 X197.894 Y157.694 E45.94473
G1 X197.274 Y158.494 E45.97839
G1 X196.771 Y159.08 E46.00408
G1 X196.254 Y159.663 E46.02999
G1 X195.818 Y160.141 E46.05151
G1 X195.227 Y160.738 E46.07945
G1 X194.54 Y161.324 E46.10949
G1 X193.804 Y161.847 E46.13952
G1 X193.024 Y162.304 E46.16958
G1 X192.026 Y162.763 E46.20612
G1 X191.169 Y163.102 E46.23677
G1 X190.668 Y163.291 E46.25458
G1 X189.967 Y163.546 E46.27939
G1 X189.105 Y163.817 E46.30945
G1 X188.223 Y164.011 E46.33948
G1 X187.47 Y164.113 E46.36476
G1 X187.02 Y164.15 E46.37977
G1 X186.709 Y164.169 E46.39014
G1 X186.38 Y164.184 E46.40109
G1 X185.963 Y164.196 E46.41497
G1 X185.67 Y164.2 E46.42471
G1 X34.562 Y164.199 E51.45059
G1 X33.86 Y164.189 E51.47394
G1 X32.958 Y164.136 E51.50399
G1 X32.144 Y164.019 E51.53134
G1 X31.121 Y163.836 E51.56591
G1 X30.639 Y163.742 E51.58224
G1 X29.761 Y163.53 E51.61228
G1 X28.905 Y163.242 E51.64232
G1 X28.078 Y162.878 E51.67237
G1 X26.927 Y162.214 E51.71657
G1 X26.262 Y161.77 E51.74316
G1 X25.696 Y161.379 E51.76604
G1 X25.119 Y160.97 E51.78957
G1 X24.406 Y160.416 E51.8196
G1 X23.745 Y159.801 E51.84963
G1 X23.141 Y159.13 E51.87966
G1 X22.599 Y158.407 E51.90971
G1 X22.061 Y157.528 E51.94399
G1 X21.591 Y156.663 E51.97673
G1 X21.333 Y156.167 E51.99532
G1 X21.021 Y155.549 E52.01835
G1 X20.65 Y154.725 E52.04841
G1 X20.353 Y153.872 E52.07845
G1 X20.133 Y152.997 E52.10846
G1 X20.013 Y152.285 E52.13247
G1 X19.955 Y151.845 E52.14723
G1 X19.873 Y151.132 E52.1711
G1 X19.813 Y150.27 E52.19984
G1 X19.804 Y149.944 E52.21069
G1 X19.8 Y149.663 E52.22004
G1 X19.801 Y70.561 E54.85098
G1 X19.811 Y69.864 E54.87416
G1 X19.854 Y69.062 E54.90088
G1 X19.875 Y68.837 E54.90839
G1 X19.913 Y68.492 E54.91994
G1 X20.005 Y67.772 E54.94408
G1 X20.231 Y66.579 E54.98446
G1 X20.488 Y65.714 E55.01448
G1 X20.821 Y64.874 E55.04453
G1 X21.02 Y64.458 E55.05987
G1 X21.485 Y63.54 E55.0941
G1 X21.712 Y63.111 E55.11024
G1 X22.048 Y62.492 E55.13366
G1 X22.513 Y61.718 E55.1637
G1 X23.045 Y60.988 E55.19374
G1 X23.64 Y60.309 E55.22377
G1 X24.292 Y59.684 E55.25381
G1 X25.086 Y59.056 E55.28748
G1 X25.708 Y58.612 E55.3129
G1 X26.346 Y58.172 E55.33867
G1 X26.926 Y57.785 E55.36186
G1 X27.698 Y57.318 E55.39187
G1 X28.509 Y56.921 E55.4219
G1 F2700 E54.4219
;MESH:landscape.stl
G0 F6000 X78.591 Y92.359
G0 X78.653 Y82.653
G0 X80.347 Y82.653
G0 X80.408 Y93.644
G0 X94.591 Y103.68
G0 X94.653 Y82.653
G0 X96.347 Y82.653
G0 X96.408 Y104.966
G0 X110.591 Y115.003
G0 X110.653 Y141.347
G0 X112.347 Y141.347
G0 X112.407 Y116.288
G0 X124.254 Y124.672
G0 X122.558 Y125.434
G0 X126.252 Y129.477
G0 X127.914 Y131
;TYPE:WALL-INNER
G1 F2700 E55.4219
G1 F1200 X130.086 Y131 E55.49415
G1 X132.1 Y129.924 E55.57009
G1 X133.822 Y127.996 E55.65607
G1 X135.268 Y125.356 E55.75619
G1 X136.434 Y122.102 E55.87115
G1 X137.293 Y118.357 E55.99895
G1 X137.822 Y114.266 E56.13615
G1 X138 Y110 E56.27816
G1 X137.822 Y105.734 E56.42017
G1 X137.293 Y101.643 E56.55737
G1 X136.434 Y97.898 E56.68516
G1 X135.268 Y94.644 E56.80013
G1 X133.822 Y92.004 E56.90025
G1 X132.1 Y90.076 E56.98623
G1 X130.086 Y89 E57.06217
G1 X127.914 Y89 E57.13441
G1 X125.9 Y90.076 E57.21036
G1 X124.178 Y92.004 E57.29634
G1 X122.732 Y94.644 E57.39645
G1 X121.566 Y97.898 E57.51142
G1 X120.707 Y101.643 E57.63921
G1 X120.178 Y105.734 E57.77641
G1 X120 Y110 E57.91843
G1 X120.178 Y114.266 E58.06044
G1 X120.707 Y118.357 E58.19764
G1 X121.566 Y122.102 E58.32543
G1 X122.732 Y125.356 E58.4404
G1 X124.178 Y127.996 E58.54051
G1 X125.9 Y129.924 E58.62649
G1 X127.914 Y131 E58.70244
G0 F6000 X128.014 Y130.6
G1 F1200 X129.986 Y130.6 E58.76803
G1 X131.849 Y129.605 E58.83827
G1 X133.493 Y127.764 E58.92037
G1 X134.902 Y125.191 E59.01794
G1 X136.049 Y121.989 E59.13106
G1 X136.899 Y118.286 E59.25743
G1 X137.423 Y114.232 E59.39339
G1 X137.6 Y110 E59.53427
G1 X137.423 Y105.768 E59.67515
G1 X136.899 Y101.714 E59.8111
G1 X136.049 Y98.011 E59.93747
G1 X134.902 Y94.809 E60.0506
G1 X133.493 Y92.236 E60.14817
G1 X131.849 Y90.395 E60.23026
G1 X129.986 Y89.4 E60.30051
G1 X128.014 Y89.4 E60.36609
G1 X126.151 Y90.395 E60.43634
G1 X124.507 Y92.236 E60.51843
G1 X123.098 Y94.809 E60.616
G1 X121.951 Y98.011 E60.72913
G1 X121.101 Y101.714 E60.8555
G1 X120.577 Y105.768 E60.99145
G1 X120.4 Y110 E61.13233
G1 X120.577 Y114.232 E61.27321
G1 X121.101 Y118.286 E61.40917
G1 X121.951 Y121.989 E61.53554
G1 X123.098 Y125.191 E61.64866
G1 X124.507 Y127.764 E61.74623
G1 X126.151 Y129.605 E61.82832
G1 X128.014 Y130.6 E61.89857
G0 F6000 X128.114 Y130.2
;TYPE:WALL-OUTER
G1 F1200 X129.886 Y130.2 E61.95751
G1 X131.598 Y129.286 E62.02206
G1 X133.164 Y127.532 E62.10026
G1 X134.536 Y125.027 E62.19526
G1 X135.664 Y121.876 E62.30657
G1 X136.505 Y118.215 E62.43151
G1 X137.024 Y114.198 E62.56623
G1 X137.2 Y110 E62.70598
G1 X137.024 Y105.802 E62.84572
G1 X136.505 Y101.785 E62.98044
G1 X135.664 Y98.124 E63.10538
G1 X134.536 Y94.973 E63.21669
G1 X133.164 Y92.468 E63.31169
G1 X131.598 Y90.714 E63.3899
G1 X129.886 Y89.8 E63.45444
G1 X128.114 Y89.8 E63.51338
G1 X126.402 Y90.714 E63.57793
G1 X124.836 Y92.468 E63.65613
G1 X123.464 Y94.973 E63.75113
G1 X122.336 Y98.124 E63.86245
G1 X121.495 Y101.785 E63.98738
G1 X120.976 Y105.802 E64.1221
G1 X120.8 Y110 E64.26185
G1 X120.976 Y114.198 E64.4016
G1 X121.495 Y118.215 E64.53631
G1 X122.336 Y121.876 E64.66125
G1 X123.464 Y125.027 E64.77256
G1 X124.836 Y127.532 E64.86756
G1 X126.402 Y129.286 E64.94577
G1 X128.114 Y130.2 E65.01031
G0 F6000 X128.008 Y130.626
G1 F2700 E64.01031
G0 F6000 X129.105 Y130.52
G0 X132.22 Y130.077
G0 X131.057 Y128.595
G0 X150.943 Y128.595
G0 X149.78 Y130.077
G0 X151.914 Y131
;TYPE:WALL-INNER
G1 F2700 E65.01031
G1 F1200 X154.086 Y131 E65.08256
G1 X156.1 Y129.924 E65.1585
G1 X157.822 Y127.996 E65.24448
G1 X159.268 Y125.356 E65.3446
G1 X160.434 Y122.102 E65.45956
G1 X161.293 Y118.357 E65.58736
G1 X161.822 Y114.266 E65.72456
G1 X162 Y110 E65.86657
G1 X161.822 Y105.734 E66.00858
G1 X161.293 Y101.643 E66.14578
G1 X160.434 Y97.898 E66.27357
G1 X159.268 Y94.644 E66.38854
G1 X157.822 Y92.004 E66.48866
G1 X156.1 Y90.076 E66.57463
G1 X154.086 Y89 E66.65058
G1 X151.914 Y89 E66.72282
G1 X149.9 Y90.076 E66.79877
G1 X148.178 Y92.004 E66.88475
G1 X146.732 Y94.644 E66.98486
G1 X145.566 Y97.898 E67.09983
G1 X144.707 Y101.643 E67.22762
G1 X144.178 Y105.734 E67.36482
G1 X144 Y110 E67.50684
G1 X144.178 Y114.266 E67.64885
G1 X144.707 Y118.357 E67.78605
G1 X145.566 Y122.102 E67.91384
G1 X146.732 Y125.356 E68.02881
G1 X148.178 Y127.996 E68.12892
