;FLAVOR:Marlin
;TIME:11612
;Filament used: 10.397m
;Layer height: 0.28
;MINX:29
;MINY:-6
;MINZ:0.28
;MAXX:191
;MAXY:226
;MAXZ:7.84
;Generated with Creality Slicer 4.8.2-191
M140 S50
M105
M190 S50
M104 S200
M105
M109 S200
M82 ;absolute extrusion mode

G28 ;Home

G92 E0 ;Reset Extruder
G1 Z2.0 F3000 ;Move Z Axis up
G1 X10.1 Y20 Z0.28 F5000.0 ;Move to start position
G1 X10.1 Y200.0 Z0.28 F1500.0 E15 ;Draw the first line
G1 X10.4 Y200.0 Z0.28 F5000.0 ;Move to side a little
G1 X10.4 Y20 Z0.28 F1500.0 E30 ;Draw the second line
G92 E0 ;Reset Extruder
G1 Z2.0 F3000 ;Move Z Axis up

G92 E0
G92 E0
G1 F2700 E-5
;LAYER_COUNT:28
;LAYER:0
M107
G0 F6000 X29.063 Y3.924 Z0.28
;TYPE:SKIRT
G1 F2700 E0
G1 F1200 X29.195 Y2.995 E0.04369
G1 X29.406 Y2.081 E0.08737
G1 X29.694 Y1.189 E0.13102
G1 X30.057 Y0.324 E0.1747
G1 X30.492 Y-.507 E0.21837
G1 X30.996 Y-1.297 E0.26201
G1 X31.566 Y-2.042 E0.30569
G1 X32.198 Y-2.736 E0.3494
G1 X32.886 Y-3.373 E0.39305
G1 X33.626 Y-3.949 E0.43672
G1 X34.412 Y-4.461 E0.4804
G1 X35.239 Y-4.903 E0.52406
G1 X36.101 Y-5.273 E0.56774
G1 X36.991 Y-5.569 E0.61142
G1 X37.903 Y-5.787 E0.65508
G1 X38.83 Y-5.928 E0.69874
G1 X39.701 Y-5.987 E0.73939
G1 X40.022 Y-5.996 E0.75434
G1 X40.33 Y-6 E0.76869
G1 X127.521 Y-6 E4.82867
G1 X129.39 Y-5.993 E4.9157
G1 X130.276 Y-6 E4.95695
G1 X179.451 Y-5.999 E7.24675
G1 X180.149 Y-5.989 E7.27925
G1 X181.085 Y-5.935 E7.32291
G1 X182.013 Y-5.803 E7.36655
G1 X182.927 Y-5.591 E7.41024
G1 X183.819 Y-5.302 E7.4539
G1 X184.684 Y-4.939 E7.49759
G1 X185.514 Y-4.503 E7.54124
G1 X186.305 Y-3.998 E7.58494
G1 X187.049 Y-3.427 E7.62861
G1 X187.742 Y-2.795 E7.67228
G1 X188.379 Y-2.107 E7.71594
G1 X188.954 Y-1.366 E7.75962
G1 X189.465 Y-.58 E7.80327
G1 X189.907 Y0.248 E7.84698
G1 X190.276 Y1.11 E7.89064
G1 X190.571 Y2 E7.9343
G1 X190.789 Y2.912 E7.97796
G1 X190.929 Y3.84 E8.02166
G1 X190.987 Y4.701 E8.06184
G1 X190.996 Y5.021 E8.07675
G1 X191 Y5.33 E8.09114
G1 X191 Y108.521 E12.89614
G1 X190.993 Y110.351 E12.98136
G1 X191 Y111.276 E13.02443
G1 X190.999 Y214.4 E17.82632
G1 X190.99 Y215.127 E17.86017
G1 X190.939 Y216.064 E17.90387
G1 X190.807 Y216.992 E17.94751
G1 X190.598 Y217.906 E17.99117
G1 X190.311 Y218.799 E18.03485
G1 X189.949 Y219.665 E18.07855
G1 X189.515 Y220.496 E18.12221
G1 X189.011 Y221.287 E18.16588
G1 X188.442 Y222.032 E18.20953
G1 X187.811 Y222.727 E18.25324
G1 X187.124 Y223.365 E18.2969
G1 X186.385 Y223.942 E18.34056
G1 X185.599 Y224.454 E18.38424
G1 X184.773 Y224.897 E18.42788
G1 X183.911 Y225.269 E18.4716
G1 X183.022 Y225.565 E18.51523
G1 X182.11 Y225.785 E18.55891
G1 X181.183 Y225.926 E18.60257
G1 X180.299 Y225.987 E18.64383
G1 X179.978 Y225.996 E18.65879
G1 X179.67 Y226 E18.67313
G1 X130.479 Y226 E20.96367
G1 X128.61 Y225.993 E21.0507
G1 X127.724 Y226 E21.09195
G1 X40.565 Y225.999 E25.15044
G1 X39.867 Y225.99 E25.18295
G1 X38.931 Y225.938 E25.2266
G1 X38.002 Y225.806 E25.27029
G1 X37.088 Y225.596 E25.31396
G1 X36.195 Y225.309 E25.35764
G1 X35.33 Y224.946 E25.40132
G1 X34.499 Y224.512 E25.44497
G1 X33.708 Y224.008 E25.48864
G1 X32.963 Y223.438 E25.53232
G1 X32.269 Y222.807 E25.576
G1 X31.632 Y222.12 E25.61962
G1 X31.055 Y221.38 E25.66332
G1 X30.543 Y220.594 E25.707
G1 X30.1 Y219.767 E25.75068
G1 X29.729 Y218.906 E25.79434
G1 X29.433 Y218.016 E25.83801
G1 X29.214 Y217.104 E25.88169
G1 X29.073 Y216.177 E25.92535
G1 X29.013 Y215.288 E25.96684
G1 X29.004 Y214.955 E25.98235
G1 X29 Y214.658 E25.99618
G1 X29 Y111.479 E30.80063
G1 X29.007 Y109.649 E30.88584
G1 X29 Y108.724 E30.92891
G1 X29.001 Y5.525 E35.73429
G1 X29.01 Y4.86 E35.76526
G1 X29.063 Y3.924 E35.80891
G0 F6000 X29.462 Y3.946
G1 F1200 X29.594 Y3.035 E35.85178
G1 X29.805 Y2.139 E35.89464
G1 X30.092 Y1.264 E35.93752
G1 X30.455 Y0.418 E35.98038
G1 X30.889 Y-.394 E36.02326
G1 X31.392 Y-1.165 E36.06612
G1 X31.961 Y-1.889 E36.109
G1 X32.589 Y-2.561 E36.15183
G1 X33.274 Y-3.177 E36.19473
G1 X34.01 Y-3.73 E36.23759
G1 X34.791 Y-4.218 E36.28047
G1 X35.611 Y-4.636 E36.32333
G1 X36.465 Y-4.981 E36.36622
G1 X37.345 Y-5.251 E36.40908
G1 X38.245 Y-5.443 E36.45193
G1 X39.159 Y-5.557 E36.49482
G1 X39.712 Y-5.587 E36.52061
G1 X40.033 Y-5.596 E36.53556
G1 X40.33 Y-5.6 E36.54939
G1 X127.52 Y-5.6 E40.60933
G1 X129.392 Y-5.593 E40.69649
G1 X130.279 Y-5.6 E40.7378
G1 X179.445 Y-5.599 E43.02717
G1 X180.143 Y-5.589 E43.05968
G1 X181.062 Y-5.536 E43.10254
G1 X181.973 Y-5.403 E43.14541
G1 X182.869 Y-5.192 E43.18827
G1 X183.743 Y-4.904 E43.23112
G1 X184.59 Y-4.541 E43.27403
G1 X185.401 Y-4.106 E43.31689
G1 X186.171 Y-3.602 E43.35974
G1 X186.895 Y-3.033 E43.40262
G1 X187.567 Y-2.403 E43.44551
G1 X188.182 Y-1.718 E43.48837
G1 X188.735 Y-.982 E43.53124
G1 X189.222 Y-.201 E43.5741
G1 X189.639 Y0.62 E43.61698
G1 X189.984 Y1.474 E43.65986
G1 X190.253 Y2.354 E43.70271
G1 X190.445 Y3.255 E43.74561
G1 X190.558 Y4.168 E43.78845
G1 X190.587 Y4.712 E43.81381
G1 X190.596 Y5.032 E43.82872
G1 X190.6 Y5.33 E43.8426
G1 X190.6 Y108.52 E48.64755
G1 X190.593 Y110.354 E48.73295
G1 X190.6 Y111.279 E48.77603
G1 X190.599 Y214.395 E53.57754
G1 X190.59 Y215.122 E53.61139
G1 X190.539 Y216.041 E53.65425
G1 X190.408 Y216.953 E53.69716
G1 X190.198 Y217.849 E53.74001
G1 X189.912 Y218.724 E53.78287
G1 X189.551 Y219.571 E53.82575
G1 X189.117 Y220.383 E53.86862
G1 X188.615 Y221.155 E53.9115
G1 X188.047 Y221.88 E53.95438
G1 X187.419 Y222.553 E53.99724
G1 X186.735 Y223.169 E54.04011
G1 X186 Y223.723 E54.08296
G1 X185.22 Y224.212 E54.12583
G1 X184.4 Y224.631 E54.16871
G1 X183.547 Y224.977 E54.21157
G1 X182.667 Y225.248 E54.25445
G1 X181.767 Y225.441 E54.29731
G1 X180.853 Y225.556 E54.3402
G1 X180.288 Y225.587 E54.36655
G1 X179.967 Y225.596 E54.38151
G1 X179.67 Y225.6 E54.39534
G1 X130.48 Y225.6 E56.68583
G1 X128.608 Y225.593 E56.773
G1 X127.721 Y225.6 E56.8143
G1 X40.57 Y225.599 E60.87242
G1 X39.872 Y225.59 E60.90492
G1 X38.953 Y225.538 E60.94778
G1 X38.042 Y225.407 E60.99064
G1 X37.146 Y225.197 E61.03349
G1 X36.271 Y224.91 E61.07637
G1 X35.424 Y224.548 E61.11926
G1 X34.612 Y224.114 E61.16213
G1 X33.841 Y223.612 E61.20497
G1 X33.116 Y223.044 E61.24786
G1 X32.443 Y222.415 E61.29075
G1 X31.828 Y221.731 E61.33358
G1 X31.274 Y220.996 E61.37644
G1 X30.786 Y220.215 E61.41932
G1 X30.367 Y219.395 E61.4622
G1 X30.021 Y218.542 E61.50506
G1 X29.751 Y217.662 E61.54793
G1 X29.558 Y216.761 E61.59083
G1 X29.444 Y215.848 E61.63368
G1 X29.413 Y215.277 E61.6603
G1 X29.404 Y214.944 E61.67581
G1 X29.4 Y214.658 E61.68913
G1 X29.4 Y111.48 E66.49353
G1 X29.407 Y109.646 E66.57893
G1 X29.4 Y108.721 E66.62201
G1 X29.401 Y5.531 E71.42696
G1 X29.41 Y4.866 E71.45793
G1 X29.462 Y3.946 E71.50084
G0 F6000 X29.862 Y3.969
G1 F1200 X29.994 Y3.076 E71.54287
G1 X30.204 Y2.198 E71.58491
G1 X30.491 Y1.341 E71.62699
G1 X30.853 Y0.514 E71.66903
G1 X31.286 Y-.278 E71.71106
G1 X31.788 Y-1.029 E71.75312
G1 X32.355 Y-1.733 E71.79521
G1 X32.981 Y-2.383 E71.83724
G1 X33.662 Y-2.976 E71.87928
G1 X34.394 Y-3.506 E71.92136
G1 X35.169 Y-3.969 E71.9634
G1 X35.982 Y-4.362 E72.00545
G1 X36.827 Y-4.682 E72.04752
G1 X37.696 Y-4.925 E72.08954
G1 X38.584 Y-5.091 E72.1316
G1 X39.723 Y-5.187 E72.18483
G1 X40.044 Y-5.196 E72.19978
G1 X40.33 Y-5.2 E72.2131
G1 X127.519 Y-5.2 E76.27299
G1 X129.394 Y-5.193 E76.36029
G1 X130.282 Y-5.2 E76.40164
G1 X179.439 Y-5.199 E78.6906
G1 X180.137 Y-5.189 E78.72311
G1 X181.039 Y-5.136 E78.76518
G1 X181.932 Y-5.004 E78.80721
G1 X182.81 Y-4.793 E78.84926
G1 X183.666 Y-4.505 E78.89131
G1 X184.493 Y-4.143 E78.93335
G1 X185.285 Y-3.708 E78.97543
G1 X186.036 Y-3.206 E79.01749
G1 X186.739 Y-2.639 E79.05954
G1 X187.389 Y-2.012 E79.1016
G1 X187.981 Y-1.33 E79.14365
G1 X188.511 Y-.599 E79.18569
G1 X188.973 Y0.177 E79.22775
G1 X189.366 Y0.99 E79.26979
G1 X189.684 Y1.835 E79.31183
G1 X189.927 Y2.705 E79.35389
G1 X190.092 Y3.593 E79.39595
G1 X190.187 Y4.723 E79.44875
G1 X190.196 Y5.043 E79.46366
G1 X190.2 Y5.33 E79.47703
G1 X190.2 Y108.519 E84.28194
G1 X190.193 Y110.357 E84.36752
G1 X190.2 Y111.282 E84.4106
G1 X190.199 Y214.39 E89.21174
G1 X190.19 Y215.117 E89.24559
G1 X190.139 Y216.019 E89.28766
G1 X190.008 Y216.913 E89.32973
G1 X189.799 Y217.791 E89.37176
G1 X189.513 Y218.648 E89.41383
G1 X189.152 Y219.476 E89.45589
G1 X188.72 Y220.268 E89.4979
G1 X188.219 Y221.02 E89.53997
G1 X187.653 Y221.724 E89.58203
G1 X187.028 Y222.375 E89.62406
G1 X186.347 Y222.969 E89.66613
G1 X185.616 Y223.5 E89.70821
G1 X184.842 Y223.964 E89.75023
G1 X184.029 Y224.358 E89.79229
G1 X183.185 Y224.678 E89.83432
G1 X182.315 Y224.923 E89.87641
G1 X181.428 Y225.089 E89.91843
G1 X180.277 Y225.187 E89.97222
G1 X179.956 Y225.196 E89.98717
G1 X179.67 Y225.2 E90.00049
G1 X130.481 Y225.2 E92.29094
G1 X128.606 Y225.193 E92.37825
G1 X127.718 Y225.2 E92.4196
G1 X40.575 Y225.199 E96.47734
G1 X39.877 Y225.19 E96.50984
G1 X38.976 Y225.139 E96.55187
G1 X38.082 Y225.007 E96.59394
G1 X37.204 Y224.798 E96.63597
G1 X36.347 Y224.511 E96.67805
G1 X35.52 Y224.15 E96.72007
G1 X34.727 Y223.717 E96.76214
G1 X33.976 Y223.216 E96.80418
G1 X33.272 Y222.65 E96.84624
G1 X32.621 Y222.024 E96.8883
G1 X32.028 Y221.343 E96.93034
G1 X31.498 Y220.612 E96.97239
G1 X31.034 Y219.837 E97.01445
G1 X30.64 Y219.024 E97.05652
G1 X30.32 Y218.18 E97.09855
G1 X30.076 Y217.31 E97.14062
G1 X29.91 Y216.422 E97.18269
G1 X29.813 Y215.267 E97.23666
G1 X29.804 Y214.934 E97.25217
G1 X29.8 Y214.658 E97.26502
G1 X29.8 Y111.481 E102.06937
G1 X29.807 Y109.643 E102.15496
G1 X29.8 Y108.718 E102.19803
G1 X29.801 Y5.536 E107.00262
G1 X29.81 Y4.871 E107.03359
G1 X29.862 Y3.969 E107.07566
G1 F2700 E102.07566
;MESH:half-body-bottom.stl
G0 F6000 X39.347 Y109.653
G0 X40.414 Y110.335
G0 X40.414 Y111.414
G0 X83.428 Y112.572
G0 X84.572 Y162.428
G0 X120.6 Y162.6
;TYPE:WALL-INNER
G1 F2700 E107.07566
G1 F1200 X120.6 Y112.4 E109.41318
G1 X84.4 Y112.4 E111.0988
G1 X84.4 Y162.6 E113.43633
G1 X120.6 Y162.6 E115.12195
G0 F6000 X120.2 Y162.2
;TYPE:WALL-OUTER
G1 F1200 X120.2 Y112.8 E117.42222
G1 X84.8 Y112.8 E119.07059
G1 X84.8 Y162.2 E121.37086
G1 X120.2 Y162.2 E123.01924
G1 F2700 E118.01924
G0 F6000 X120.5 Y162.2
G0 X83.6 Y162.6
;TYPE:WALL-INNER
G1 F2700 E123.01924
G1 F1200 X83.6 Y112.4 E125.35676
G1 X47.4 Y112.4 E127.04238
G1 X47.4 Y162.6 E129.3799
G1 X83.6 Y162.6 E131.06553
G0 F6000 X83.2 Y162.2
;TYPE:WALL-OUTER
G1 F1200 X83.2 Y112.8 E133.3658
G1 X47.8 Y112.8 E135.01417
G1 X47.8 Y162.2 E137.31444
G1 X83.2 Y162.2 E138.96281
G1 F2700 E133.96281
G0 F6000 X83.5 Y162.2
G0 X83.6 Y213.6
;TYPE:WALL-INNER
G1 F2700 E138.96281
G1 F1200 X83.6 Y163.4 E141.30034
G1 X47.4 Y163.4 E142.98596
G1 X47.4 Y213.6 E145.32348
G1 X83.6 Y213.6 E147.00911
G0 F6000 X83.2 Y213.2
;TYPE:WALL-OUTER
G1 F1200 X83.2 Y163.8 E149.30938
G1 X47.8 Y163.8 E150.95775
G1 X47.8 Y213.2 E153.25802
G1 X83.2 Y213.2 E154.90639
G1 F2700 E149.90639
G0 F6000 X83.5 Y213.2
G0 X84.464 Y213.405
G0 X120.6 Y213.6
;TYPE:WALL-INNER
G1 F2700 E154.90639
G1 F1200 X120.6 Y163.4 E157.24392
G1 X84.4 Y163.4 E158.92954
G1 X84.4 Y213.6 E161.26706
G1 X120.6 Y213.6 E162.95268
G0 F6000 X120.2 Y213.2
;TYPE:WALL-OUTER
G1 F1200 X120.2 Y163.8 E165.25296
G1 X84.8 Y163.8 E166.90133
G1 X84.8 Y213.2 E169.2016
G1 X120.2 Y213.2 E170.84997
G1 F2700 E165.84997
G0 F6000 X120.5 Y213.2
G0 X47.572 Y213.428
G0 X46.2 Y213.2
;TYPE:WALL-INNER
G1 F2700 E170.84997
G1 F1200 X41.8 Y213.2 E171.05485
G1 X41.8 Y112.8 E175.7299
G1 X46.2 Y112.8 E175.93478
G1 X46.2 Y213.2 E180.60983
G0 F6000 X46.6 Y213.6
G1 F1200 X41.4 Y213.6 E180.85196
G1 X41.4 Y112.4 E185.56426
G1 X46.6 Y112.4 E185.80639
G1 X46.6 Y213.6 E190.51868
G1 F2700 E185.51868
G0 F6000 X120.428 Y213.428
G0 X126.2 Y213.2
G1 F2700 E190.51868
G1 F1200 X121.8 Y213.2 E190.72357
G1 X121.8 Y112.8 E195.39861
G1 X126.2 Y112.8 E195.60349
G1 X126.2 Y213.2 E200.27854
G0 F6000 X126.6 Y213.6
G1 F1200 X121.4 Y213.6 E200.52067
G1 X121.4 Y112.4 E205.23297
G1 X126.6 Y112.4 E205.4751
G1 X126.6 Y213.6 E210.1874
G0 F6000 X127 Y214
G1 F1200 X121 Y214 E210.46678
G1 X121 Y112 E215.21633
G1 X47 Y112
G1 X47 Y214 E219.96588
G1 X41 Y214 E220.24526
G1 X41 Y112 E224.99481
G1 X47 Y112 E225.2742
G1 X121 Y112 E228.71995
G1 X127 Y112 E228.99933
G1 X127 Y214 E233.74888
G0 F6000 X127.4 Y214.4
G1 F1200 X40.6 Y214.4 E237.79065
G1 X40.6 Y111.6 E242.57745
G1 X127.4 Y111.6 E246.61922
G1 X127.4 Y214.4 E251.40602
G0 F6000 X127.8 Y214.8
;TYPE:WALL-OUTER
G1 F1200 X40.2 Y214.8 E255.48504
G1 X40.2 Y111.2 E260.30909
G1 X127.8 Y111.2 E264.38811
G1 X127.8 Y214.8 E269.21216
G0 F6000 X127.53 Y214.53
G0 X126.09 Y212.81
G0 X125.81 Y212.81
;TYPE:SKIN
G1 F1200 X122.19 Y212.81 E269.38073
G1 X122.19 Y113.19 E274.01945
G1 X125.81 Y113.19 E274.18801
G1 X125.81 Y212.81 E278.82674
G0 F6000 X126.09 Y212.81
G0 X122.704 Y213.09
G0 X122.704 Y212.648
G1 F1200 X122.349 Y212.293 E278.85012
G0 F6000 X122.349 Y211.727
G1 F1200 X123.27 Y212.648 E278.91076
G0 F6000 X123.836 Y212.648
G1 F1200 X122.349 Y211.161 E279.00869
G0 F6000 X122.349 Y210.596
G1 F1200 X124.402 Y212.648 E279.14385
G0 F6000 X124.967 Y212.648
G1 F1200 X122.349 Y210.03 E279.31625
G0 F6000 X122.349 Y209.464
G1 F1200 X125.533 Y212.648 E279.52592
G0 F6000 X125.65 Y212.199
G1 F1200 X122.349 Y208.899 E279.74326
G0 F6000 X122.349 Y208.333
G1 F1200 X125.65 Y211.634 E279.96064
G0 F6000 X125.65 Y211.068
G1 F1200 X122.349 Y207.767 E280.17802
G0 F6000 X122.349 Y207.202
G1 F1200 X125.65 Y210.502 E280.39536
G0 F6000 X125.65 Y209.937
G1 F1200 X122.349 Y206.636 E280.61274
G0 F6000 X122.349 Y206.07
G1 F1200 X125.65 Y209.371 E280.83011
G0 F6000 X125.65 Y208.805
G1 F1200 X122.349 Y205.505 E281.04746
G0 F6000 X122.349 Y204.939
G1 F1200 X125.65 Y208.24 E281.26483
G0 F6000 X125.65 Y207.674
G1 F1200 X122.349 Y204.373 E281.48221
G0 F6000 X122.349 Y203.807
G1 F1200 X125.65 Y207.108 E281.69958
G0 F6000 X125.65 Y206.543
G1 F1200 X122.349 Y203.242 E281.91696
G0 F6000 X122.349 Y202.676
G1 F1200 X125.65 Y205.977 E282.13434
G0 F6000 X125.65 Y205.411
G1 F1200 X122.349 Y202.11 E282.35171
G0 F6000 X122.349 Y201.545
G1 F1200 X125.65 Y204.846 E282.56909
G0 F6000 X125.65 Y204.28
G1 F1200 X122.349 Y200.979 E282.78647
G0 F6000 X122.349 Y200.413
G1 F1200 X125.65 Y203.714 E283.00384
G0 F6000 X125.65 Y203.148
G1 F1200 X122.349 Y199.848 E283.22119
G0 F6000 X122.349 Y199.282
G1 F1200 X125.65 Y202.583 E283.43856
G0 F6000 X125.65 Y202.017
G1 F1200 X122.349 Y198.716 E283.65594
G0 F6000 X122.349 Y198.151
G1 F1200 X125.65 Y201.451 E283.87328
G0 F6000 X125.65 Y200.886
G1 F1200 X122.349 Y197.585 E284.09066
G0 F6000 X122.349 Y197.019
G1 F1200 X125.65 Y200.32 E284.30804
G0 F6000 X125.65 Y199.754
G1 F1200 X122.349 Y196.454 E284.52538
G0 F6000 X122.349 Y195.888
G1 F1200 X125.65 Y199.189 E284.74276
G0 F6000 X125.65 Y198.623
G1 F1200 X122.349 Y195.322 E284.96013
G0 F6000 X122.349 Y194.757
G1 F1200 X125.65 Y198.057 E285.17748
G0 F6000 X125.65 Y197.492
G1 F1200 X122.349 Y194.191 E285.39485
G0 F6000 X122.349 Y193.625
G1 F1200 X125.65 Y196.926 E285.61223
G0 F6000 X125.65 Y196.36
G1 F1200 X122.349 Y193.059 E285.82961
G0 F6000 X122.349 Y192.494
G1 F1200 X125.65 Y195.795 E286.04698
G0 F6000 X125.65 Y195.229
G1 F1200 X122.349 Y191.928 E286.26436
G0 F6000 X122.349 Y191.362
G1 F1200 X125.65 Y194.663 E286.48174
G0 F6000 X125.65 Y194.097
G1 F1200 X122.349 Y190.797 E286.69908
G0 F6000 X122.349 Y190.231
G1 F1200 X125.65 Y193.532 E286.91646
G0 F6000 X125.65 Y192.966
G1 F1200 X122.349 Y189.665 E287.13383
G0 F6000 X122.349 Y189.1
G1 F1200 X125.65 Y192.4 E287.35118
G0 F6000 X125.65 Y191.835
G1 F1200 X122.349 Y188.534 E287.56855
G0 F6000 X122.349 Y187.968
G1 F1200 X125.65 Y191.269 E287.78593
G0 F6000 X125.65 Y190.703
G1 F1200 X122.349 Y187.403 E288.00327
G0 F6000 X122.349 Y186.837
G1 F1200 X125.65 Y190.138 E288.22065
G0 F6000 X125.65 Y189.572
G1 F1200 X122.349 Y186.271 E288.43803
G0 F6000 X122.349 Y185.706
G1 F1200 X125.65 Y189.006 E288.65537
G0 F6000 X125.65 Y188.441
G1 F1200 X122.349 Y185.14 E288.87275
G0 F6000 X122.349 Y184.574
G1 F1200 X125.65 Y187.875 E289.09012
G0 F6000 X125.65 Y187.309
G1 F1200 X122.349 Y184.008 E289.3075
G0 F6000 X122.349 Y183.443
G1 F1200 X125.65 Y186.744 E289.52487
G0 F6000 X125.65 Y186.178
G1 F1200 X122.349 Y182.877 E289.74225
G0 F6000 X122.349 Y182.311
G1 F1200 X125.65 Y185.612 E289.95963
G0 F6000 X125.65 Y185.047
G1 F1200 X122.349 Y181.746 E290.177
G0 F6000 X122.349 Y181.18
