;FLAVOR:Marlin
;TIME:374
;Filament used: 0.0351599m
;Layer height: 0.12
;MINX:106.2
;MINY:106.2
;MINZ:0.12
;MAXX:113.8
;MAXY:113.8
;MAXZ:2.4
;Generated with Creality Slicer 4.8.2-191
M140 S50
M105
M190 S50
M104 S200
M105
M109 S200
M82 ;absolute extrusion mode

G28 ;Home

G92 E0 ;Reset Extruder
G1 Z2.0 F3000 ;Move Z Axis up
G1 X10.1 Y20 Z0.28 F5000.0 ;Move to start position
G1 X10.1 Y200.0 Z0.28 F1500.0 E15 ;Draw the first line
G1 X10.4 Y200.0 Z0.28 F5000.0 ;Move to side a little
G1 X10.4 Y20 Z0.28 F1500.0 E30 ;Draw the second line
G92 E0 ;Reset Extruder
G1 Z2.0 F3000 ;Move Z Axis up

G92 E0
G92 E0
G1 F2700 E-5
;LAYER_COUNT:20
;LAYER:0
M107
;MESH:Extruder_Insert_Leo_N.stl
G0 F6000 X110.496 Y112.336 Z0.12
;TYPE:WALL-INNER
G1 F2700 E0
G1 F899.7 X110.883 Y112.247 E0.00792
G1 X111.173 Y112.08 E0.0146
G1 X111.505 Y111.888 E0.02226
G1 X111.753 Y111.621 E0.02953
G1 X111.995 Y111.361 E0.03662
G1 X112.147 Y111.047 E0.04358
G1 X112.247 Y110.842 E0.04813
G1 X112.31 Y110.712 E0.05101
G1 X112.333 Y110.551 E0.05426
G1 X112.388 Y110.176 E0.06182
G1 X112.414 Y110 E0.06537
G1 X112.391 Y109.84 E0.0686
G1 X112.338 Y109.478 E0.0759
G1 X112.31 Y109.288 E0.07973
G1 X112.259 Y109.182 E0.08208
G1 X112.147 Y108.952 E0.08718
G1 X112.077 Y108.808 E0.09038
G1 X111.995 Y108.639 E0.09413
G1 X111.892 Y108.528 E0.09715
G1 X111.629 Y108.245 E0.10486
G1 X111.505 Y108.112 E0.10849
G1 X111.372 Y108.036 E0.11155
G1 X111.038 Y107.843 E0.11924
G1 X110.883 Y107.753 E0.12282
G1 X110.746 Y107.722 E0.12562
G1 X110.362 Y107.634 E0.13349
G1 X110.18 Y107.592 E0.13721
G1 X110.014 Y107.604 E0.14053
G1 X109.829 Y107.618 E0.14424
G1 X109.462 Y107.646 E0.15158
G1 X109.131 Y107.776 E0.15868
G1 X108.793 Y107.909 E0.16593
G1 X108.522 Y108.125 E0.17284
G1 X108.231 Y108.357 E0.18027
G1 X108.029 Y108.652 E0.18741
G1 X107.825 Y108.95 E0.19461
G1 X107.727 Y109.267 E0.20123
G1 X107.661 Y109.48 E0.20568
G1 X107.611 Y109.641 E0.20905
G1 X107.611 Y109.787 E0.21196
G1 X107.611 Y110.173 E0.21966
G1 X107.611 Y110.359 E0.22338
G1 X107.656 Y110.505 E0.22643
G1 X107.767 Y110.863 E0.23391
G1 X107.825 Y111.05 E0.23781
G1 X107.913 Y111.179 E0.24093
G1 X108.129 Y111.494 E0.24855
G1 X108.231 Y111.643 E0.25215
G1 X108.351 Y111.739 E0.25522
G1 X108.656 Y111.982 E0.263
G1 X108.793 Y112.091 E0.2665
G1 X108.931 Y112.145 E0.26945
G1 X109.129 Y112.223 E0.2737
G1 X109.462 Y112.354 E0.28084
G1 X109.801 Y112.379 E0.28763
G1 X110.18 Y112.408 E0.29521
G1 X110.496 Y112.336 E0.30168
G0 F6000 X110.15 Y112.005
G1 F899.7 X110.735 Y111.871 E0.31366
G1 X111.253 Y111.572 E0.32559
G1 X111.661 Y111.133 E0.33755
G1 X111.923 Y110.593 E0.34953
G1 X112.01 Y110 E0.36149
G1 X111.923 Y109.407 E0.37345
G1 X111.661 Y108.867 E0.38543
G1 X111.253 Y108.428 E0.39739
G1 X110.735 Y108.129 E0.40932
G1 X110.15 Y107.995 E0.4213
G1 X109.552 Y108.04 E0.43327
G1 X108.995 Y108.259 E0.44521
G1 X108.527 Y108.632 E0.45715
G1 X108.189 Y109.126 E0.4691
G1 X108.011 Y109.701 E0.48111
G1 X108.011 Y110.299 E0.49305
G1 X108.189 Y110.874 E0.50506
G1 X108.527 Y111.368 E0.517
G1 X108.995 Y111.741 E0.52895
G1 X109.552 Y111.96 E0.54089
G1 X110.15 Y112.005 E0.55286
G0 F6000 X110.12 Y111.602
G1 F899.7 X110.587 Y111.495 E0.56242
G1 X111.001 Y111.256 E0.57196
G1 X111.327 Y110.905 E0.58152
G1 X111.536 Y110.474 E0.59108
G1 X111.606 Y110 E0.60064
G1 X111.536 Y109.526 E0.6102
G1 X111.327 Y109.095 E0.61976
G1 X111.001 Y108.744 E0.62932
G1 X110.587 Y108.505 E0.63886
G1 X110.12 Y108.398 E0.64842
G1 X109.642 Y108.434 E0.65798
G1 X109.197 Y108.609 E0.66753
G1 X108.823 Y108.907 E0.67707
G1 X108.553 Y109.302 E0.68662
G1 X108.411 Y109.761 E0.69621
G1 X108.411 Y110.239 E0.70575
G1 X108.553 Y110.698 E0.71533
G1 X108.823 Y111.093 E0.72488
G1 X109.197 Y111.391 E0.73443
G1 X109.642 Y111.566 E0.74397
G1 X110.12 Y111.602 E0.75353
G0 F6000 X110.09 Y111.199
;TYPE:WALL-OUTER
G1 F899.7 X110.439 Y111.119 E0.76068
G1 X110.749 Y110.94 E0.76782
G1 X110.993 Y110.677 E0.77498
G1 X111.149 Y110.355 E0.78212
G1 X111.202 Y110 E0.78929
G1 X111.149 Y109.645 E0.79645
G1 X110.993 Y109.323 E0.80359
G1 X110.749 Y109.06 E0.81075
G1 X110.439 Y108.881 E0.81789
G1 X110.09 Y108.801 E0.82504
G1 X109.732 Y108.828 E0.8322
G1 X109.399 Y108.959 E0.83934
G1 X109.119 Y109.182 E0.84649
G1 X108.917 Y109.478 E0.85364
G1 X108.811 Y109.821 E0.8608
G1 X108.811 Y110.179 E0.86795
G1 X108.917 Y110.522 E0.87511
G1 X109.119 Y110.818 E0.88226
G1 X109.399 Y111.041 E0.8894
G1 X109.732 Y111.172 E0.89655
G1 X110.09 Y111.199 E0.90371
G0 F6000 X110.122 Y111.637
G0 X110.179 Y112.591
;TYPE:WALL-INNER
G1 F899.7 X109.786 Y112.588 E0.90763
G1 X109.435 Y112.536 E0.91118
G1 X109.421 Y112.533
G1 X109.409 Y112.53 E0.91136
G1 X109.052 Y112.42 E0.91513
G1 X108.857 Y112.334 E0.91737
G1 X108.704 Y112.244 E0.91921
G1 X108.53 Y112.141 E0.92127
G1 X108.226 Y111.897 E0.9252
G1 X108.102 Y111.763 E0.92707
G1 X107.961 Y111.61 E0.9292
G1 X107.748 Y111.293 E0.93306
G1 X107.668 Y111.125 E0.93496
G1 X107.572 Y110.924 E0.9372
G1 X107.465 Y110.565 E0.941
G1 X107.439 Y110.385 E0.94285
G1 X107.408 Y110.173 E0.94502
G1 X107.411 Y109.787 E0.94891
G1 X107.437 Y109.615 E0.95068
G1 X107.467 Y109.42 E0.9527
G1 X107.526 Y109.205 E0.955
G1 X107.658 Y108.875 E0.95862
G1 X107.667 Y108.859
G1 X107.857 Y108.535 E0.96235
G1 X108.088 Y108.244 E0.96605
G1 X108.103 Y108.226 E0.96639
G1 X108.39 Y107.961 E0.97032
G1 X108.692 Y107.759 E0.97395
G1 X108.723 Y107.738 E0.97469
G1 X109.054 Y107.581 E0.97831
G1 X109.409 Y107.474 E0.98199
G1 X109.453 Y107.46 E0.98291
G1 X109.813 Y107.409 E0.98646
G1 X109.999 Y107.403 E0.98838
G1 X110.192 Y107.417 E0.99034
G1 X110.407 Y107.433 E0.99254
G1 X110.79 Y107.525 E0.99655
G1 X110.948 Y107.588 E0.99832
G1 X111.14 Y107.665 E1.00044
G1 X111.473 Y107.86 E1.00437
G1 X111.615 Y107.974 E1.00625
G1 X111.778 Y108.106 E1.00838
G1 X112.039 Y108.39 E1.01229
G1 X112.14 Y108.54 E1.01414
G1 X112.26 Y108.718 E1.01631
G1 X112.335 Y108.86 E1.01797
G1 X112.436 Y109.095 E1.02061
G1 X112.478 Y109.238 E1.02217
G1 X112.539 Y109.448 E1.02438
G1 X112.59 Y109.81 E1.02808
G1 X112.59 Y110 E1.03003
G1 X112.59 Y110.205 E1.03213
G1 X112.533 Y110.58 E1.03599
G1 X112.478 Y110.762 E1.03794
G1 X112.427 Y110.929 E1.03973
G1 X112.336 Y111.138 E1.04205
G1 X112.153 Y111.452 E1.04568
G1 X112.147 Y111.462 E1.04585
G1 X112.138 Y111.474 E1.04607
G1 X111.907 Y111.763 E1.04976
G1 X111.629 Y112.021 E1.05353
G1 X111.601 Y112.047 E1.05409
G1 X111.278 Y112.261 E1.05793
G1 X110.961 Y112.411 E1.06143
G1 X110.949 Y112.417 E1.0617
G1 X110.937 Y112.42 E1.06194
G1 X110.544 Y112.541 E1.06604
G1 X110.206 Y112.588 E1.06947
G1 X110.19 Y112.591 E1.06979
G1 X110.179 Y112.591
G0 F6000 X110.208 Y112.991
G1 F899.7 X109.751 Y112.988 E1.07891
G1 X109.34 Y112.926 E1.08721
G1 X109.089 Y112.857 E1.0924
G1 X108.912 Y112.795 E1.09615
G1 X108.671 Y112.689 E1.1014
G1 X108.301 Y112.471 E1.10997
G1 X107.955 Y112.193 E1.11883
G1 X107.646 Y111.858 E1.12792
G1 X107.4 Y111.492 E1.13672
G1 X107.388 Y111.465 E1.13731
G1 X107.198 Y111.068 E1.1461
G1 X107.19 Y111.039 E1.1467
G1 X107.073 Y110.65 E1.1548
G1 X107.008 Y110.202 E1.16384
G1 X107.011 Y109.759 E1.17268
G1 X107.076 Y109.333 E1.18128
G1 X107.144 Y109.085 E1.18641
G1 X107.301 Y108.692 E1.19485
G1 X107.525 Y108.308 E1.20373
G1 X107.806 Y107.956 E1.21271
G1 X108.142 Y107.646 E1.22184
G1 X108.522 Y107.391 E1.23097
G1 X108.914 Y107.205 E1.23963
G1 X109.353 Y107.072 E1.24878
G1 X109.538 Y107.038 E1.25254
G1 X109.792 Y107.009 E1.25764
G1 X110.007 Y107.002 E1.26193
G1 X110.457 Y107.036 E1.27094
G1 X110.66 Y107.074 E1.27506
G1 X110.911 Y107.143 E1.28025
G1 X111.088 Y107.205 E1.284
G1 X111.322 Y107.308 E1.2891
G1 X111.699 Y107.529 E1.29782
G1 X111.86 Y107.648 E1.30181
G1 X112.052 Y107.814 E1.30688
G1 X112.354 Y108.142 E1.31578
G1 X112.603 Y108.512 E1.32468
G1 X112.699 Y108.692 E1.32875
G1 X112.804 Y108.937 E1.33407
G1 X112.813 Y108.965 E1.33465
G1 X112.864 Y109.112 E1.33776
G1 X112.931 Y109.364 E1.34296
G1 X112.934 Y109.392 E1.34352
G1 X112.99 Y109.782 E1.35139
G1 X112.99 Y110.233 E1.36039
G1 X112.924 Y110.667 E1.36915
G1 X112.858 Y110.91 E1.37417
G1 X112.798 Y111.079 E1.37775
G1 X112.694 Y111.318 E1.38295
G1 X112.479 Y111.687 E1.39148
G1 X112.199 Y112.039 E1.40045
G1 X111.862 Y112.351 E1.40962
G1 X111.836 Y112.369 E1.41025
G1 X111.697 Y112.471 E1.41369
G1 X111.473 Y112.611 E1.41896
G1 X111.087 Y112.794 E1.42749
G1 X110.647 Y112.928 E1.43666
G1 X110.617 Y112.933 E1.43727
G1 X110.462 Y112.962 E1.44042
G1 X110.236 Y112.987 E1.44496
G1 X110.208 Y112.991 E1.44552
G0 F6000 X109.99 Y113.399
G1 F899.7 X109.729 Y113.388 E1.45073
G1 X109.479 Y113.359 E1.45576
G1 X109.245 Y113.315 E1.46051
G1 X108.976 Y113.241 E1.46607
G1 X108.758 Y113.164 E1.47069
G1 X108.508 Y113.055 E1.47613
G1 X108.295 Y112.942 E1.48094
G1 X108.078 Y112.804 E1.48607
G1 X107.877 Y112.654 E1.49108
G1 X107.679 Y112.483 E1.4963
G1 X107.498 Y112.302 E1.50141
G1 X107.332 Y112.107 E1.50652
G1 X107.189 Y111.911 E1.51136
G1 X107.051 Y111.689 E1.51658
G1 X106.933 Y111.466 E1.52161
G1 X106.83 Y111.226 E1.52682
G1 X106.749 Y110.991 E1.53178
G1 X106.682 Y110.739 E1.53699
G1 X106.639 Y110.502 E1.5418
G1 X106.609 Y110.233 E1.5472
G1 X106.601 Y109.988 E1.55209
G1 X106.611 Y109.735 E1.55714
G1 X106.641 Y109.48 E1.56227
G1 X106.686 Y109.241 E1.56712
G1 X106.758 Y108.979 E1.57254
G1 X106.836 Y108.757 E1.57724
G1 X106.943 Y108.512 E1.58257
G1 X107.192 Y108.085 E1.59244
G1 X107.351 Y107.87 E1.59777
G1 X107.517 Y107.679 E1.60282
G1 X107.698 Y107.498 E1.60793
G1 X107.893 Y107.332 E1.61304
G1 X108.089 Y107.189 E1.61788
G1 X108.314 Y107.049 E1.62317
G1 X108.533 Y106.933 E1.62812
G1 X108.766 Y106.834 E1.63317
G1 X108.781 Y106.829 E1.63348
G1 X109.014 Y106.747 E1.63841
G1 X109.257 Y106.683 E1.64343
G1 X109.492 Y106.64 E1.6482
G1 X109.76 Y106.61 E1.65358
G1 X110.01 Y106.601 E1.65857
G1 X110.271 Y106.612 E1.66378
G1 X110.521 Y106.641 E1.66881
G1 X110.755 Y106.685 E1.67356
G1 X111.024 Y106.759 E1.67912
G1 X111.242 Y106.836 E1.68374
G1 X111.492 Y106.945 E1.68918
G1 X111.698 Y107.055 E1.69384
G1 X111.924 Y107.198 E1.69918
G1 X112.122 Y107.345 E1.7041
G1 X112.321 Y107.517 E1.70935
G1 X112.502 Y107.698 E1.71446
G1 X112.668 Y107.893 E1.71957
G1 X112.811 Y108.089 E1.72441
G1 X112.948 Y108.309 E1.72958
G1 X113.063 Y108.525 E1.73446
G1 X113.172 Y108.779 E1.73998
G1 X113.181 Y108.807 E1.74057
G1 X113.251 Y109.009 E1.74483
G1 X113.318 Y109.261 E1.75004
G1 X113.323 Y109.292 E1.75066
G1 X113.361 Y109.496 E1.75481
G1 X113.39 Y109.759 E1.76009
G1 X113.399 Y110.009 E1.76508
G1 X113.389 Y110.264 E1.77017
G1 X113.359 Y110.521 E1.77533
G1 X113.314 Y110.756 E1.78011
G1 X113.242 Y111.021 E1.78559
G1 X113.168 Y111.232 E1.79005
G1 X113.055 Y111.492 E1.79571
G1 X112.946 Y111.697 E1.80034
G1 X112.808 Y111.915 E1.80549
G1 X112.645 Y112.134 E1.81094
G1 X112.489 Y112.315 E1.81571
G1 X112.302 Y112.501 E1.82097
G1 X112.109 Y112.666 E1.82604
G1 X111.92 Y112.804 E1.83071
G1 X111.676 Y112.956 E1.83644
G1 X111.471 Y113.065 E1.84108
G1 X111.236 Y113.165 E1.84617
G1 X111.22 Y113.17 E1.84651
G1 X110.986 Y113.253 E1.85146
G1 X110.743 Y113.317 E1.85648
G1 X110.508 Y113.36 E1.86125
G1 X110.24 Y113.39 E1.86663
G1 X109.99 Y113.399 E1.87162
G0 F6000 X109.989 Y113.8
;TYPE:WALL-OUTER
G1 F899.7 X109.707 Y113.788 E1.87725
G1 X109.415 Y113.754 E1.88312
G1 X109.15 Y113.704 E1.8885
G1 X108.863 Y113.625 E1.89444
G1 X108.603 Y113.533 E1.89995
G1 X108.339 Y113.418 E1.90569
G1 X108.096 Y113.289 E1.91118
G1 X107.853 Y113.134 E1.91693
G1 X107.616 Y112.958 E1.92283
G1 X107.409 Y112.779 E1.92829
G1 X107.206 Y112.575 E1.93403
G1 X107.018 Y112.355 E1.9398
G1 X106.859 Y112.137 E1.94519
G1 X106.701 Y111.884 E1.95114
G1 X106.573 Y111.642 E1.95661
G1 X106.457 Y111.371 E1.96249
G1 X106.364 Y111.102 E1.96817
G1 X106.295 Y110.842 E1.97354
G1 X106.241 Y110.548 E1.9795
G1 X106.21 Y110.265 E1.98518
G1 X106.2 Y109.988 E1.99071
G1 X106.211 Y109.712 E1.99623
G1 X106.246 Y109.415 E2.00219
G1 X106.296 Y109.152 E2.00754
G1 X106.375 Y108.863 E2.01352
G1 X106.465 Y108.608 E2.01891
G1 X106.584 Y108.334 E2.02487
G1 X106.711 Y108.097 E2.03024
G1 X106.863 Y107.857 E2.03591
G1 X107.042 Y107.616 E2.0419
G1 X107.221 Y107.409 E2.04736
G1 X107.425 Y107.206 E2.0531
G1 X107.645 Y107.018 E2.05888
G1 X107.863 Y106.859 E2.06426
G1 X108.116 Y106.701 E2.07022
G1 X108.358 Y106.573 E2.07568
G1 X108.623 Y106.46 E2.08143
G1 X108.898 Y106.364 E2.08724
G1 X109.158 Y106.295 E2.09261
G1 X109.446 Y106.242 E2.09845
G1 X109.729 Y106.211 E2.10413
G1 X110.011 Y106.2 E2.10977
G1 X110.293 Y106.212 E2.1154
G1 X110.585 Y106.246 E2.12127
G1 X110.85 Y106.296 E2.12665
G1 X111.137 Y106.375 E2.13259
G1 X111.397 Y106.467 E2.13809
G1 X111.661 Y106.582 E2.14384
G1 X111.903 Y106.711 E2.14931
G1 X112.147 Y106.866 E2.15508
G1 X112.384 Y107.042 E2.16097
G1 X112.591 Y107.221 E2.16643
G1 X112.794 Y107.425 E2.17217
G1 X112.982 Y107.645 E2.17795
G1 X113.141 Y107.863 E2.18333
G1 X113.299 Y108.116 E2.18929
G1 X113.425 Y108.354 E2.19466
G1 X113.543 Y108.629 E2.20063
G1 X113.636 Y108.898 E2.20631
G1 X113.705 Y109.158 E2.21168
G1 X113.759 Y109.452 E2.21765
G1 X113.79 Y109.735 E2.22333
G1 X113.8 Y110.011 E2.22884
G1 X113.789 Y110.288 E2.23437
G1 X113.754 Y110.584 E2.24032
G1 X113.704 Y110.848 E2.24568
G1 X113.625 Y111.137 E2.25166
G1 X113.535 Y111.392 E2.25706
G1 X113.418 Y111.661 E2.26291
G1 X113.289 Y111.903 E2.26838
G1 X113.137 Y112.143 E2.27405
G1 X112.96 Y112.381 E2.27997
G1 X112.779 Y112.591 E2.2855
G1 X112.575 Y112.794 E2.29125
G1 X112.357 Y112.98 E2.29697
G1 X112.137 Y113.141 E2.30241
G1 X111.885 Y113.298 E2.30833
G1 X111.642 Y113.427 E2.31382
G1 X111.377 Y113.54 E2.31957
G1 X111.102 Y113.636 E2.32538
G1 X110.842 Y113.705 E2.33075
G1 X110.554 Y113.758 E2.3366
G1 X110.271 Y113.789 E2.34228
G1 X109.989 Y113.8 E2.34791
G0 F6000 X109.989 Y113.36
G0 X109.983 Y113.199
G1 F2700 E-2.65209
;MESH:NONMESH
G0 F300 X109.983 Y113.199 Z0.24
G0 F6000 X109.819 Y112.38
;TIME_ELAPSED:13.604548
;LAYER:1
M106 S85
;TYPE:WALL-INNER
;MESH:Extruder_Insert_Leo_N.stl
G1 F2700 E2.34791
G1 F750 X110.18 Y112.408 E2.35513
G1 X110.53 Y112.328 E2.3623
G1 X110.883 Y112.247 E2.36953
G1 X111.013 Y112.172 E2.37252
G1 X111.362 Y111.971 E2.38056
G1 X111.505 Y111.888 E2.38386
G1 X111.617 Y111.767 E2.38715
G1 X111.886 Y111.478 E2.39503
G1 X111.995 Y111.361 E2.39822
G1 X112.154 Y111.033 E2.40549
G1 X112.31 Y110.712 E2.41262
G1 X112.364 Y110.341 E2.4201
G1 X112.414 Y110 E2.42698
G1 X112.365 Y109.66 E2.43383
G1 X112.31 Y109.288 E2.44134
G1 X112.154 Y108.966 E2.44848
G1 X111.995 Y108.639 E2.45573
G1 X111.757 Y108.383 E2.46271
G1 X111.505 Y108.112 E2.47009
G1 X111.199 Y107.935 E2.47715
G1 X110.883 Y107.753 E2.48442
G1 X110.519 Y107.67 E2.49187
G1 X110.358 Y107.633 E2.49517
G1 X110.18 Y107.592 E2.49882
G1 X110.009 Y107.604 E2.50224
G1 X109.826 Y107.618 E2.5059
G1 X109.462 Y107.646 E2.51319
G1 X109.123 Y107.779 E2.52045
G1 X108.961 Y107.843 E2.52393
G1 X108.793 Y107.909 E2.52753
G1 X108.663 Y108.012 E2.53084
G1 X108.36 Y108.254 E2.53858
G1 X108.231 Y108.357 E2.54187
G1 X108.145 Y108.483 E2.54492
G1 X108.025 Y108.658 E2.54915
G1 X107.825 Y108.95 E2.55621
G1 X107.712 Y109.314 E2.56382
G1 X107.611 Y109.641 E2.57065
G1 X107.611 Y110 E2.57781
G1 X107.611 Y110.359 E2.58498
G1 X107.711 Y110.683 E2.59175
G1 X107.825 Y111.05 E2.59941
G1 X108.027 Y111.345 E2.60655
G1 X108.231 Y111.643 E2.61376
G1 X108.508 Y111.864 E2.62083
G1 X108.793 Y112.091 E2.6281
G1 X109.126 Y112.222 E2.63524
G1 X109.462 Y112.354 E2.64244
G1 X109.819 Y112.38 E2.64959
G0 F6600 X109.552 Y111.96
G1 F750 X110.15 Y112.005 E2.66156
G1 X110.735 Y111.871 E2.67353
G1 X111.253 Y111.572 E2.68547
G1 X111.661 Y111.133 E2.69743
G1 X111.923 Y110.593 E2.70941
G1 X112.01 Y110 E2.72137
G1 X111.923 Y109.407 E2.73333
G1 X111.661 Y108.867 E2.7453
G1 X111.253 Y108.428 E2.75726
G1 X110.735 Y108.129 E2.7692
G1 X110.15 Y107.995 E2.78118
G1 X109.552 Y108.04 E2.79314
G1 X108.995 Y108.259 E2.80509
G1 X108.527 Y108.632 E2.81703
G1 X108.189 Y109.126 E2.82898
G1 X108.011 Y109.701 E2.84099
G1 X108.011 Y110.299 E2.85292
G1 X108.189 Y110.874 E2.86493
G1 X108.527 Y111.368 E2.87688
G1 X108.995 Y111.741 E2.88882
G1 X109.552 Y111.96 E2.90077
G0 F6600 X109.642 Y111.566
G1 F750 X110.12 Y111.602 E2.91033
G1 X110.587 Y111.495 E2.91989
