;FLAVOR:Marlin
;TIME:118649
;Filament used: 12.3316m
;Layer height: 0.12
;MINX:40.2
;MINY:5.2
;MINZ:0.12
;MAXX:179.8
;MAXY:214.8
;MAXZ:7.92
;Generated with Creality Slicer 4.8.2-191
M140 S50
M105
M190 S50
M104 S200
M105
M109 S200
M82 ;absolute extrusion mode

G28 ;Home

G92 E0 ;Reset Extruder
G1 Z2.0 F3000 ;Move Z Axis up
G1 X10.1 Y20 Z0.28 F5000.0 ;Move to start position
G1 X10.1 Y200.0 Z0.28 F1500.0 E15 ;Draw the first line
G1 X10.4 Y200.0 Z0.28 F5000.0 ;Move to side a little
G1 X10.4 Y20 Z0.28 F1500.0 E30 ;Draw the second line
G92 E0 ;Reset Extruder
G1 Z2.0 F3000 ;Move Z Axis up

G92 E0
G92 E0
G1 F2700 E-3
;LAYER_COUNT:66
;LAYER:0
M107
;MESH:half-body-bottom.stl
G0 F6000 X46.2 Y113.2 Z0.12
;TYPE:WALL-INNER
G1 F2700 E0
G1 F1200 X46.2 Y212.8 E1.98763
G1 X121.8 Y212.8 E3.49631
G1 X121.8 Y113.2 E5.48393
G1 X46.2 Y113.2 E6.99261
G0 F6000 X46.6 Y113.6
G1 F1200 X46.6 Y212.4 E8.96427
G1 X121.4 Y212.4 E10.45699
G1 X121.4 Y113.6 E12.42865
G1 X46.6 Y113.6 E13.92136
G0 F6000 X47 Y114
G1 F1200 X47 Y212 E15.87706
G1 X121 Y212 E17.35381
G1 X121 Y114 E19.3095
G1 X47 Y114 E20.78625
G0 F6000 X47.4 Y114.4
G1 F1200 X47.4 Y146.267 E21.42219
G1 X65.1 Y146.267 E21.77542
G1 X65.1 Y114.4 E22.41136
G1 X47.4 Y114.4 E22.76458
G1 F2700 E19.76458
G0 F6000 X64.928 Y114.572
G0 X65 Y145.867
G0 X64.7 Y145.867
;TYPE:WALL-OUTER
G1 F2700 E22.76458
G1 F1200 X64.7 Y114.8 E23.38456
G1 X47.8 Y114.8 E23.72181
G1 X47.8 Y145.867 E24.34179
G1 X64.7 Y145.867 E24.67905
G0 F6000 X65 Y145.867
G0 X65.964 Y146.072
G0 X83.6 Y146.267
;TYPE:WALL-INNER
G1 F1200 X83.6 Y114.4 E25.31499
G1 X65.9 Y114.4 E25.66821
G1 X65.9 Y146.267 E26.30415
G1 X83.6 Y146.267 E26.65737
G0 F6000 X83.2 Y145.867
;TYPE:WALL-OUTER
G1 F1200 X83.2 Y114.8 E27.27735
G1 X66.3 Y114.8 E27.61461
G1 X66.3 Y145.867 E28.23458
G1 X83.2 Y145.867 E28.57184
G0 F6000 X83.5 Y145.867
G0 X84.464 Y146.072
G0 X102.1 Y146.267
;TYPE:WALL-INNER
G1 F1200 X102.1 Y114.4 E29.20778
G1 X84.4 Y114.4 E29.561
G1 X84.4 Y146.267 E30.19694
G1 X102.1 Y146.267 E30.55017
G0 F6000 X101.7 Y145.867
;TYPE:WALL-OUTER
G1 F1200 X101.7 Y114.8 E31.17014
G1 X84.8 Y114.8 E31.5074
G1 X84.8 Y145.867 E32.12737
G1 X101.7 Y145.867 E32.46463
G0 F6000 X102 Y145.867
G0 X102.9 Y146.267
;TYPE:WALL-INNER
G1 F1200 X120.6 Y146.267 E32.81786
G1 X120.6 Y114.4 E33.4538
G1 X102.9 Y114.4 E33.80702
G1 X102.9 Y146.267 E34.44296
G0 F6000 X103.3 Y145.867
;TYPE:WALL-OUTER
G1 F1200 X120.2 Y145.867 E34.78022
G1 X120.2 Y114.8 E35.40019
G1 X103.3 Y114.8 E35.73745
G1 X103.3 Y145.867 E36.35743
G1 F2700 E33.35743
G0 F6000 X103 Y145.867
G0 X102.9 Y178.933
;TYPE:WALL-INNER
G1 F2700 E36.35743
G1 F1200 X120.6 Y178.933 E36.71065
G1 X120.6 Y147.067 E37.34657
G1 X102.9 Y147.067 E37.69979
G1 X102.9 Y178.933 E38.33571
G0 F6000 X103.3 Y178.533
;TYPE:WALL-OUTER
G1 F1200 X120.2 Y178.533 E38.67297
G1 X120.2 Y147.467 E39.29292
G1 X103.3 Y147.467 E39.63018
G1 X103.3 Y178.533 E40.25014
G0 F6000 X103 Y178.533
G0 X102.1 Y178.933
;TYPE:WALL-INNER
G1 F1200 X102.1 Y147.067 E40.88606
G1 X84.4 Y147.067 E41.23928
G1 X84.4 Y178.933 E41.8752
G1 X102.1 Y178.933 E42.22842
G0 F6000 X101.7 Y178.533
;TYPE:WALL-OUTER
G1 F1200 X101.7 Y147.467 E42.84838
G1 X84.8 Y147.467 E43.18564
G1 X84.8 Y178.533 E43.80559
G1 X101.7 Y178.533 E44.14285
G0 F6000 X102 Y178.533
G0 X83.6 Y178.933
;TYPE:WALL-INNER
G1 F1200 X83.6 Y147.067 E44.77877
G1 X65.9 Y147.067 E45.13199
G1 X65.9 Y178.933 E45.76791
G1 X83.6 Y178.933 E46.12114
G0 F6000 X83.2 Y178.533
;TYPE:WALL-OUTER
G1 F1200 X83.2 Y147.467 E46.74109
G1 X66.3 Y147.467 E47.07835
G1 X66.3 Y178.533 E47.69831
G1 X83.2 Y178.533 E48.03556
G0 F6000 X83.5 Y178.533
G0 X65.1 Y178.933
;TYPE:WALL-INNER
G1 F1200 X65.1 Y147.067 E48.67148
G1 X47.4 Y147.067 E49.02471
G1 X47.4 Y178.933 E49.66063
G1 X65.1 Y178.933 E50.01385
G0 F6000 X64.7 Y178.533
;TYPE:WALL-OUTER
G1 F1200 X64.7 Y147.467 E50.63381
G1 X47.8 Y147.467 E50.97106
G1 X47.8 Y178.533 E51.59102
G1 X64.7 Y178.533 E51.92828
G1 F2700 E48.92828
G0 F6000 X65 Y178.533
G0 X65.1 Y211.6
;TYPE:WALL-INNER
G1 F2700 E51.92828
G1 F1200 X65.1 Y179.733 E52.56422
G1 X47.4 Y179.733 E52.91744
G1 X47.4 Y211.6 E53.55338
G1 X65.1 Y211.6 E53.9066
G0 F6000 X64.7 Y211.2
;TYPE:WALL-OUTER
G1 F1200 X64.7 Y180.133 E54.52658
G1 X47.8 Y180.133 E54.86384
G1 X47.8 Y211.2 E55.48381
G1 X64.7 Y211.2 E55.82107
G0 F6000 X65 Y211.2
G0 X65.964 Y211.405
G0 X83.6 Y211.6
;TYPE:WALL-INNER
G1 F1200 X83.6 Y179.733 E56.45701
G1 X65.9 Y179.733 E56.81023
G1 X65.9 Y211.6 E57.44617
G1 X83.6 Y211.6 E57.7994
G0 F6000 X83.2 Y211.2
;TYPE:WALL-OUTER
G1 F1200 X83.2 Y180.133 E58.41937
G1 X66.3 Y180.133 E58.75663
G1 X66.3 Y211.2 E59.37661
G1 X83.2 Y211.2 E59.71386
G0 F6000 X83.5 Y211.2
G0 X84.464 Y211.405
G0 X102.1 Y211.6
;TYPE:WALL-INNER
G1 F1200 X102.1 Y179.733 E60.3498
G1 X84.4 Y179.733 E60.70303
G1 X84.4 Y211.6 E61.33897
G1 X102.1 Y211.6 E61.69219
G0 F6000 X101.7 Y211.2
;TYPE:WALL-OUTER
G1 F1200 X101.7 Y180.133 E62.31216
G1 X84.8 Y180.133 E62.64942
G1 X84.8 Y211.2 E63.2694
G1 X101.7 Y211.2 E63.60666
G0 F6000 X102 Y211.2
G0 X102.9 Y211.6
;TYPE:WALL-INNER
G1 F1200 X120.6 Y211.6 E63.95988
G1 X120.6 Y179.733 E64.59582
G1 X102.9 Y179.733 E64.94904
G1 X102.9 Y211.6 E65.58498
G0 F6000 X103.3 Y211.2
;TYPE:WALL-OUTER
G1 F1200 X120.2 Y211.2 E65.92224
G1 X120.2 Y180.133 E66.54222
G1 X103.3 Y180.133 E66.87947
G1 X103.3 Y211.2 E67.49945
G1 F2700 E64.49945
G0 F6000 X103 Y211.2
G0 X101.928 Y211.428
G0 X47.572 Y211.428
G0 X44.2 Y211.2
;TYPE:WALL-INNER
G1 F2700 E67.49945
G1 F1200 X43.8 Y211.2 E67.50743
G1 X43.8 Y114.8 E69.4312
G1 X44.2 Y114.8 E69.43918
G1 X44.2 Y211.2 E71.36295
G0 F6000 X44.6 Y211.6
G1 F1200 X43.4 Y211.6 E71.38689
G1 X43.4 Y114.4 E73.32662
G1 X44.6 Y114.4 E73.35057
G1 X44.6 Y211.6 E75.2903
G0 F6000 X45 Y212
G1 F1200 X43 Y212 E75.33021
G1 X43 Y114 E77.28591
G1 X45 Y114 E77.32582
G1 X45 Y212 E79.28152
G0 F6000 X45.4 Y212.4
G1 F1200 X42.6 Y212.4 E79.3374
G1 X42.6 Y113.6 E81.30906
G1 X45.4 Y113.6 E81.36493
G1 X45.4 Y212.4 E83.33659
G0 F6000 X45.8 Y212.8
G1 F1200 X42.2 Y212.8 E83.40844
G1 X42.2 Y113.2 E85.39606
G1 X45.8 Y113.2 E85.4679
G1 X45.8 Y212.8 E87.45553
G1 F2700 E84.45553
G0 F6000 X120.428 Y211.428
G0 X124.2 Y211.2
G1 F2700 E87.45553
G1 F1200 X123.8 Y211.2 E87.46351
G1 X123.8 Y114.8 E89.38728
G1 X124.2 Y114.8 E89.39526
G1 X124.2 Y211.2 E91.31903
G0 F6000 X124.6 Y211.6
G1 F1200 X123.4 Y211.6 E91.34297
G1 X123.4 Y114.4 E93.28271
G1 X124.6 Y114.4 E93.30665
G1 X124.6 Y211.6 E95.24638
G0 F6000 X125 Y212
G1 F1200 X123 Y212 E95.2863
G1 X123 Y114 E97.24199
G1 X125 Y114 E97.2819
G1 X125 Y212 E99.2376
G0 F6000 X125.4 Y212.4
G1 F1200 X122.6 Y212.4 E99.29348
G1 X122.6 Y113.6 E101.26514
G1 X125.4 Y113.6 E101.32101
G1 X125.4 Y212.4 E103.29268
G0 F6000 X125.8 Y212.8
G1 F1200 X122.2 Y212.8 E103.36452
G1 X122.2 Y113.2 E105.35214
G1 X125.8 Y113.2 E105.42398
G1 X125.8 Y212.8 E107.41161
G0 F6000 X126.2 Y213.2
G1 F1200 X41.8 Y213.2 E109.0959
G1 X41.8 Y112.8 E111.09949
G1 X126.2 Y112.8 E112.78379
G1 X126.2 Y213.2 E114.78738
G0 F6000 X126.6 Y213.6
G1 F1200 X41.4 Y213.6 E116.48764
G1 X41.4 Y112.4 E118.50719
G1 X126.6 Y112.4 E120.20745
G1 X126.6 Y213.6 E122.22701
G0 F6000 X127 Y214
G1 F1200 X41 Y214 E123.94323
G1 X41 Y112 E125.97875
G1 X127 Y112 E127.69497
G1 X127 Y214 E129.73049
G0 F6000 X127.4 Y214.4
G1 F1200 X40.6 Y214.4 E131.46268
G1 X40.6 Y111.6 E133.51416
G1 X127.4 Y111.6 E135.24635
G1 X127.4 Y214.4 E137.29784
G0 F6000 X127.8 Y214.8
;TYPE:WALL-OUTER
G1 F1200 X40.2 Y214.8 E139.04599
G1 X40.2 Y111.2 E141.11344
G1 X127.8 Y111.2 E142.86159
G1 X127.8 Y214.8 E144.92904
G0 F6000 X127.53 Y214.53
G0 X102.725 Y211.62
G0 X102.499 Y211.394
;TYPE:SKIN
G1 F1200 X102.499 Y211.111 E144.93534
G1 X102.499 Y179.998 E145.62739
G1 X102.308 Y179.524 E145.63875
G1 X101.833 Y179.332 E145.65015
G1 X84.579 Y179.332 E146.03393
G1 X83.999 Y178.752 E146.05217
G1 X83.999 Y147.356 E146.75052
G1 X83.795 Y146.869 E146.76226
G1 X83.309 Y146.665 E146.77398
G1 X66.055 Y146.665 E147.15777
G1 X65.499 Y146.11 E147.17524
G1 X65.499 Y114.431 E147.87988
G1 X65.616 Y114.265 E147.88439
G0 F6000 X65.724 Y114.373
G0 X83.775 Y114.322
G0 X83.999 Y114.546
G1 F1200 X84.059 Y114.324 E147.8895
G1 X84.201 Y114.182 E147.89397
G1 X83.999 Y114.829 E147.90903
G1 X83.999 Y145.942 E148.60034
G0 F6000 X84.723 Y146.665
G1 F1200 X84.22 Y146.445 E148.61922
G0 F6000 X83.775 Y146.283
G1 F1200 X84.382 Y146.89 E148.62779
G0 F6000 X84.224 Y147.015
G1 F1200 X83.65 Y146.441 E148.63588
G0 F6000 X84.782 Y146.441
G0 X85.006 Y146.665
G1 F1200 X85.288 Y146.665 E148.64223
G1 X101.976 Y146.665 E149.01778
G1 X102.499 Y147.188 E149.03443
G1 X102.38 Y146.786 E149.04386
G0 F6000 X102.275 Y146.398
G1 F1200 X102.767 Y146.89 E149.05081
G0 F6000 X102.662 Y146.502
G1 F1200 X102.499 Y146.057 E149.06138
G1 X103.108 Y146.665 E149.08059
G1 X120.361 Y146.665 E149.4656
G1 X120.771 Y146.509 E149.47539
G0 F6000 X120.702 Y146.441
G0 X103.072 Y146.095
G0 X102.724 Y145.999
G0 X102.499 Y145.774
G1 F1200 X102.499 Y145.492 E149.48179
G1 X102.501 Y114.381 E150.18839
G1 X102.643 Y114.239 E150.19295
G1 F2700 E147.19295
G0 F6000 X102.562 Y114.158
G0 X102.274 Y147.246
G0 X102.499 Y147.471
G1 F2700 E150.19295
G1 F1200 X102.499 Y147.754 E150.19942
G1 X102.499 Y178.867 E150.91104
G1 X102.59 Y179.24 E150.91982
G0 F6000 X102.725 Y179.658
G1 F1200 X102.174 Y179.107 E150.9276
G0 F6000 X102.964 Y179.332
G1 F1200 X103.247 Y179.332 E150.93413
G1 X120.5 Y179.332 E151.3321
G1 X120.699 Y179.247 E151.33709
G1 F2700 E148.33709
G0 F6000 X120.558 Y179.107
G0 X84.521 Y179.557
G1 F2700 E151.33709
G1 F1200 X83.775 Y178.81 E151.34762
G0 F6000 X83.775 Y179.093
G1 F1200 X84.239 Y179.557 E151.35417
G0 F6000 X83.865 Y179.466
G1 F1200 X83.448 Y179.332 E151.36399
G1 X83.999 Y179.883 E151.38147
G1 X83.999 Y211.561 E152.09199
G1 X83.884 Y211.729 E152.09655
G0 F6000 X83.775 Y211.62
G0 X65.725 Y211.672
G0 X65.499 Y211.446
G1 F1200 X65.499 Y211.163 E152.10294
G1 X65.499 Y180.05 E152.80544
G1 X65.281 Y179.55 E152.81776
G1 X64.78 Y179.332 E152.8301
G1 X47.527 Y179.332 E153.21965
G1 X47.314 Y179.402 E153.22472
G0 F6000 X47.469 Y179.557
G0 X65.121 Y179.107
G1 F1200 X65.725 Y179.711 E153.23324
G0 F6000 X65.854 Y179.557
G1 F1200 X65.274 Y178.977 E153.24142
G0 F6000 X65.705 Y179.125
G1 F1200 X66.194 Y179.332 E153.25374
G1 X83.165 Y179.332 E153.64737
G0 F6000 X82.94 Y179.107
G0 X65.725 Y178.862
G0 X65.499 Y178.636
G1 F1200 X65.499 Y178.353 E153.65384
G1 X65.499 Y147.241 E154.36544
G1 X65.353 Y146.812 E154.3758
G0 F6000 X65.265 Y146.441
G1 F1200 X65.725 Y146.901 E154.3823
G0 F6000 X65.997 Y146.89
G1 F1200 X65.275 Y146.168 E154.39248
G0 F6000 X64.924 Y146.665
G1 F1200 X64.641 Y146.665 E154.39887
G1 X47.388 Y146.665 E154.78816
G1 X47.244 Y146.805 E154.79269
G1 F2700 E151.79269
G0 F6000 X47.159 Y146.72
G0 X47.572 Y178.761
G0 X64.928 Y179.905
G0 X65.274 Y211.504
G0 X65.441 Y211.671
G1 F2700 E154.79269
G1 F1200 X65.3 Y211.812 E154.79816
G1 F2700 E151.79816
G0 F6000 X65.274 Y211.786
G0 X102.274 Y211.734
G0 X102.326 Y211.786
G1 F2700 E154.79816
G1 F1200 X102.468 Y211.645 E154.80511
G0 F6000 X102.182 Y211.682
G1 F2700 E151.80511
G0 F6000 X103.072 Y179.905
G0 X120.428 Y178.761
G0 X127.58 Y113.2
G0 X130.42 Y113.2
G0 X173.8 Y113.2
;TYPE:WALL-INNER
G1 F2700 E154.80511
G1 F1200 X136.2 Y113.2 E155.55545
G1 X136.2 Y212.8 E157.54308
G1 X173.8 Y212.8 E158.29343
G1 X173.8 Y113.2 E160.28105
G0 F6000 X173.4 Y113.6
G1 F1200 X136.6 Y113.6 E161.01544
G1 X136.6 Y212.4 E162.9871
G1 X173.4 Y212.4 E163.72148
G1 X173.4 Y113.6 E165.69314
G0 F6000 X173 Y114
G1 F1200 X137 Y114 E166.41156
G1 X137 Y212 E168.36726
G1 X173 Y212 E169.08568
G1 X173 Y114 E171.04137
G0 F6000 X172.6 Y114.4
G1 F1200 X161.4 Y114.4 E171.26488
G1 X161.4 Y146.267 E171.90082
G1 X172.6 Y146.267 E172.12433
G1 X172.6 Y114.4 E172.76027
G1 F2700 E169.76027
G0 F6000 X161.572 Y114.572
G0 X161.5 Y145.867
G0 X161.8 Y145.867
;TYPE:WALL-OUTER
G1 F2700 E172.76027
G1 F1200 X172.2 Y145.867 E172.96781
G1 X172.2 Y114.8 E173.58779
G1 X161.8 Y114.8 E173.79533
G1 X161.8 Y145.867 E174.41531
G0 F6000 X161.5 Y145.867
G0 X160.536 Y146.072
G0 X149.4 Y146.267
;TYPE:WALL-INNER
G1 F1200 X160.6 Y146.267 E174.63882
G1 X160.6 Y114.4 E175.27476
G1 X149.4 Y114.4 E175.49826
G1 X149.4 Y146.267 E176.1342
G0 F6000 X149.8 Y145.867
;TYPE:WALL-OUTER
G1 F1200 X160.2 Y145.867 E176.34175
G1 X160.2 Y114.8 E176.96172
G1 X149.8 Y114.8 E177.16927
G1 X149.8 Y145.867 E177.78924
G0 F6000 X149.5 Y145.867
G0 X148.536 Y146.072
G0 X137.4 Y146.267
;TYPE:WALL-INNER
G1 F1200 X148.6 Y146.267 E178.01275
G1 X148.6 Y114.4 E178.64869
G1 X137.4 Y114.4 E178.8722
G1 X137.4 Y146.267 E179.50814
G0 F6000 X137.8 Y145.867
;TYPE:WALL-OUTER
G1 F1200 X148.2 Y145.867 E179.71568
G1 X148.2 Y114.8 E180.33566
G1 X137.8 Y114.8 E180.5432
G1 X137.8 Y145.867 E181.16318
G1 F2700 E178.16318
G0 F6000 X137.5 Y145.867
G0 X137.4 Y178.933
;TYPE:WALL-INNER
G1 F2700 E181.16318
G1 F1200 X148.6 Y178.933 E181.38669
G1 X148.6 Y147.067 E182.02261
G1 X137.4 Y147.067 E182.24611
G1 X137.4 Y178.933 E182.88203
G0 F6000 X137.8 Y178.533
;TYPE:WALL-OUTER
G1 F1200 X148.2 Y178.533 E183.08958
G1 X148.2 Y147.467 E183.70953
G1 X137.8 Y147.467 E183.91708
G1 X137.8 Y178.533 E184.53703
G0 F6000 X137.5 Y178.533
G0 X149.4 Y178.933
;TYPE:WALL-INNER
G1 F1200 X160.6 Y178.933 E184.76054
G1 X160.6 Y147.067 E185.39646
G1 X149.4 Y147.067 E185.61997
G1 X149.4 Y178.933 E186.25589
G0 F6000 X149.8 Y178.533
;TYPE:WALL-OUTER
G1 F1200 X160.2 Y178.533 E186.46343
G1 X160.2 Y147.467 E187.08339
G1 X149.8 Y147.467 E187.29093
G1 X149.8 Y178.533 E187.91089
G0 F6000 X149.5 Y178.533
G0 X161.4 Y178.933
;TYPE:WALL-INNER
G1 F1200 X172.6 Y178.933 E188.13439
G1 X172.6 Y147.067 E188.77032
G1 X161.4 Y147.067 E188.99382
G1 X161.4 Y178.933 E189.62974
G0 F6000 X161.8 Y178.533
;TYPE:WALL-OUTER
G1 F1200 X172.2 Y178.533 E189.83729
G1 X172.2 Y147.467 E190.45724
G1 X161.8 Y147.467 E190.66479
G1 X161.8 Y178.533 E191.28474
G1 F2700 E188.28474
G0 F6000 X161.5 Y178.533
G0 X161.4 Y211.6
;TYPE:WALL-INNER
G1 F2700 E191.28474
G1 F1200 X172.6 Y211.6 E191.50825
G1 X172.6 Y179.733 E192.14419
G1 X161.4 Y179.733 E192.3677
G1 X161.4 Y211.6 E193.00364
G0 F6000 X161.8 Y211.2
;TYPE:WALL-OUTER
G1 F1200 X172.2 Y211.2 E193.21118
G1 X172.2 Y180.133 E193.83116
G1 X161.8 Y180.133 E194.0387
G1 X161.8 Y211.2 E194.65868
G0 F6000 X161.5 Y211.2
G0 X160.536 Y211.405
G0 X149.4 Y211.6
;TYPE:WALL-INNER
G1 F1200 X160.6 Y211.6 E194.88218
G1 X160.6 Y179.733 E195.51812
G1 X149.4 Y179.733 E195.74163
G1 X149.4 Y211.6 E196.37757
G0 F6000 X149.8 Y211.2
;TYPE:WALL-OUTER
G1 F1200 X160.2 Y211.2 E196.58512
G1 X160.2 Y180.133 E197.20509
G1 X149.8 Y180.133 E197.41264
G1 X149.8 Y211.2 E198.03261
G0 F6000 X149.5 Y211.2
G0 X148.536 Y211.405
G0 X137.4 Y211.6
;TYPE:WALL-INNER
G1 F1200 X148.6 Y211.6 E198.25612
G1 X148.6 Y179.733 E198.89206
G1 X137.4 Y179.733 E199.11557
G1 X137.4 Y211.6 E199.75151
G0 F6000 X137.8 Y211.2
;TYPE:WALL-OUTER
G1 F1200 X148.2 Y211.2 E199.95905
G1 X148.2 Y180.133 E200.57903
G1 X137.8 Y180.133 E200.78657
G1 X137.8 Y211.2 E201.40655
G1 F2700 E198.40655
G0 F6000 X137.5 Y211.2
G0 X172.428 Y211.428
G0 X175.8 Y211.2
;TYPE:WALL-INNER
G1 F2700 E201.40655
G1 F1200 X175.8 Y114.8 E203.33031
G1 X176.2 Y114.8 E203.33829
G1 X176.2 Y211.2 E205.26206
G1 X175.8 Y211.2 E205.27004
G0 F6000 X175.4 Y211.6
G1 F1200 X175.4 Y114.4 E207.20977
G1 X176.6 Y114.4 E207.23372
G1 X176.6 Y211.6 E209.17345
G1 X175.4 Y211.6 E209.1974
G0 F6000 X175 Y212
G1 F1200 X175 Y114 E211.1531
G1 X177 Y114 E211.19301
G1 X177 Y212 E213.1487
G1 X175 Y212 E213.18862
G0 F6000 X174.6 Y212.4
G1 F1200 X174.6 Y113.6 E215.16028
G1 X177.4 Y113.6 E215.21615
G1 X177.4 Y212.4 E217.18781
G1 X174.6 Y212.4 E217.24369
G0 F6000 X174.2 Y212.8
G1 F1200 X174.2 Y113.2 E219.23132
G1 X177.8 Y113.2 E219.30316
G1 X177.8 Y212.8 E221.29078
G1 X174.2 Y212.8 E221.36263
G1 F2700 E218.36263
G0 F6000 X137.572 Y211.428
G0 X133.8 Y211.2
G1 F2700 E221.36263
G1 F1200 X133.8 Y114.8 E223.28639
G1 X134.2 Y114.8 E223.29438
G1 X134.2 Y211.2 E225.21814
G1 X133.8 Y211.2 E225.22612
G0 F6000 X133.4 Y211.6
G1 F1200 X133.4 Y114.4 E227.16586
G1 X134.6 Y114.4 E227.1898
G1 X134.6 Y211.6 E229.12953
G1 X133.4 Y211.6 E229.15348
G0 F6000 X133 Y212
G1 F1200 X133 Y114 E231.10918
G1 X135 Y114 E231.14909
G1 X135 Y212 E233.10478
G1 X133 Y212 E233.1447
