;FLAVOR:Marlin
;TIME:6366
;Filament used: 5.50043m
;Layer height: 0.28
;MINX:30.475
;MINY:40.2
;MINZ:0.28
;MAXX:191.541
;MAXY:149.325
;MAXZ:5.04
;Generated with Cura_SteamEngine 5.4.0
M140 S50
M105
M190 S50
M104 S200
M105
M109 S200
M82 ;absolute extrusion mode
; Ender 3 Custom Start G-code
G92 E0 ; Reset Extruder
G28 ; Home all axes
G1 Z2.0 F3000 ; Move Z Axis up little to prevent scratching of Heat Bed
G1 X0.1 Y20 Z0.3 F5000.0 ; Move to start position
G1 X0.1 Y200.0 Z0.3 F1500.0 E15 ; Draw the first line
G1 X0.4 Y200.0 Z0.3 F5000.0 ; Move to side a little
G1 X0.4 Y20 Z0.3 F1500.0 E30 ; Draw the second line
G92 E0 ; Reset Extruder
G1 Z2.0 F3000 ; Move Z Axis up little to prevent scratching of Heat Bed
G1 X5 Y20 Z0.3 F5000.0 ; Move over to prevent blob squish
G92 E0
G92 E0
G1 F2700 E-5
;LAYER_COUNT:18
;LAYER:0
M107
;MESH:halfBodyTopSide.stl
G0 F6000 X34.214 Y62 Z0.28
;TYPE:WALL-INNER
G1 F2700 E0
G1 F1191.1 X61.301 Y62 E1.27074
G1 F2700 E-3.72926
G0 F6000 X62.129 Y62.172
G0 X62.473 Y76.828
G0 X90.456 Y77
G1 F2700 E1.27074
G1 F1200 X63.301 Y77 E2.53519
G1 X63.054 Y76.97 E2.54678
G1 X62.694 Y76.796 E2.5654
G1 X62.464 Y76.549 E2.58111
G1 F1191.1 X62.301 Y76.087 E2.6041
G1 X62.138 Y76.549 E2.62708
G1 F1200 X61.908 Y76.796 E2.6428
G1 X61.657 Y76.935 E2.65616
G1 X61.424 Y77 E2.66742
G1 X34.146 Y77 E3.9376
G1 X33.83 Y76.883 E3.95329
G1 X33.576 Y76.69 E3.96814
G1 X33.377 Y76.385 E3.9851
G1 X33.301 Y76.125 E3.99771
G1 X33.301 Y63 E4.60887
G1 X33.418 Y62.529 E4.63147
G1 X33.617 Y62.27 E4.64668
G1 F1191.1 X34.214 Y62 E4.67741
G1 X33.617 Y61.73 E4.70815
G1 F1200 X33.418 Y61.471 E4.72336
G1 X33.301 Y61.132 E4.74006
G1 X33.301 Y48 E5.35154
G1 X33.377 Y47.615 E5.36982
G1 X33.576 Y47.31 E5.38677
G1 X33.83 Y47.117 E5.40163
G1 X34.146 Y47 E5.41732
G1 X61.301 Y47 E6.68177
G1 X61.548 Y47.03 E6.69335
G1 X61.908 Y47.204 E6.71197
G1 X62.138 Y47.45 E6.72765
G1 X62.301 Y48 E6.75437
G1 X62.464 Y47.45 E6.78108
G1 X62.694 Y47.204 E6.79676
G1 X62.945 Y47.065 E6.81012
G1 X63.178 Y47 E6.82138
G1 X90.456 Y47 E8.09156
G1 X90.772 Y47.117 E8.10725
G1 X91.026 Y47.31 E8.1221
G1 X91.225 Y47.615 E8.13906
G1 X91.301 Y48 E8.15734
G1 X91.301 Y61.132 E8.76882
G1 X91.184 Y61.471 E8.78552
G1 X90.986 Y61.73 E8.8007
G1 X90.301 Y62 E8.83498
G1 X90.986 Y62.27 E8.86927
G1 X91.184 Y62.529 E8.88445
G1 X91.301 Y63 E8.90704
G1 X91.301 Y76.125 E9.5182
G1 X91.225 Y76.385 E9.53081
G1 X91.026 Y76.69 E9.54777
G1 X90.772 Y76.883 E9.56262
G1 X90.456 Y77 E9.57832
G0 F6000 X91.129 Y76.828
G0 X91.129 Y62.172
G0 X90.712 Y61.9
G0 X90.712 Y61.438
G1 F1200 X90.301 Y61.6 E9.59889
G1 X63.248 Y61.599 E10.85859
G1 X63.032 Y61.537 E10.86905
G1 X62.876 Y61.425 E10.87799
G1 X62.764 Y61.269 E10.88694
G1 X62.702 Y61.053 E10.8974
G1 X62.701 Y48 E11.5052
G1 X62.799 Y47.67 E11.52123
G1 X62.937 Y47.522 E11.53065
G1 X63.221 Y47.4 E11.54505
G1 X90.395 Y47.4 E12.81038
G1 X90.584 Y47.47 E12.81977
G1 X90.736 Y47.586 E12.82867
G1 X90.855 Y47.769 E12.83883
G1 X90.901 Y48 E12.8498
G1 X90.901 Y61.081 E13.45891
G1 X90.831 Y61.283 E13.46886
G1 X90.712 Y61.438 E13.47796
G0 F6000 X90.301 Y62
G1 F1191.1 X63.214 Y62 E14.74871
G0 F6000 X62.354 Y62
G1 F1121.5 X62.327 Y62.045 E14.75132
G1 X62.275 Y62.045 E14.75391
G1 X62.248 Y62 E14.75653
G1 X62.275 Y61.955 E14.75914
G1 X62.327 Y61.955 E14.76173
G0 F6000 X62.301 Y63
G1 F1200 X62.406 Y62.552 E14.78316
G1 X62.593 Y62.292 E14.79807
G1 X62.853 Y62.105 E14.81298
G1 F1191.1 X63.214 Y62 E14.83062
G1 X62.853 Y61.895 E14.84826
G1 F1200 X62.593 Y61.708 E14.86317
G1 X62.406 Y61.448 E14.87808
G1 F1191.1 X62.301 Y61.087 E14.89572
G1 X62.196 Y61.448 E14.91336
G1 F1200 X62.009 Y61.708 E14.92827
G1 X61.749 Y61.895 E14.94319
G1 X61.301 Y62 E14.96461
G1 X61.749 Y62.105 E14.98604
G1 X62.009 Y62.292 E15.00095
G1 X62.196 Y62.552 E15.01586
G1 X62.301 Y63 E15.03729
G1 F1191.1 X62.301 Y76.087 E15.65125
G0 F6000 X61.665 Y76.478
G1 F1200 X61.381 Y76.6 E15.66564
G1 X34.207 Y76.6 E16.93097
G1 X34.018 Y76.53 E16.94036
G1 X33.866 Y76.414 E16.94926
G1 X33.747 Y76.231 E16.95943
G1 X33.701 Y76.077 E16.96691
G1 X33.701 Y63 E17.57583
G1 X33.771 Y62.717 E17.5894
G1 X33.89 Y62.562 E17.5985
G1 X34.248 Y62.401 E17.61678
G1 X61.301 Y62.4 E18.87648
G1 X61.57 Y62.463 E18.88935
G1 X61.726 Y62.575 E18.89829
G1 X61.838 Y62.731 E18.90723
G1 X61.901 Y63 E18.9201
G1 X61.9 Y76.053 E19.5279
G1 X61.804 Y76.33 E19.54155
G1 X61.665 Y76.478 E19.551
G0 F6000 X61.665 Y76.9
G0 X62.129 Y76.828
G0 X62.129 Y62.172
G0 X61.57 Y61.9
G0 X61.57 Y61.537
G1 F1200 X61.301 Y61.6 E19.56387
G1 X34.248 Y61.599 E20.82357
G1 X33.89 Y61.438 E20.84185
G1 X33.771 Y61.283 E20.85095
G1 X33.701 Y61.081 E20.8609
G1 X33.701 Y48 E21.47001
G1 X33.747 Y47.769 E21.48098
G1 X33.866 Y47.586 E21.49114
G1 X34.018 Y47.47 E21.50004
G1 X34.207 Y47.4 E21.50943
G1 X61.412 Y47.4 E22.77621
G1 X61.665 Y47.522 E22.78929
G1 X61.803 Y47.67 E22.79871
G1 X61.901 Y48 E22.81474
G1 X61.9 Y61.053 E23.42254
G1 X61.838 Y61.269 E23.433
G1 X61.726 Y61.425 E23.44195
G1 X61.57 Y61.537 E23.45089
G0 F6000 X62.301 Y61.087
G1 F1191.1 X62.301 Y48 E24.06485
G1 F2700 E19.06485
G0 F6000 X62.473 Y61.828
G0 X91.129 Y62.172
G0 X91.129 Y76.828
G0 X90.395 Y76.9
G0 X90.395 Y76.6
G1 F2700 E24.06485
G1 F1200 X63.19 Y76.6 E25.33162
G1 X62.937 Y76.478 E25.3447
G1 X62.798 Y76.33 E25.35416
G1 X62.702 Y76.053 E25.36781
G1 X62.701 Y63 E25.97561
G1 X62.764 Y62.731 E25.98848
G1 X62.876 Y62.575 E25.99742
G1 X63.032 Y62.463 E26.00636
G1 X63.248 Y62.401 E26.01682
G1 X90.301 Y62.4 E27.27652
G1 X90.712 Y62.562 E27.2971
G1 X90.831 Y62.717 E27.30619
G1 X90.901 Y63 E27.31977
G1 X90.901 Y76.077 E27.92869
G1 X90.855 Y76.231 E27.93617
G1 X90.736 Y76.414 E27.94634
G1 X90.584 Y76.53 E27.95524
G1 X90.395 Y76.6 E27.96463
G0 F6000 X90.395 Y76.9
G0 X91.149 Y77.589
G1 F1200 X90.697 Y77.757 E27.98708
G1 X90.301 Y77.8 E28.00563
G1 X63.301 Y77.8 E29.26286
G1 X62.857 Y77.746 E29.28369
G1 X62.485 Y77.606 E29.3022
G1 X62.301 Y77.49 E29.31232
G1 X61.942 Y77.683 E29.3313
G1 X61.612 Y77.774 E29.34724
G1 X61.301 Y77.8 E29.36177
G1 X34.301 Y77.8 E30.61901
G1 X33.905 Y77.757 E30.63756
G1 X33.453 Y77.589 E30.66001
G1 X32.997 Y77.242 E30.68669
G1 X32.639 Y76.693 E30.71721
G1 F1179.4 X32.52 Y76.313 E30.73608
G1 X32.501 Y76 E30.75093
G1 F1200 X32.501 Y63 E31.35627
G1 F1039 X32.658 Y62.123 E31.40418
G1 F914.3 X32.752 Y62 E31.41365
G1 X32.658 Y61.877 E31.42311
G1 F1021.3 X32.52 Y61.313 E31.45487
G1 F1179.4 X32.501 Y61 E31.46973
G1 F1200 X32.501 Y48 E32.07507
G1 X32.639 Y47.307 E32.10797
G1 X32.997 Y46.758 E32.13849
G1 X33.453 Y46.411 E32.16517
G1 X33.905 Y46.243 E32.18762
G1 X34.301 Y46.2 E32.20617
G1 X61.301 Y46.2 E33.4634
G1 X61.745 Y46.255 E33.48424
G1 X62.117 Y46.394 E33.50273
G1 X62.301 Y46.51 E33.51286
G1 X62.66 Y46.317 E33.53184
G1 X62.99 Y46.226 E33.54778
G1 X63.301 Y46.2 E33.56231
G1 X90.301 Y46.2 E34.81954
G1 X90.697 Y46.243 E34.83809
G1 X91.149 Y46.411 E34.86054
G1 X91.605 Y46.758 E34.88722
G1 X91.963 Y47.307 E34.91774
G1 X92.101 Y48 E34.95065
G1 X92.101 Y61 E35.55598
G1 F1179.4 X92.082 Y61.313 E35.57084
G1 F1021.3 X91.944 Y61.877 E35.6026
G1 F914.3 X91.85 Y62 E35.61207
G1 X91.944 Y62.123 E35.62153
G1 F1039 X92.101 Y63 E35.66944
G1 F1200 X92.101 Y76 E36.27478
G1 F1179.4 X92.082 Y76.313 E36.28963
G1 X91.963 Y76.693 E36.3085
G1 F1200 X91.605 Y77.242 E36.33902
G1 X91.149 Y77.589 E36.3657
G0 F6000 X91.315 Y76.966
G1 F1200 X90.96 Y77.236 E36.38647
G1 X90.609 Y77.366 E36.4039
G1 X90.301 Y77.4 E36.41833
G1 X63.301 Y77.4 E37.67556
G1 X62.956 Y77.358 E37.69174
G1 X62.666 Y77.249 E37.70617
G1 X62.452 Y77.114 E37.71795
G1 X62.301 Y76.953 E37.72823
G1 X62.15 Y77.114 E37.73851
G1 X61.873 Y77.289 E37.75376
G1 X61.47 Y77.4 E37.77323
G1 X34.301 Y77.4 E39.03833
G1 X33.993 Y77.366 E39.05276
G1 X33.642 Y77.236 E39.07019
G1 X33.287 Y76.966 E39.09096
G1 X33.008 Y76.539 E39.11471
G1 X32.901 Y76.174 E39.13242
G1 X32.901 Y63 E39.74586
G1 X33.065 Y62.341 E39.77748
G1 X33.326 Y62 E39.79747
G1 X33.065 Y61.659 E39.81747
G1 X32.901 Y61.184 E39.84087
G1 X32.901 Y48 E40.45477
G1 X33.008 Y47.461 E40.48036
G1 X33.287 Y47.034 E40.50411
G1 X33.642 Y46.764 E40.52488
G1 X33.993 Y46.634 E40.54231
G1 X34.301 Y46.6 E40.55674
G1 X61.301 Y46.6 E41.81397
G1 X61.646 Y46.643 E41.83016
G1 X61.936 Y46.751 E41.84457
G1 X62.15 Y46.885 E41.85632
G1 X62.301 Y47.048 E41.86667
G1 X62.452 Y46.885 E41.87702
G1 X62.666 Y46.751 E41.88877
G1 X63.119 Y46.6 E41.91101
G1 X90.301 Y46.6 E43.17672
G1 X90.609 Y46.634 E43.19114
G1 X90.96 Y46.764 E43.20857
G1 X91.315 Y47.034 E43.22934
G1 X91.594 Y47.461 E43.25309
G1 X91.701 Y48 E43.27868
G1 X91.701 Y61.184 E43.89258
G1 X91.537 Y61.659 E43.91598
G1 X91.276 Y62 E43.93598
G1 X91.537 Y62.341 E43.95597
G1 X91.701 Y63 E43.9876
G1 X91.701 Y76.174 E44.60103
G1 X91.594 Y76.539 E44.61874
G1 X91.315 Y76.966 E44.64249
G0 F6000 X92.291 Y76.309
G0 X92.501 Y82.2
G1 F1200 X92.501 Y76.8 E44.89394
G1 F1179.4 X92.494 Y76.348 E44.91536
G1 X92.501 Y76 E44.93185
G1 F1200 X92.501 Y63 E45.53718
G1 F1039 X92.439 Y62 E45.59107
G1 F1021.3 X92.494 Y61.348 E45.62687
G1 F1179.4 X92.501 Y61 E45.64336
G1 F1200 X92.501 Y41.8 E46.53739
G1 X32.101 Y41.8 E49.34987
G1 X32.101 Y61 E50.2439
G1 F1179.4 X32.108 Y61.348 E50.26039
G1 F1021.3 X32.163 Y62 E50.29619
G1 F1039 X32.101 Y63 E50.35008
G1 F1200 X32.101 Y76 E50.95541
G1 F1179.4 X32.108 Y76.348 E50.9719
G1 X32.101 Y76.8 E50.99332
G1 F1200 X32.101 Y82.2 E51.24477
G1 X92.501 Y82.2 E54.05724
G0 F6000 X92.901 Y82.6
G1 F1200 X92.901 Y41.4 E55.97569
G1 X31.701 Y41.4 E58.82542
G1 X31.701 Y82.6 E60.74386
G1 X92.901 Y82.6 E63.59359
G0 F6000 X93.301 Y83
G1 F1200 X93.301 Y41 E65.54929
G1 X31.301 Y41 E68.43627
G1 X31.301 Y83 E70.39196
G1 X93.301 Y83 E73.27894
G0 F6000 X93.701 Y83.4
G1 F1200 X93.701 Y40.6 E75.27189
G1 X30.901 Y40.6 E78.19612
G1 X30.901 Y83.4 E80.18907
G1 X93.701 Y83.4 E83.1133
G0 F6000 X94.101 Y83.8
;TYPE:WALL-OUTER
G1 F1200 X94.101 Y40.2 E85.1435
G1 X30.501 Y40.2 E88.10498
G1 X30.501 Y83.8 E90.13518
G1 X94.101 Y83.8 E93.09666
G1 F2700 E88.09666
G0 F6000 X93.831 Y83.53
G0 X92.34 Y75.952
G0 X91.201 Y76.138
G0 X90.446 Y76.138
G1 F2700 E93.09666
G1 F1200 X90.345 Y76.196 E93.10208
G1 X63.258 Y76.2 E94.36337
G1 X63.133 Y76.11 E94.37054
G1 X63.101 Y76.018 E94.37508
G1 X63.101 Y62.931 E94.98446
G1 X63.232 Y62.8 E94.99309
G1 X90.301 Y62.8 E96.25353
G1 X90.438 Y62.854 E96.26039
G1 X90.501 Y63 E96.2678
G1 X90.499 Y76.035 E96.87476
G1 X90.446 Y76.138 E96.88015
G1 F2700 E91.88015
G0 F6000 X91.201 Y76.138
G0 X91.129 Y62.172
G0 X90.438 Y61.9
G0 X90.438 Y61.146
G1 F2700 E96.88015
G1 F1200 X90.301 Y61.2 E96.88701
G1 X63.232 Y61.2 E98.14746
G1 X63.101 Y61.069 E98.15608
G1 X63.101 Y48 E98.76463
G1 X63.133 Y47.89 E98.76997
G1 X63.266 Y47.802 E98.77739
G1 X90.345 Y47.804 E100.0383
G1 X90.446 Y47.862 E100.04373
G1 X90.501 Y48 E100.05064
G1 X90.499 Y61.035 E100.65761
G1 X90.438 Y61.146 E100.66351
G1 F2700 E95.66351
G0 F6000 X90.438 Y61.9
G0 X61.37 Y61.9
G0 X61.37 Y61.2
G1 F2700 E100.66351
G1 F1200 X34.283 Y61.2 E101.92479
G1 X34.164 Y61.146 E101.93087
G1 X34.103 Y61.035 E101.93677
G1 X34.101 Y47.946 E102.54625
G1 X34.257 Y47.804 E102.55607
G1 X61.344 Y47.8 E103.81736
G1 X61.469 Y47.89 E103.82453
G1 X61.501 Y48 E103.82986
G1 X61.501 Y61.069 E104.43841
G1 X61.37 Y61.2 E104.44704
G1 F2700 E99.44704
G0 F6000 X61.37 Y61.9
G0 X62.129 Y62.172
G0 X62.201 Y76.11
G0 X61.469 Y76.11
G1 F2700 E104.44704
G1 F1200 X61.336 Y76.198 E104.45446
G1 X34.257 Y76.196 E105.71538
G1 X34.156 Y76.138 E105.7208
G1 X34.103 Y76.035 E105.72619
G1 X34.101 Y63 E106.33316
G1 X34.164 Y62.854 E106.34056
G1 X34.283 Y62.8 E106.34665
G1 X61.37 Y62.8 E107.60793
G1 X61.501 Y62.931 E107.61656
G1 X61.501 Y76.018 E108.22594
G1 X61.469 Y76.11 E108.23048
G1 F2700 E103.23048
G0 F6000 X62.201 Y76.11
G0 X62.473 Y76.828
G0 X91.721 Y77.353
G0 X92.291 Y76.309
G0 X92.401 Y81.84
G0 X92.141 Y81.84
;TYPE:SKIN
G1 F2700 E108.23048
G1 F1200 X32.462 Y81.84 E111.00938
G1 X32.461 Y77.073 E111.23135
G1 X32.736 Y77.493 E111.25473
G1 X33.283 Y77.908 E111.2867
G1 X33.797 Y78.1 E111.31225
G1 X34.283 Y78.159 E111.33505
G1 X61.314 Y78.16 E112.59372
G1 X61.674 Y78.13 E112.61055
G1 X62.054 Y78.025 E112.6289
G1 X62.301 Y77.905 E112.64169
G1 X62.672 Y78.083 E112.66085
G1 X63.278 Y78.159 E112.68929
G1 X90.319 Y78.159 E113.94843
G1 X90.805 Y78.1 E113.97123
G1 X91.319 Y77.908 E113.99678
G1 X91.866 Y77.493 E114.02875
G1 X92.141 Y77.073 E114.05212
G1 X92.141 Y81.84 E114.2741
G0 F6000 X92.401 Y81.84
G0 X92.34 Y76.8
G0 X92.291 Y76.309
G0 X91.6 Y77.369
G0 X91.877 Y77.735
G1 F1200 X91.94 Y77.798 E114.27824
G0 F6000 X91.555 Y77.979
G1 F1200 X91.94 Y78.364 E114.3036
G0 F6000 X91.94 Y78.93
G1 F1200 X91.182 Y78.171 E114.35355
G0 F6000 X90.757 Y78.312
G1 F1200 X91.94 Y79.495 E114.43145
G0 F6000 X91.94 Y80.061
G1 F1200 X90.237 Y78.358 E114.54359
G0 F6000 X89.671 Y78.358
G1 F1200 X91.94 Y80.627 E114.69301
G0 F6000 X91.94 Y81.192
G1 F1200 X89.106 Y78.358 E114.87964
G0 F6000 X88.54 Y78.358
G1 F1200 X91.822 Y81.639 E115.09573
G0 F6000 X91.256 Y81.639
G1 F1200 X87.974 Y78.358 E115.31182
G0 F6000 X87.409 Y78.358
G1 F1200 X90.69 Y81.639 E115.52788
G0 F6000 X90.125 Y81.639
G1 F1200 X86.843 Y78.358 E115.74397
G0 F6000 X86.277 Y78.358
G1 F1200 X89.559 Y81.639 E115.96006
G0 F6000 X88.993 Y81.639
G1 F1200 X85.711 Y78.358 E116.17616
G0 F6000 X85.146 Y78.358
G1 F1200 X88.427 Y81.639 E116.39222
G0 F6000 X87.862 Y81.639
G1 F1200 X84.58 Y78.358 E116.60831
G0 F6000 X84.014 Y78.358
G1 F1200 X87.296 Y81.639 E116.8244
G0 F6000 X86.73 Y81.639
G1 F1200 X83.449 Y78.358 E117.04046
G0 F6000 X82.883 Y78.358
G1 F1200 X86.165 Y81.639 E117.25655
G0 F6000 X85.599 Y81.639
G1 F1200 X82.317 Y78.358 E117.47265
G0 F6000 X81.752 Y78.358
G1 F1200 X85.033 Y81.639 E117.6887
G0 F6000 X84.468 Y81.639
G1 F1200 X81.186 Y78.358 E117.9048
G0 F6000 X80.62 Y78.358
G1 F1200 X83.902 Y81.639 E118.12089
G0 F6000 X83.336 Y81.639
G1 F1200 X80.055 Y78.358 E118.33695
G0 F6000 X79.489 Y78.358
G1 F1200 X82.771 Y81.639 E118.55304
G0 F6000 X82.205 Y81.639
G1 F1200 X78.923 Y78.358 E118.76913
G0 F6000 X78.358 Y78.358
G1 F1200 X81.639 Y81.639 E118.98519
G0 F6000 X81.074 Y81.639
G1 F1200 X77.792 Y78.358 E119.20129
G0 F6000 X77.226 Y78.358
G1 F1200 X80.508 Y81.639 E119.41738
G0 F6000 X79.942 Y81.639
G1 F1200 X76.66 Y78.358 E119.63347
G0 F6000 X76.095 Y78.358
G1 F1200 X79.376 Y81.639 E119.84953
G0 F6000 X78.811 Y81.639
G1 F1200 X75.529 Y78.358 E120.06562
G0 F6000 X74.963 Y78.358
G1 F1200 X78.245 Y81.639 E120.28171
G0 F6000 X77.679 Y81.639
G1 F1200 X74.398 Y78.358 E120.49777
G0 F6000 X73.832 Y78.358
G1 F1200 X77.114 Y81.639 E120.71387
G0 F6000 X76.548 Y81.639
G1 F1200 X73.266 Y78.358 E120.92996
G0 F6000 X72.701 Y78.358
G1 F1200 X75.982 Y81.639 E121.14602
G0 F6000 X75.417 Y81.639
G1 F1200 X72.135 Y78.358 E121.36211
G0 F6000 X71.569 Y78.358
G1 F1200 X74.851 Y81.639 E121.5782
G0 F6000 X74.285 Y81.639
G1 F1200 X71.004 Y78.358 E121.79426
G0 F6000 X70.438 Y78.358
G1 F1200 X73.72 Y81.639 E122.01035
G0 F6000 X73.154 Y81.639
G1 F1200 X69.872 Y78.358 E122.22645
G0 F6000 X69.307 Y78.358
G1 F1200 X72.588 Y81.639 E122.44251
G0 F6000 X72.023 Y81.639
G1 F1200 X68.741 Y78.358 E122.6586
G0 F6000 X68.175 Y78.358
G1 F1200 X71.457 Y81.639 E122.87469
G0 F6000 X70.891 Y81.639
G1 F1200 X67.61 Y78.358 E123.09075
G0 F6000 X67.044 Y78.358
G1 F1200 X70.326 Y81.639 E123.30684
G0 F6000 X69.76 Y81.639
G1 F1200 X66.478 Y78.358 E123.52294
G0 F6000 X65.912 Y78.358
G1 F1200 X69.194 Y81.639 E123.73903
G0 F6000 X68.628 Y81.639
G1 F1200 X65.347 Y78.358 E123.95509
G0 F6000 X64.781 Y78.358
G1 F1200 X68.063 Y81.639 E124.17118
G0 F6000 X67.497 Y81.639
G1 F1200 X64.215 Y78.358 E124.38727
G0 F6000 X63.65 Y78.358
G1 F1200 X66.931 Y81.639 E124.60333
G0 F6000 X66.366 Y81.639
G1 F1200 X63.059 Y78.332 E124.8211
G0 F6000 X62.293 Y78.132
G1 F1200 X65.8 Y81.639 E125.05205
G0 F6000 X65.234 Y81.639
G1 F1200 X61.876 Y78.28 E125.27321
G0 F6000 X61.383 Y78.354
G1 F1200 X64.669 Y81.639 E125.48956
G0 F6000 X64.103 Y81.639
G1 F1200 X60.822 Y78.358 E125.70562
G0 F6000 X60.256 Y78.358
G1 F1200 X63.537 Y81.639 E125.92168
G0 F6000 X62.972 Y81.639
G1 F1200 X59.691 Y78.358 E126.13774
G0 F6000 X59.125 Y78.358
G1 F1200 X62.406 Y81.639 E126.3538
G0 F6000 X61.84 Y81.639
G1 F1200 X58.559 Y78.358 E126.56986
G0 F6000 X57.994 Y78.358
