;FLAVOR:Marlin
;TIME:7758
;Filament used: 1.32298m
;Layer height: 0.12
;MINX:74.508
;MINY:74.509
;MINZ:0.12
;MAXX:160.492
;MAXY:160.491
;MAXZ:3.96
;Generated with Cura_SteamEngine 5.4.0
M140 S50
M105
M190 S50
M104 S200
M105
M109 S200
M82 ;absolute extrusion mode
; Ender 3 Custom Start G-code
G92 E0 ; Reset Extruder
G28 ; Home all axes
G1 Z2.0 F3000 ; Move Z Axis up little to prevent scratching of Heat Bed
G1 X0.1 Y20 Z0.3 F5000.0 ; Move to start position
G1 X0.1 Y200.0 Z0.3 F1500.0 E15 ; Draw the first line
G1 X0.4 Y200.0 Z0.3 F5000.0 ; Move to side a little
G1 X0.4 Y20 Z0.3 F1500.0 E30 ; Draw the second line
G92 E0 ; Reset Extruder
G1 Z2.0 F3000 ; Move Z Axis up little to prevent scratching of Heat Bed
G1 X5 Y20 Z0.3 F5000.0 ; Move over to prevent blob squish
G92 E0
G92 E0
G1 F2700 E-5
;LAYER_COUNT:33
;LAYER:0
M107
G0 F6000 X86.708 Y87.496 Z0.12
;TYPE:SKIRT
G1 F2700 E0
G1 F1200 X87.549 Y86.658 E0.02369
G1 X88.398 Y85.854 E0.04703
G1 X89.14 Y85.186 E0.06695
G1 X89.776 Y84.638 E0.0837
G1 X90.798 Y83.804 E0.11003
G1 X91.6 Y83.183 E0.13027
G1 X92.231 Y82.714 E0.14596
G1 X93.094 Y82.105 E0.16704
G1 X94.047 Y81.466 E0.18994
G1 X95.036 Y80.841 E0.21328
G1 X96.027 Y80.252 E0.23629
G1 X96.93 Y79.747 E0.25694
G1 X97.835 Y79.267 E0.27738
G1 X98.53 Y78.917 E0.29291
G1 X99.811 Y78.313 E0.32117
G1 X100.698 Y77.924 E0.3405
G1 X101.668 Y77.527 E0.36142
G1 X102.447 Y77.227 E0.37807
G1 X103.605 Y76.814 E0.40261
G1 X104.487 Y76.523 E0.42114
G1 X105.666 Y76.167 E0.44572
G1 X106.76 Y75.87 E0.46834
G1 X107.726 Y75.633 E0.48819
G1 X108.542 Y75.451 E0.50488
G1 X109.738 Y75.213 E0.52921
G1 X110.815 Y75.029 E0.55102
G1 X111.916 Y74.87 E0.57322
G1 X112.868 Y74.757 E0.59235
G1 X114.04 Y74.646 E0.61584
G1 X114.942 Y74.582 E0.63389
G1 X115.899 Y74.536 E0.65301
G1 X117.044 Y74.509 E0.67586
G1 X118 Y74.509 E0.69494
G1 X118.948 Y74.529 E0.71386
G1 X120.117 Y74.586 E0.73722
G1 X121.279 Y74.672 E0.76047
G1 X122.486 Y74.795 E0.78468
G1 X123.425 Y74.915 E0.80357
G1 X124.262 Y75.041 E0.82047
G1 X125.255 Y75.212 E0.84057
G1 X126.339 Y75.425 E0.86262
G1 X127.596 Y75.707 E0.88833
G1 X128.566 Y75.955 E0.90831
G1 X129.714 Y76.277 E0.9321
G1 X130.586 Y76.546 E0.95031
G1 X131.704 Y76.921 E0.97385
G1 X132.362 Y77.157 E0.9878
G1 X133.644 Y77.652 E1.01522
G1 X134.365 Y77.951 E1.0308
G1 X135.541 Y78.474 E1.05648
G1 X136.315 Y78.842 E1.07358
G1 X137.463 Y79.421 E1.09924
G1 X138.377 Y79.915 E1.11998
G1 X139.061 Y80.303 E1.13567
G1 X140.177 Y80.973 E1.16165
G1 X141.064 Y81.538 E1.18263
G1 X141.963 Y82.143 E1.20426
G1 X142.794 Y82.733 E1.2246
G1 X143.501 Y83.26 E1.24219
G1 X144.302 Y83.882 E1.26243
G1 X145.047 Y84.49 E1.28162
G1 X146.158 Y85.449 E1.31091
G1 X146.859 Y86.091 E1.32988
G1 X147.628 Y86.83 E1.35116
G1 X148.364 Y87.569 E1.37198
G1 X149.124 Y88.371 E1.39403
G1 X149.751 Y89.068 E1.41274
G1 X150.487 Y89.926 E1.43529
G1 X151.173 Y90.769 E1.45698
G1 X151.646 Y91.375 E1.47233
G1 X152.255 Y92.19 E1.49263
G1 X153.036 Y93.3 E1.51971
G1 X153.599 Y94.149 E1.54004
G1 X154.184 Y95.076 E1.56192
G1 X154.591 Y95.756 E1.57773
G1 X155.216 Y96.859 E1.60303
G1 X155.745 Y97.856 E1.62556
G1 X156.191 Y98.751 E1.64551
G1 X156.642 Y99.713 E1.66671
G1 X157.087 Y100.722 E1.68872
G1 X157.355 Y101.373 E1.70277
G1 X157.859 Y102.681 E1.73074
G1 X158.194 Y103.629 E1.75081
G1 X158.536 Y104.674 E1.77275
G1 X158.821 Y105.62 E1.79247
G1 X159.104 Y106.657 E1.81392
G1 X159.38 Y107.771 E1.83682
G1 X159.573 Y108.656 E1.8549
G1 X159.798 Y109.8 E1.87817
G1 X159.974 Y110.833 E1.89908
G1 X160.126 Y111.885 E1.92029
G1 X160.24 Y112.839 E1.93946
G1 X160.346 Y113.938 E1.9615
G1 X160.424 Y115.03 E1.98334
G1 X160.47 Y116.048 E2.00368
G1 X160.492 Y117.074 E2.02416
G1 X160.489 Y118.187 E2.04637
G1 X160.459 Y119.253 E2.06765
G1 X160.421 Y120.009 E2.08276
G1 X160.327 Y121.269 E2.10797
G1 X160.189 Y122.616 E2.13499
G1 X160.094 Y123.358 E2.14992
G1 X159.923 Y124.488 E2.17273
G1 X159.746 Y125.482 E2.19288
G1 X159.52 Y126.604 E2.21572
G1 X159.308 Y127.536 E2.23479
G1 X159.043 Y128.573 E2.25615
G1 X158.736 Y129.668 E2.27885
G1 X158.461 Y130.562 E2.29751
G1 X158.089 Y131.677 E2.32097
G1 X157.776 Y132.546 E2.3394
G1 X157.348 Y133.645 E2.36294
G1 X157.077 Y134.3 E2.37708
G1 X156.53 Y135.534 E2.40402
G1 X156.184 Y136.265 E2.42016
G1 X155.735 Y137.163 E2.4402
G1 X155.081 Y138.387 E2.46789
G1 X154.585 Y139.253 E2.48781
G1 X154.042 Y140.152 E2.50876
G1 X153.449 Y141.082 E2.53078
G1 X152.857 Y141.962 E2.55194
G1 X152.247 Y142.82 E2.57295
G1 X151.624 Y143.654 E2.59372
G1 X151.007 Y144.439 E2.61365
G1 X150.319 Y145.272 E2.63521
G1 X149.563 Y146.144 E2.65824
G1 X148.967 Y146.796 E2.67587
G1 X148.292 Y147.504 E2.69539
G1 X147.451 Y148.342 E2.71908
G1 X146.607 Y149.143 E2.7423
G1 X146.065 Y149.633 E2.75688
G1 X145.011 Y150.539 E2.78462
G1 X144.226 Y151.178 E2.80482
G1 X143.433 Y151.792 E2.82483
G1 X142.58 Y152.421 E2.84598
G1 X141.683 Y153.047 E2.86781
G1 X140.758 Y153.661 E2.88997
G1 X139.958 Y154.163 E2.90882
G1 X138.988 Y154.74 E2.93134
G1 X138.124 Y155.225 E2.95111
G1 X137.312 Y155.657 E2.96947
G1 X136.273 Y156.18 E2.99268
G1 X135.433 Y156.577 E3.01122
G1 X134.309 Y157.073 E3.03574
G1 X133.35 Y157.466 E3.05642
G1 X132.524 Y157.784 E3.07409
G1 X131.381 Y158.19 E3.09829
G1 X130.307 Y158.542 E3.12085
G1 X129.59 Y158.76 E3.1358
G1 X128.299 Y159.115 E3.16252
G1 X127.202 Y159.385 E3.18507
G1 X126.51 Y159.54 E3.19922
G1 X125.504 Y159.743 E3.2197
G1 X124.47 Y159.926 E3.24065
G1 X123.356 Y160.093 E3.26313
G1 X122.146 Y160.241 E3.28746
G1 X120.928 Y160.358 E3.31188
G1 X120.257 Y160.407 E3.3253
G1 X118.895 Y160.471 E3.35251
G1 X117.926 Y160.491 E3.37186
G1 X116.736 Y160.488 E3.3956
G1 X115.794 Y160.459 E3.41441
G1 X114.907 Y160.415 E3.43213
G1 X113.961 Y160.348 E3.45106
G1 X112.797 Y160.236 E3.4744
G1 X111.534 Y160.08 E3.49979
G1 X110.779 Y159.966 E3.51503
G1 X109.46 Y159.736 E3.54175
G1 X108.416 Y159.525 E3.563
G1 X107.488 Y159.313 E3.582
G1 X106.617 Y159.093 E3.59993
G1 X105.306 Y158.729 E3.62708
G1 X104.413 Y158.453 E3.64573
G1 X103.32 Y158.088 E3.66873
G1 X102.419 Y157.762 E3.68785
G1 X101.337 Y157.34 E3.71103
G1 X100.418 Y156.955 E3.73091
G1 X99.45 Y156.522 E3.75207
G1 X98.439 Y156.039 E3.77443
G1 X97.597 Y155.611 E3.79328
G1 X96.603 Y155.075 E3.81582
G1 X95.917 Y154.684 E3.83158
G1 X94.818 Y154.024 E3.85716
G1 X93.911 Y153.446 E3.87862
G1 X93.048 Y152.864 E3.89939
G1 X92.185 Y152.252 E3.92051
G1 X91.34 Y151.618 E3.94159
G1 X90.502 Y150.959 E3.96286
G1 X89.902 Y150.468 E3.97834
G1 X88.862 Y149.568 E4.00578
G1 X88.279 Y149.038 E4.02151
G1 X87.598 Y148.393 E4.04022
G1 X86.598 Y147.394 E4.06843
G1 X85.923 Y146.679 E4.08805
G1 X85.204 Y145.881 E4.10949
G1 X84.478 Y145.033 E4.13177
G1 X83.995 Y144.444 E4.14697
G1 X83.349 Y143.618 E4.16789
G1 X82.582 Y142.585 E4.19357
G1 X81.947 Y141.677 E4.21568
G1 X81.507 Y141.016 E4.23153
G1 X80.804 Y139.905 E4.25777
G1 X80.43 Y139.28 E4.2723
G1 X79.752 Y138.084 E4.29974
G1 X79.413 Y137.448 E4.31412
G1 X78.793 Y136.216 E4.34164
G1 X78.349 Y135.268 E4.36253
G1 X77.913 Y134.277 E4.38414
G1 X77.643 Y133.621 E4.3983
G1 X77.13 Y132.291 E4.42674
G1 X76.822 Y131.421 E4.44516
G1 X76.464 Y130.328 E4.46811
G1 X76.171 Y129.355 E4.48839
G1 X75.953 Y128.561 E4.50482
G1 X75.618 Y127.22 E4.53241
G1 X75.429 Y126.353 E4.55011
G1 X75.205 Y125.222 E4.57312
G1 X75.075 Y124.478 E4.5882
G1 X74.868 Y123.07 E4.6166
G1 X74.757 Y122.14 E4.63529
G1 X74.648 Y120.996 E4.65822
G1 X74.578 Y120.006 E4.67803
G1 X74.529 Y118.923 E4.69966
G1 X74.508 Y117.921 E4.71966
G1 X74.511 Y116.799 E4.74205
G1 X74.54 Y115.755 E4.76289
G1 X74.577 Y115.01 E4.77778
G1 X74.656 Y113.917 E4.79965
G1 X74.789 Y112.569 E4.82668
G1 X74.876 Y111.862 E4.84089
G1 X75.079 Y110.501 E4.86836
G1 X75.209 Y109.76 E4.88337
G1 X75.48 Y108.402 E4.911
G1 X75.685 Y107.496 E4.92954
G1 X75.969 Y106.381 E4.9525
G1 X76.185 Y105.602 E4.96863
G1 X76.462 Y104.675 E4.98794
G1 X76.923 Y103.287 E5.01713
G1 X77.229 Y102.442 E5.03506
G1 X77.654 Y101.352 E5.05841
G1 X78.019 Y100.48 E5.07728
G1 X78.476 Y99.455 E5.09967
G1 X78.914 Y98.535 E5.12001
G1 X79.419 Y97.54 E5.14227
G1 X79.759 Y96.904 E5.15666
G1 X80.43 Y95.719 E5.18384
G1 X80.843 Y95.033 E5.19982
G1 X81.564 Y93.897 E5.22667
G1 X82.115 Y93.078 E5.24637
G1 X82.755 Y92.174 E5.26847
G1 X83.22 Y91.551 E5.28399
G1 X83.989 Y90.565 E5.30894
G1 X84.696 Y89.708 E5.33111
G1 X85.266 Y89.048 E5.34851
G1 X86.033 Y88.204 E5.37127
G1 X86.708 Y87.496 E5.39079
G0 F6000 X86.991 Y87.779
G1 F1200 X87.824 Y86.948 E5.41428
G1 X88.665 Y86.151 E5.4374
G1 X89.401 Y85.489 E5.45715
G1 X90.029 Y84.948 E5.47369
G1 X91.043 Y84.12 E5.49982
G1 X91.838 Y83.504 E5.51989
G1 X92.462 Y83.041 E5.53539
G1 X93.317 Y82.437 E5.55629
G1 X94.261 Y81.804 E5.57897
G1 X95.241 Y81.185 E5.6021
G1 X96.222 Y80.601 E5.62488
G1 X97.117 Y80.1 E5.64535
G1 X98.015 Y79.624 E5.66563
G1 X98.701 Y79.279 E5.68096
G1 X99.972 Y78.679 E5.70901
G1 X100.849 Y78.294 E5.72812
G1 X101.812 Y77.9 E5.74888
G1 X102.581 Y77.604 E5.76533
G1 X103.73 Y77.194 E5.78967
G1 X104.603 Y76.906 E5.80802
G1 X105.771 Y76.553 E5.83237
G1 X106.855 Y76.258 E5.85479
G1 X107.813 Y76.023 E5.87447
G1 X108.62 Y75.843 E5.89097
G1 X109.805 Y75.607 E5.91508
G1 X110.872 Y75.425 E5.93668
G1 X111.963 Y75.267 E5.95868
G1 X112.906 Y75.155 E5.97763
G1 X114.068 Y75.045 E6.00093
G1 X114.961 Y74.982 E6.01879
G1 X115.908 Y74.936 E6.03771
G1 X117.053 Y74.909 E6.06057
G1 X117.991 Y74.909 E6.07929
G1 X118.929 Y74.929 E6.09801
G1 X120.088 Y74.985 E6.12117
G1 X121.238 Y75.07 E6.14418
G1 X122.435 Y75.192 E6.16819
G1 X123.366 Y75.311 E6.18692
G1 X124.194 Y75.435 E6.20363
G1 X125.178 Y75.604 E6.22355
G1 X126.251 Y75.815 E6.24538
G1 X127.497 Y76.095 E6.27086
G1 X128.458 Y76.34 E6.29065
G1 X129.596 Y76.659 E6.31424
G1 X130.459 Y76.925 E6.33226
G1 X131.569 Y77.297 E6.35562
G1 X132.218 Y77.53 E6.36938
G1 X133.491 Y78.022 E6.39662
G1 X134.203 Y78.317 E6.412
G1 X135.369 Y78.835 E6.43746
G1 X136.135 Y79.199 E6.45438
G1 X137.273 Y79.773 E6.47982
G1 X138.18 Y80.263 E6.50039
G1 X138.855 Y80.646 E6.51588
G1 X139.962 Y81.31 E6.54164
G1 X140.841 Y81.87 E6.56244
G1 X141.731 Y82.469 E6.58385
G1 X142.555 Y83.054 E6.60401
G1 X143.256 Y83.576 E6.62146
G1 X144.049 Y84.192 E6.6415
G1 X144.786 Y84.793 E6.66047
G1 X145.888 Y85.744 E6.68952
G1 X146.582 Y86.379 E6.70829
G1 X147.345 Y87.112 E6.72941
G1 X148.074 Y87.844 E6.75002
G1 X148.827 Y88.639 E6.77188
G1 X149.447 Y89.328 E6.79037
G1 X150.177 Y90.179 E6.81275
G1 X150.858 Y91.015 E6.83427
G1 X151.326 Y91.615 E6.84945
G1 X151.928 Y92.42 E6.86951
G1 X152.703 Y93.521 E6.89638
G1 X153.261 Y94.362 E6.91652
G1 X153.841 Y95.282 E6.93823
G1 X154.243 Y95.953 E6.95383
G1 X154.863 Y97.046 E6.97891
G1 X155.387 Y98.034 E7.00123
G1 X155.829 Y98.921 E7.02101
G1 X156.276 Y99.874 E7.04201
G1 X156.717 Y100.875 E7.06384
G1 X156.982 Y101.517 E7.0777
G1 X157.482 Y102.814 E7.10544
G1 X157.814 Y103.753 E7.12532
G1 X158.153 Y104.789 E7.14707
G1 X158.435 Y105.726 E7.1666
G1 X158.716 Y106.753 E7.18785
G1 X158.989 Y107.857 E7.21054
G1 X159.181 Y108.733 E7.22844
G1 X159.404 Y109.867 E7.2515
G1 X159.578 Y110.89 E7.27221
G1 X159.729 Y111.933 E7.29324
G1 X159.842 Y112.877 E7.31221
G1 X159.947 Y113.966 E7.33405
G1 X160.024 Y115.048 E7.35569
G1 X160.07 Y116.057 E7.37585
G1 X160.092 Y117.073 E7.39613
G1 X160.089 Y118.176 E7.41814
G1 X160.059 Y119.233 E7.43924
G1 X160.022 Y119.979 E7.45415
G1 X159.929 Y121.228 E7.47914
G1 X159.792 Y122.565 E7.50596
G1 X159.698 Y123.298 E7.52071
G1 X159.529 Y124.418 E7.54332
G1 X159.354 Y125.403 E7.56328
G1 X159.13 Y126.515 E7.58592
G1 X158.92 Y127.437 E7.60479
G1 X158.658 Y128.465 E7.62596
G1 X158.354 Y129.55 E7.64845
G1 X158.081 Y130.436 E7.66695
G1 X157.713 Y131.541 E7.69019
G1 X157.403 Y132.401 E7.70843
G1 X156.979 Y133.492 E7.73179
G1 X156.711 Y134.138 E7.74575
G1 X156.168 Y135.363 E7.77249
G1 X155.826 Y136.086 E7.78845
G1 X155.382 Y136.975 E7.80828
G1 X154.734 Y138.188 E7.83572
G1 X154.243 Y139.046 E7.85545
G1 X153.705 Y139.937 E7.87622
G1 X153.117 Y140.859 E7.89805
G1 X152.531 Y141.73 E7.91899
G1 X151.926 Y142.581 E7.93983
G1 X151.31 Y143.407 E7.96039
G1 X150.699 Y144.184 E7.98012
G1 X150.017 Y145.01 E8.0015
G1 X149.268 Y145.874 E8.02432
G1 X148.677 Y146.52 E8.04179
G1 X148.009 Y147.221 E8.06111
G1 X147.176 Y148.052 E8.08459
G1 X146.339 Y148.846 E8.10762
G1 X145.804 Y149.33 E8.12201
G1 X144.759 Y150.229 E8.14952
G1 X143.981 Y150.862 E8.16954
G1 X143.196 Y151.47 E8.18935
G1 X142.351 Y152.093 E8.2103
G1 X141.462 Y152.714 E8.23194
G1 X140.545 Y153.322 E8.2539
G1 X139.753 Y153.819 E8.27256
G1 X138.792 Y154.391 E8.29488
G1 X137.936 Y154.872 E8.31447
G1 X137.132 Y155.3 E8.33265
G1 X136.102 Y155.818 E8.35566
G1 X135.271 Y156.211 E8.374
G1 X134.157 Y156.703 E8.3983
G1 X133.206 Y157.093 E8.41882
G1 X132.39 Y157.407 E8.43626
G1 X131.257 Y157.81 E8.46026
G1 X130.191 Y158.159 E8.48265
G1 X129.484 Y158.374 E8.49739
G1 X128.203 Y158.727 E8.52391
G1 X127.115 Y158.995 E8.54627
G1 X126.431 Y159.148 E8.56026
G1 X125.434 Y159.349 E8.58055
G1 X124.41 Y159.53 E8.60131
G1 X123.307 Y159.696 E8.62357
G1 X122.108 Y159.843 E8.64767
G1 X120.899 Y159.959 E8.67191
G1 X120.238 Y160.007 E8.68514
G1 X118.887 Y160.071 E8.71213
G1 X117.927 Y160.091 E8.73129
G1 X116.748 Y160.088 E8.75482
G1 X115.814 Y160.06 E8.77346
G1 X114.935 Y160.016 E8.79103
G1 X113.999 Y159.95 E8.80975
G1 X112.846 Y159.839 E8.83287
G1 X111.593 Y159.684 E8.85806
G1 X110.848 Y159.572 E8.8731
G1 X109.539 Y159.344 E8.89961
G1 X108.505 Y159.135 E8.92067
G1 X107.586 Y158.925 E8.93948
G1 X106.724 Y158.708 E8.95722
G1 X105.424 Y158.347 E8.98414
G1 X104.54 Y158.074 E9.00261
G1 X103.456 Y157.712 E9.02541
G1 X102.564 Y157.389 E9.04434
G1 X101.491 Y156.971 E9.06732
G1 X100.581 Y156.59 E9.08701
G1 X99.622 Y156.161 E9.10798
G1 X98.62 Y155.683 E9.13013
G1 X97.787 Y155.259 E9.14879
G1 X96.801 Y154.727 E9.17114
G1 X96.123 Y154.341 E9.18671
G1 X95.033 Y153.687 E9.21208
G1 X94.135 Y153.114 E9.23334
G1 X93.272 Y152.532 E9.25411
G1 X92.425 Y151.932 E9.27482
G1 X91.587 Y151.304 E9.29572
G1 X90.755 Y150.65 E9.31684
G1 X90.164 Y150.166 E9.33209
G1 X89.131 Y149.272 E9.35935
G1 X88.554 Y148.747 E9.37492
G1 X87.881 Y148.11 E9.39341
G1 X86.889 Y147.119 E9.42139
G1 X86.22 Y146.411 E9.44083
G1 X85.508 Y145.621 E9.46205
G1 X84.787 Y144.779 E9.48417
G1 X84.31 Y144.198 E9.49918
G1 X83.67 Y143.38 E9.5199
G1 X82.91 Y142.356 E9.54535
G1 X82.28 Y141.455 E9.56729
G1 X81.845 Y140.802 E9.58295
G1 X81.147 Y139.699 E9.609
G1 X80.778 Y139.083 E9.62333
G1 X80.105 Y137.896 E9.65056
G1 X79.77 Y137.268 E9.66476
G1 X79.155 Y136.046 E9.69206
G1 X78.715 Y135.107 E9.71276
G1 X78.283 Y134.124 E9.73418
G1 X78.016 Y133.477 E9.74815
G1 X77.507 Y132.157 E9.77638
G1 X77.202 Y131.297 E9.79459
G1 X76.847 Y130.213 E9.81736
G1 X76.557 Y129.249 E9.83745
G1 X76.341 Y128.464 E9.85369
G1 X76.009 Y127.135 E9.88103
G1 X75.821 Y126.275 E9.8986
G1 X75.599 Y125.153 E9.92142
G1 X75.471 Y124.42 E9.93627
G1 X75.265 Y123.023 E9.96445
G1 X75.155 Y122.102 E9.98296
G1 X75.047 Y120.968 E10.00569
G1 X74.978 Y119.988 E10.0253
G1 X74.929 Y118.915 E10.04674
G1 X74.908 Y117.922 E10.06656
G1 X74.911 Y116.81 E10.08875
G1 X74.939 Y115.775 E10.10941
G1 X74.976 Y115.039 E10.12412
G1 X75.054 Y113.956 E10.14578
G1 X75.186 Y112.618 E10.17262
G1 X75.272 Y111.921 E10.18663
G1 X75.473 Y110.57 E10.21389
G1 X75.601 Y109.838 E10.22872
G1 X75.87 Y108.49 E10.25615
G1 X76.073 Y107.594 E10.27448
G1 X76.354 Y106.488 E10.29725
G1 X76.568 Y105.717 E10.31322
G1 X76.842 Y104.801 E10.3323
G1 X77.299 Y103.423 E10.36127
G1 X77.602 Y102.587 E10.37902
G1 X78.023 Y101.506 E10.40217
G1 X78.384 Y100.643 E10.42084
G1 X78.837 Y99.627 E10.44304
G1 X79.271 Y98.716 E10.46318
G1 X79.772 Y97.728 E10.48528
G1 X80.107 Y97.101 E10.49947
G1 X80.773 Y95.925 E10.52644
G1 X81.181 Y95.247 E10.54223
G1 X81.896 Y94.12 E10.56887
G1 X82.442 Y93.309 E10.58838
G1 X83.076 Y92.413 E10.61028
G1 X83.535 Y91.797 E10.62561
G1 X84.298 Y90.819 E10.65036
G1 X84.999 Y89.969 E10.67235
G1 X85.562 Y89.317 E10.68954
G1 X86.323 Y88.48 E10.71212
G1 X86.991 Y87.779 E10.73144
G0 F6000 X87.274 Y88.062
G1 F1200 X88.099 Y87.238 E10.75471
G1 X88.933 Y86.448 E10.77764
G1 X89.662 Y85.792 E10.79721
G1 X90.282 Y85.258 E10.81354
G1 X91.288 Y84.436 E10.83946
G1 X92.076 Y83.825 E10.85936
