;FLAVOR:Marlin
;TIME:9958
;Filament used: 1.9711m
;Layer height: 0.12
;MINX:72.009
;MINY:26
;MINZ:0.12
;MAXX:162.989
;MAXY:209
;MAXZ:4.44
;Generated with Cura_SteamEngine 5.4.0
M140 S50
M105
M190 S50
M104 S200
M105
M109 S200
M82 ;absolute extrusion mode
; Ender 3 Custom Start G-code
G92 E0 ; Reset Extruder
G28 ; Home all axes
G1 Z2.0 F3000 ; Move Z Axis up little to prevent scratching of Heat Bed
G1 X0.1 Y20 Z0.3 F5000.0 ; Move to start position
G1 X0.1 Y200.0 Z0.3 F1500.0 E15 ; Draw the first line
G1 X0.4 Y200.0 Z0.3 F5000.0 ; Move to side a little
G1 X0.4 Y20 Z0.3 F1500.0 E30 ; Draw the second line
G92 E0 ; Reset Extruder
G1 Z2.0 F3000 ; Move Z Axis up little to prevent scratching of Heat Bed
G1 X5 Y20 Z0.3 F5000.0 ; Move over to prevent blob squish
G92 E0
G92 E0
G1 F2700 E-5
;LAYER_COUNT:37
;LAYER:0
M107
G0 F6000 X103.323 Y34.509 Z0.12
;TYPE:SKIRT
G1 F2700 E0
G1 F1200 X103.67 Y33.637 E0.01873
G1 X104.125 Y32.735 E0.03889
G1 X104.641 Y31.909 E0.05833
G1 X105.227 Y31.132 E0.07775
G1 X105.883 Y30.405 E0.09729
G1 X106.668 Y29.684 E0.11856
G1 X107.346 Y29.128 E0.13606
G1 X108.296 Y28.385 E0.16012
G1 X109.09 Y27.82 E0.17957
G1 X109.868 Y27.362 E0.19759
G1 X110.813 Y26.915 E0.21845
G1 X111.727 Y26.579 E0.23788
G1 X112.635 Y26.333 E0.25666
G1 X113.763 Y26.139 E0.2795
G1 X114.256 Y26.081 E0.2894
G1 X115.206 Y26.013 E0.30841
G1 X115.83 Y26 E0.32087
G1 X118.964 Y26.001 E0.38341
G1 X119.707 Y26.014 E0.39824
G1 X120.68 Y26.075 E0.41769
G1 X121.642 Y26.222 E0.43711
G1 X122.572 Y26.448 E0.45621
G1 X123.024 Y26.59 E0.46567
G1 X124.012 Y26.927 E0.4865
G1 X124.542 Y27.122 E0.49777
G1 X125.455 Y27.507 E0.51754
G1 X126.316 Y27.963 E0.53699
G1 X127.131 Y28.493 E0.55639
G1 X127.872 Y29.07 E0.57513
G1 X128.609 Y29.76 E0.59528
G1 X129.236 Y30.459 E0.61402
G1 X129.84 Y31.267 E0.63415
G1 X130.344 Y32.082 E0.65327
G1 X130.599 Y32.567 E0.66421
G1 X131.158 Y33.704 E0.68949
G1 X131.479 Y34.397 E0.70473
G1 X131.847 Y35.3 E0.72419
G1 X132.133 Y36.23 E0.74361
G1 X132.337 Y37.181 E0.76302
G1 X132.449 Y38.077 E0.78104
G1 X132.486 Y38.773 E0.79495
G1 X132.5 Y39.563 E0.81071
G1 X132.5 Y112.649 E2.26922
G1 X132.537 Y115.221 E2.32056
G1 X132.646 Y117.786 E2.37179
G1 X132.82 Y120.249 E2.42106
G1 X133.069 Y122.766 E2.47154
G1 X133.39 Y125.274 E2.522
G1 X133.776 Y127.735 E2.57171
G1 X134.234 Y130.2 E2.62174
G1 X134.771 Y132.692 E2.67261
G1 X135.364 Y135.116 E2.72241
G1 X136.035 Y137.56 E2.77299
G1 X136.768 Y139.951 E2.8229
G1 X137.579 Y142.353 E2.87349
G1 X138.453 Y144.724 E2.92392
G1 X139.371 Y147.009 E2.97306
G1 X140.403 Y149.38 E3.02467
G1 X141.464 Y151.646 E3.0746
G1 X142.583 Y153.868 E3.12425
G1 X143.793 Y156.106 E3.17502
G1 X145.031 Y158.254 E3.22449
G1 X146.357 Y160.411 E3.27502
G1 X147.739 Y162.524 E3.32541
G1 X149.18 Y164.591 E3.37569
G1 X150.671 Y166.609 E3.42576
G1 X153.092 Y169.663 E3.50353
G1 X153.785 Y170.556 E3.52609
G1 X154.451 Y171.46 E3.5485
G1 X154.945 Y172.161 E3.56561
G1 X155.725 Y173.332 E3.59369
G1 X156.294 Y174.233 E3.61496
G1 X156.872 Y175.206 E3.63754
G1 X157.313 Y175.983 E3.65537
G1 X157.946 Y177.168 E3.68218
G1 X158.427 Y178.131 E3.70366
G1 X158.943 Y179.23 E3.72789
G1 X159.253 Y179.933 E3.74322
G1 X159.713 Y181.034 E3.76704
G1 X160.093 Y182.015 E3.78803
G1 X160.477 Y183.08 E3.81062
G1 X160.844 Y184.178 E3.83373
G1 X161.227 Y185.44 E3.86005
G1 X161.527 Y186.537 E3.88274
G1 X161.728 Y187.342 E3.8993
G1 X162.036 Y188.715 E3.92738
G1 X162.209 Y189.58 E3.94498
G1 X162.389 Y190.598 E3.96561
G1 X162.598 Y192.012 E3.99414
G1 X162.732 Y193.126 E4.01653
G1 X162.838 Y194.228 E4.03862
G1 X162.906 Y195.154 E4.05715
G1 X162.966 Y196.376 E4.08157
G1 X162.988 Y197.265 E4.09931
G1 X162.989 Y198.072 E4.11542
G1 X162.945 Y198.974 E4.13344
G1 X162.802 Y200.011 E4.15433
G1 X162.599 Y200.891 E4.17235
G1 X162.276 Y201.884 E4.19319
G1 X161.907 Y202.746 E4.2119
G1 X161.429 Y203.636 E4.23206
G1 X160.893 Y204.448 E4.25148
G1 X160.287 Y205.211 E4.27093
G1 X159.667 Y205.867 E4.28894
G1 X158.884 Y206.56 E4.3098
G1 X158.099 Y207.137 E4.32925
G1 X157.297 Y207.624 E4.34797
G1 X156.424 Y208.056 E4.36741
G1 X155.484 Y208.419 E4.38752
G1 X154.546 Y208.689 E4.407
G1 X153.591 Y208.872 E4.4264
G1 X152.637 Y208.971 E4.44554
G1 X152.075 Y208.99 E4.45676
G1 X150.773 Y209 E4.48275
G1 X148.36 Y208.96 E4.53091
G1 X145.724 Y208.956 E4.58351
G1 X143.665 Y209 E4.62461
G1 X91.513 Y208.998 E5.66536
G1 X89.36 Y208.96 E5.70833
G1 X86.722 Y208.956 E5.76098
G1 X84.598 Y209 E5.80337
G1 X82.906 Y208.988 E5.83714
G1 X81.934 Y208.936 E5.85656
G1 X80.971 Y208.799 E5.87598
G1 X80.056 Y208.586 E5.89472
G1 X79.099 Y208.271 E5.91483
G1 X78.269 Y207.916 E5.93284
G1 X77.347 Y207.42 E5.95374
G1 X76.536 Y206.883 E5.97315
G1 X75.774 Y206.275 E5.9926
G1 X75.094 Y205.628 E6.01133
G1 X74.428 Y204.87 E6.03147
G1 X73.852 Y204.084 E6.05092
G1 X73.349 Y203.25 E6.07035
G1 X72.922 Y202.375 E6.08978
G1 X72.574 Y201.466 E6.10921
G1 X72.306 Y200.528 E6.12867
G1 X72.124 Y199.573 E6.14807
G1 X72.027 Y198.616 E6.16727
G1 X72.009 Y198.012 E6.17933
G1 X72.011 Y197.291 E6.19372
G1 X72.035 Y196.357 E6.21236
G1 X72.096 Y195.133 E6.23682
G1 X72.187 Y193.942 E6.26066
G1 X72.296 Y192.861 E6.28234
G1 X72.44 Y191.729 E6.30511
G1 X72.597 Y190.69 E6.32608
G1 X72.763 Y189.733 E6.34546
G1 X73.013 Y188.478 E6.371
G1 X73.276 Y187.318 E6.39474
G1 X73.547 Y186.257 E6.41659
G1 X73.849 Y185.182 E6.43887
G1 X74.162 Y184.159 E6.46022
G1 X74.526 Y183.068 E6.48317
G1 X74.832 Y182.216 E6.50124
G1 X75.295 Y181.016 E6.52691
G1 X75.757 Y179.91 E6.55083
G1 X76.171 Y178.979 E6.57116
G1 X76.579 Y178.118 E6.59018
G1 X77.181 Y176.925 E6.61684
G1 X77.696 Y175.969 E6.63851
G1 X78.266 Y174.969 E6.66148
G1 X78.86 Y173.985 E6.68442
G1 X79.281 Y173.321 E6.70011
G1 X80.068 Y172.143 E6.72838
G1 X80.711 Y171.234 E6.7506
G1 X81.382 Y170.335 E6.77299
G1 X81.989 Y169.561 E6.79262
G1 X83.913 Y167.155 E6.8541
G1 X85.386 Y165.194 E6.90304
G1 X86.833 Y163.15 E6.95302
G1 X88.254 Y161.019 E7.00413
G1 X89.569 Y158.918 E7.05359
G1 X90.875 Y156.697 E7.10501
G1 X92.049 Y154.563 E7.15362
G1 X93.226 Y152.276 E7.20495
G1 X94.315 Y149.999 E7.25532
G1 X95.331 Y147.716 E7.30518
G1 X96.298 Y145.363 E7.35595
G1 X97.172 Y143.048 E7.40533
G1 X98.01 Y140.631 E7.45638
G1 X98.755 Y138.268 E7.50583
G1 X99.445 Y135.839 E7.55622
G1 X100.073 Y133.359 E7.60727
G1 X100.612 Y130.953 E7.65648
G1 X101.091 Y128.484 E7.70667
G1 X101.506 Y125.971 E7.75749
G1 X101.846 Y123.478 E7.80771
G1 X102.115 Y120.976 E7.85792
G1 X102.315 Y118.477 E7.90795
G1 X102.439 Y115.99 E7.95765
G1 X102.5 Y112.633 E8.02465
G1 X102.501 Y39.535 E9.4834
G1 X102.514 Y38.793 E9.49821
G1 X102.576 Y37.817 E9.51772
G1 X102.748 Y36.734 E9.53961
G1 X102.858 Y36.208 E9.55033
G1 X103.038 Y35.462 E9.56565
G1 X103.323 Y34.509 E9.5855
G0 F6000 X103.695 Y34.657
G1 F1200 X104.042 Y33.785 E9.60423
G1 X104.465 Y32.946 E9.62298
G1 X104.961 Y32.149 E9.64171
G1 X105.524 Y31.4 E9.66041
G1 X106.154 Y30.7 E9.6792
G1 X106.939 Y29.979 E9.70047
G1 X107.593 Y29.443 E9.71735
G1 X108.528 Y28.711 E9.74104
G1 X109.293 Y28.165 E9.7598
G1 X110.071 Y27.707 E9.77782
G1 X110.951 Y27.29 E9.79725
G1 X111.832 Y26.965 E9.81599
G1 X112.74 Y26.719 E9.83476
G1 X113.81 Y26.536 E9.85643
G1 X114.285 Y26.48 E9.86597
G1 X115.214 Y26.413 E9.88456
G1 X115.83 Y26.4 E9.89685
G1 X118.957 Y26.401 E9.95926
G1 X119.683 Y26.413 E9.97375
G1 X120.62 Y26.47 E9.99248
G1 X121.548 Y26.611 E10.01121
G1 X122.452 Y26.83 E10.02977
G1 X122.895 Y26.969 E10.03904
G1 X123.874 Y27.303 E10.05968
G1 X124.387 Y27.491 E10.07059
G1 X125.268 Y27.861 E10.08965
G1 X126.098 Y28.299 E10.10838
G1 X126.885 Y28.809 E10.1271
G1 X127.626 Y29.386 E10.14584
G1 X128.311 Y30.027 E10.16456
G1 X128.938 Y30.726 E10.1833
G1 X129.5 Y31.478 E10.20203
G1 X129.99 Y32.269 E10.2206
G1 X130.24 Y32.743 E10.2313
G1 X130.795 Y33.872 E10.2564
G1 X131.109 Y34.549 E10.2713
G1 X131.465 Y35.418 E10.29004
G1 X131.742 Y36.314 E10.30875
G1 X131.94 Y37.231 E10.32747
G1 X132.052 Y38.127 E10.34549
G1 X132.086 Y38.78 E10.35854
G1 X132.1 Y39.57 E10.37431
G1 X132.1 Y112.649 E11.83268
G1 X132.137 Y115.238 E11.88435
G1 X132.246 Y117.803 E11.93559
G1 X132.422 Y120.288 E11.9853
G1 X132.672 Y122.817 E12.03602
G1 X132.993 Y125.325 E12.08647
G1 X133.383 Y127.808 E12.13663
G1 X133.843 Y130.284 E12.18689
G1 X134.382 Y132.787 E12.23798
G1 X134.978 Y135.222 E12.28801
G1 X135.65 Y137.666 E12.33859
G1 X136.389 Y140.079 E12.38896
G1 X137.2 Y142.481 E12.43955
G1 X138.082 Y144.873 E12.49043
G1 X139.004 Y147.169 E12.5398
G1 X140.036 Y149.54 E12.5914
G1 X141.107 Y151.826 E12.64178
G1 X142.231 Y154.058 E12.69165
G1 X143.446 Y156.306 E12.74265
G1 X144.69 Y158.464 E12.79236
G1 X146.022 Y160.63 E12.8431
G1 X147.411 Y162.753 E12.89373
G1 X148.858 Y164.829 E12.94423
G1 X150.349 Y166.847 E12.9943
G1 X152.776 Y169.908 E13.07226
G1 X153.463 Y170.793 E13.09461
G1 X154.124 Y171.69 E13.11685
G1 X154.612 Y172.383 E13.13376
G1 X155.387 Y173.545 E13.16164
G1 X155.95 Y174.437 E13.18269
G1 X156.524 Y175.403 E13.20511
G1 X156.96 Y176.171 E13.22274
G1 X157.588 Y177.347 E13.24934
G1 X158.065 Y178.301 E13.27063
G1 X158.577 Y179.391 E13.29466
G1 X158.884 Y180.087 E13.30984
G1 X159.34 Y181.179 E13.33345
G1 X159.717 Y182.151 E13.35426
G1 X160.098 Y183.207 E13.37666
G1 X160.461 Y184.294 E13.39953
G1 X160.841 Y185.546 E13.42564
G1 X161.139 Y186.634 E13.44816
G1 X161.338 Y187.43 E13.46453
G1 X161.644 Y188.793 E13.49241
G1 X161.815 Y189.65 E13.50985
G1 X161.993 Y190.657 E13.53025
G1 X162.201 Y192.06 E13.55856
G1 X162.334 Y193.164 E13.58075
G1 X162.439 Y194.257 E13.60266
G1 X162.506 Y195.174 E13.62101
G1 X162.566 Y196.386 E13.64523
G1 X162.588 Y197.266 E13.66279
G1 X162.589 Y198.053 E13.6785
G1 X162.545 Y198.955 E13.69652
G1 X162.412 Y199.921 E13.71598
G1 X162.209 Y200.801 E13.734
G1 X161.908 Y201.727 E13.75343
G1 X161.539 Y202.589 E13.77214
G1 X161.095 Y203.416 E13.79088
G1 X160.579 Y204.2 E13.80961
G1 X159.996 Y204.936 E13.82834
G1 X159.376 Y205.592 E13.84636
G1 X158.647 Y206.238 E13.8658
G1 X157.891 Y206.795 E13.88453
G1 X157.12 Y207.265 E13.90255
G1 X156.247 Y207.697 E13.92199
G1 X155.373 Y208.035 E13.94069
G1 X154.47 Y208.296 E13.95945
G1 X153.549 Y208.474 E13.97817
G1 X152.623 Y208.571 E13.99675
G1 X152.072 Y208.59 E14.00775
G1 X150.78 Y208.6 E14.03354
G1 X148.367 Y208.56 E14.0817
G1 X145.716 Y208.556 E14.1346
G1 X143.665 Y208.6 E14.17554
G1 X91.52 Y208.598 E15.21615
G1 X89.367 Y208.56 E15.25912
G1 X86.715 Y208.556 E15.31205
G1 X84.601 Y208.6 E15.35424
G1 X82.927 Y208.589 E15.38765
G1 X81.99 Y208.54 E15.40637
G1 X81.061 Y208.409 E15.4251
G1 X80.181 Y208.206 E15.44312
G1 X79.256 Y207.903 E15.46254
G1 X78.426 Y207.548 E15.48056
G1 X77.567 Y207.086 E15.50002
G1 X76.785 Y206.57 E15.51872
G1 X76.05 Y205.985 E15.53747
G1 X75.37 Y205.338 E15.5562
G1 X74.75 Y204.633 E15.57493
G1 X74.194 Y203.877 E15.59366
G1 X73.708 Y203.074 E15.61239
G1 X73.295 Y202.231 E15.63113
G1 X72.958 Y201.356 E15.64984
G1 X72.699 Y200.453 E15.66858
G1 X72.522 Y199.532 E15.6873
G1 X72.427 Y198.604 E15.70592
G1 X72.409 Y198.013 E15.71772
G1 X72.411 Y197.301 E15.73192
G1 X72.434 Y196.377 E15.75037
G1 X72.495 Y195.163 E15.77463
G1 X72.585 Y193.982 E15.79826
G1 X72.693 Y192.911 E15.81974
G1 X72.835 Y191.789 E15.84231
G1 X72.991 Y190.758 E15.86312
G1 X73.155 Y189.811 E15.8823
G1 X73.403 Y188.567 E15.90762
G1 X73.664 Y187.417 E15.93115
G1 X73.932 Y186.365 E15.95281
G1 X74.232 Y185.299 E15.97491
G1 X74.542 Y184.285 E15.99607
G1 X74.902 Y183.203 E16.01883
G1 X75.205 Y182.36 E16.03671
G1 X75.664 Y181.17 E16.06216
G1 X76.122 Y180.073 E16.08588
G1 X76.533 Y179.15 E16.10605
G1 X76.936 Y178.298 E16.12485
G1 X77.533 Y177.115 E16.1513
G1 X78.044 Y176.167 E16.17279
G1 X78.608 Y175.176 E16.19554
G1 X79.198 Y174.199 E16.21832
G1 X79.614 Y173.543 E16.23382
G1 X80.394 Y172.374 E16.26187
G1 X81.032 Y171.473 E16.2839
G1 X81.697 Y170.582 E16.30609
G1 X82.301 Y169.811 E16.32563
G1 X84.225 Y167.405 E16.38711
G1 X85.706 Y165.434 E16.43631
G1 X87.166 Y163.372 E16.48673
G1 X88.587 Y161.241 E16.53784
G1 X89.914 Y159.121 E16.58776
G1 X91.22 Y156.9 E16.63917
G1 X92.405 Y154.746 E16.68823
G1 X93.582 Y152.459 E16.73956
G1 X94.676 Y150.172 E16.79016
G1 X95.696 Y147.879 E16.84024
G1 X96.668 Y145.515 E16.89125
G1 X97.55 Y143.179 E16.94108
G1 X98.388 Y140.762 E16.99213
G1 X99.14 Y138.377 E17.04203
G1 X99.83 Y135.948 E17.09242
G1 X100.461 Y133.457 E17.1437
G1 X101.005 Y131.029 E17.19336
G1 X101.484 Y128.56 E17.24355
G1 X101.901 Y126.036 E17.2946
G1 X102.244 Y123.521 E17.34525
G1 X102.513 Y121.019 E17.39547
G1 X102.713 Y118.509 E17.44572
G1 X102.839 Y115.997 E17.49591
G1 X102.9 Y112.64 E17.56292
G1 X102.901 Y39.542 E19.02167
G1 X102.913 Y38.818 E19.03612
G1 X102.971 Y37.879 E19.05489
G1 X103.139 Y36.816 E19.07637
G1 X103.247 Y36.302 E19.08685
G1 X103.427 Y35.556 E19.10216
G1 X103.695 Y34.657 E19.12088
G0 F6000 X104.067 Y34.804
G1 F1200 X104.4 Y33.964 E19.13892
G1 X104.805 Y33.157 E19.15694
G1 X105.281 Y32.389 E19.17497
G1 X105.822 Y31.667 E19.19297
G1 X106.425 Y30.995 E19.21099
G1 X107.21 Y30.274 E19.23226
G1 X107.84 Y29.758 E19.24851
G1 X108.761 Y29.036 E19.27186
G1 X109.496 Y28.51 E19.2899
G1 X110.274 Y28.052 E19.30792
G1 X111.09 Y27.665 E19.32594
G1 X111.937 Y27.351 E19.34397
G1 X112.808 Y27.113 E19.36199
G1 X113.857 Y26.933 E19.38323
G1 X114.314 Y26.879 E19.39241
G1 X115.223 Y26.813 E19.4106
G1 X115.83 Y26.8 E19.42271
G1 X118.951 Y26.801 E19.485
G1 X119.659 Y26.812 E19.49913
G1 X120.561 Y26.866 E19.51716
G1 X121.454 Y27 E19.53518
G1 X122.332 Y27.212 E19.55321
G1 X122.766 Y27.348 E19.56228
G1 X123.736 Y27.679 E19.58274
G1 X124.249 Y27.867 E19.59364
G1 X125.082 Y28.215 E19.61165
G1 X125.881 Y28.635 E19.62967
G1 X126.64 Y29.125 E19.6477
G1 X127.353 Y29.679 E19.66572
G1 X128.014 Y30.295 E19.68375
G1 X128.618 Y30.966 E19.70176
G1 X129.16 Y31.689 E19.7198
G1 X129.636 Y32.456 E19.73781
G1 X129.881 Y32.919 E19.74826
G1 X130.432 Y34.04 E19.77319
G1 X130.739 Y34.701 E19.78773
G1 X131.083 Y35.537 E19.80577
G1 X131.351 Y36.399 E19.82379
G1 X131.543 Y37.281 E19.8418
G1 X131.655 Y38.177 E19.85982
G1 X131.686 Y38.787 E19.87201
G1 X131.7 Y39.577 E19.88778
G1 X131.7 Y112.649 E21.34601
G1 X131.737 Y115.255 E21.39802
G1 X131.846 Y117.82 E21.44925
G1 X132.024 Y120.327 E21.49941
G1 X132.275 Y122.868 E21.55037
G1 X132.596 Y125.376 E21.60082
G1 X132.99 Y127.881 E21.65143
G1 X133.452 Y130.368 E21.70191
G1 X133.993 Y132.882 E21.75323
G1 X134.592 Y135.328 E21.80348
G1 X135.265 Y137.772 E21.85407
G1 X136.01 Y140.207 E21.90489
G1 X136.821 Y142.609 E21.95548
G1 X137.711 Y145.022 E22.0068
G1 X138.637 Y147.329 E22.05641
G1 X139.669 Y149.7 E22.10802
G1 X140.75 Y152.006 E22.15884
G1 X141.879 Y154.248 E22.20893
G1 X143.099 Y156.506 E22.26015
G1 X144.349 Y158.674 E22.31009
G1 X145.687 Y160.849 E22.36105
G1 X147.083 Y162.982 E22.41193
G1 X148.536 Y165.067 E22.46264
G1 X150.027 Y167.085 E22.51271
G1 X152.46 Y170.153 E22.59085
G1 X153.141 Y171.03 E22.61301
G1 X153.797 Y171.92 E22.63507
G1 X154.279 Y172.605 E22.65179
G1 X155.049 Y173.758 E22.67946
G1 X155.606 Y174.641 E22.70029
G1 X156.176 Y175.6 E22.72256
G1 X156.607 Y176.36 E22.73999
G1 X157.23 Y177.526 E22.76637
G1 X157.703 Y178.471 E22.78746
G1 X158.211 Y179.553 E22.81132
G1 X158.515 Y180.241 E22.82633
G1 X158.967 Y181.324 E22.84975
G1 X159.341 Y182.287 E22.87036
G1 X159.719 Y183.333 E22.89256
G1 X160.078 Y184.41 E22.91521
G1 X160.455 Y185.652 E22.94111
G1 X160.751 Y186.731 E22.96344
G1 X160.948 Y187.518 E22.97963
G1 X161.252 Y188.871 E23.00731
G1 X161.421 Y189.72 E23.02458
G1 X161.597 Y190.716 E23.04477
G1 X161.804 Y192.108 E23.07285
G1 X161.936 Y193.202 E23.09484
G1 X162.04 Y194.286 E23.11657
G1 X162.106 Y195.194 E23.13474
G1 X162.166 Y196.396 E23.15876
G1 X162.188 Y197.267 E23.17614
G1 X162.189 Y198.034 E23.19145
G1 X162.145 Y198.936 E23.20947
G1 X162.022 Y199.831 E23.2275
G1 X161.819 Y200.711 E23.24552
G1 X161.54 Y201.57 E23.26355
G1 X161.186 Y202.4 E23.28155
G1 X160.76 Y203.197 E23.29959
G1 X160.265 Y203.952 E23.31761
G1 X159.705 Y204.661 E23.33564
G1 X159.085 Y205.317 E23.35365
G1 X158.409 Y205.916 E23.37167
G1 X157.683 Y206.453 E23.38969
G1 X156.912 Y206.923 E23.40771
G1 X156.102 Y207.324 E23.42575
G1 X155.261 Y207.651 E23.44376
G1 X154.393 Y207.903 E23.46179
