;FLAVOR:Marlin
;TIME:4900
;Filament used: 4.39718m
;Layer height: 0.28
;MINX:79.7
;MINY:96.7
;MINZ:0.28
;MAXX:155.3
;MAXY:138.3
;MAXZ:8.12
;Generated with Cura_SteamEngine 5.4.0
M140 S50
M105
M190 S50
M104 S200
M105
M109 S200
M82 ;absolute extrusion mode
; Ender 3 Custom Start G-code
G92 E0 ; Reset Extruder
G28 ; Home all axes
G1 Z2.0 F3000 ; Move Z Axis up little to prevent scratching of Heat Bed
G1 X0.1 Y20 Z0.3 F5000.0 ; Move to start position
G1 X0.1 Y200.0 Z0.3 F1500.0 E15 ; Draw the first line
G1 X0.4 Y200.0 Z0.3 F5000.0 ; Move to side a little
G1 X0.4 Y20 Z0.3 F1500.0 E30 ; Draw the second line
G92 E0 ; Reset Extruder
G1 Z2.0 F3000 ; Move Z Axis up little to prevent scratching of Heat Bed
G1 X5 Y20 Z0.3 F5000.0 ; Move over to prevent blob squish
G92 E0
G92 E0
G1 F2700 E-5
;LAYER_COUNT:29
;LAYER:0
M107
;MESH:landscapeHalf.stl
G0 F6000 X87.422 Y134.106 Z0.28
;TYPE:WALL-INNER
G1 F2700 E0
G1 F1200 X86.921 Y134.265 E0.02448
G1 X86.5 Y134.3 E0.04415
G1 X86 Y134.3 E0.06743
G1 X85.51 Y134.233 E0.09046
G1 X85.03 Y134.026 E0.1148
G1 X84.598 Y133.793 E0.13765
G1 X84.35 Y133.595 E0.15243
G1 X84.055 Y133.228 E0.17436
G1 X83.856 Y132.762 E0.19795
G1 X83.726 Y132.311 E0.21981
G1 X83.7 Y132 E0.23434
G1 X83.7 Y103 E1.5847
G1 X83.825 Y102.31 E1.61735
G1 X84.055 Y101.772 E1.6446
G1 X84.35 Y101.405 E1.66652
G1 X84.598 Y101.206 E1.68133
G1 X85.035 Y100.972 E1.70441
G1 X85.585 Y100.735 E1.7323
G1 X86 Y100.7 E1.75169
G1 X86.5 Y100.7 E1.77497
G1 X86.874 Y100.736 E1.79247
G1 X87.423 Y100.894 E1.81907
G1 X87.866 Y101.191 E1.8439
G1 X88.029 Y101.351 E1.85454
G1 X88.542 Y102.056 E1.89514
G1 X88.669 Y102.324 E1.90895
G1 X88.765 Y102.642 E1.92441
G1 X88.8 Y103 E1.94116
G1 F1197 X88.797 Y132.256 E3.30685
G1 X88.669 Y132.676 E3.32735
G1 F1200 X88.541 Y132.944 E3.34118
G1 X88.111 Y133.536 E3.37525
G1 X87.866 Y133.809 E3.39233
G1 X87.422 Y134.106 E3.4172
G0 F6000 X87.667 Y133.466
G1 F1200 X87.252 Y133.744 E3.44046
G1 X86.896 Y133.857 E3.45785
G1 X86.5 Y133.9 E3.4764
G1 X86 Y133.9 E3.49968
G1 X85.619 Y133.848 E3.51759
G1 X85.278 Y133.701 E3.53488
G1 X84.696 Y133.394 E3.56552
G1 X84.397 Y133.02 E3.58781
G1 X84.242 Y132.658 E3.60615
G1 X84.1 Y132.174 E3.62964
G1 X84.1 Y103 E4.9881
G1 X84.202 Y102.434 E5.01488
G1 X84.397 Y101.98 E5.03789
G1 X84.626 Y101.694 E5.05495
G1 X84.819 Y101.54 E5.06645
G1 X85.281 Y101.298 E5.09073
G1 X85.619 Y101.152 E5.10788
G1 X86 Y101.1 E5.12578
G1 X86.5 Y101.1 E5.14906
G1 X86.825 Y101.133 E5.16427
G1 X87.252 Y101.256 E5.18497
G1 X87.668 Y101.535 E5.20829
G1 X88.263 Y102.355 E5.25547
G1 X88.373 Y102.721 E5.27326
G1 X88.4 Y103 E5.28631
G1 X88.396 Y132.198 E6.64589
G1 X88.264 Y132.644 E6.66755
G1 X87.667 Y133.466 E6.71486
G0 F6000 X85.423 Y133.4
G0 X85.423 Y133.332
G1 F1200 X85.398 Y133.282 E6.71746
G1 X85.205 Y133.216 E6.72696
G1 X84.903 Y133.017 E6.7438
G1 X84.739 Y132.813 E6.75599
G1 X84.629 Y132.554 E6.76909
G1 X84.608 Y132.451 E6.77399
G1 X84.5 Y132.132 E6.78967
G1 X84.5 Y103 E8.14618
G1 X84.578 Y102.565 E8.16675
G1 X84.739 Y102.187 E8.18589
G1 X84.903 Y101.983 E8.19807
G1 X85.205 Y101.784 E8.21491
G1 X85.398 Y101.718 E8.22441
G1 X85.484 Y101.642 E8.22976
G1 X85.727 Y101.537 E8.24208
G1 X86 Y101.5 E8.25491
G1 X86.5 Y101.5 E8.27819
G1 X86.777 Y101.53 E8.29117
G1 X87.081 Y101.618 E8.3059
G1 X87.382 Y101.819 E8.32276
G1 X87.872 Y102.507 E8.36209
G1 X88 Y102.851 E8.37918
G1 X87.997 Y132.088 E9.74058
G1 X87.914 Y132.434 E9.75714
G1 X87.382 Y133.181 E9.79985
G1 X87.081 Y133.382 E9.8167
G1 X86.827 Y133.463 E9.82911
G1 X86.5 Y133.5 E9.84444
G1 X86 Y133.5 E9.86772
G1 X85.727 Y133.463 E9.88055
G1 X85.423 Y133.332 E9.89596
G0 F6000 X85.647 Y132.986
G1 F1200 X85.62 Y132.933 E9.89873
G1 X85.361 Y132.847 E9.91144
G1 X85.18 Y132.728 E9.92153
G1 X85.081 Y132.606 E9.92884
G1 X84.997 Y132.325 E9.9425
G1 X84.9 Y132.075 E9.95499
G1 X84.9 Y103 E11.30884
G1 X85.081 Y102.394 E11.33829
G1 X85.18 Y102.272 E11.3456
G1 X85.361 Y102.153 E11.35569
G1 X85.62 Y102.067 E11.3684
G1 X85.647 Y102.014 E11.37117
G1 X85.881 Y101.9 E11.38329
G1 X86.579 Y101.9 E11.41579
G1 X86.911 Y101.98 E11.43169
G1 X87.098 Y102.117 E11.44249
G1 X87.523 Y102.704 E11.47623
G1 X87.6 Y102.909 E11.48643
G1 X87.598 Y132.053 E12.8435
G1 X87.523 Y132.296 E12.85534
G1 X87.09 Y132.899 E12.8899
G1 X86.91 Y133.02 E12.9
G1 X86.577 Y133.1 E12.91595
G1 X85.881 Y133.1 E12.94836
G1 X85.647 Y132.986 E12.96048
G0 F6000 X85.647 Y133.4
G0 X88.242 Y133.629
G0 X89.005 Y132.238
G0 X89.474 Y133.126
G0 X92.922 Y134.106
G1 F1200 X92.421 Y134.265 E12.98496
G1 X92 Y134.3 E13.00463
G1 X91.5 Y134.3 E13.02791
G1 X91.01 Y134.233 E13.05094
G1 X90.49 Y134.009 E13.0773
G1 X89.997 Y133.721 E13.10389
G1 X89.73 Y133.47 E13.12095
G1 X89.452 Y133.061 E13.14398
G1 F1194 X89.203 Y132.258 E13.18332
G1 X89.2 Y103 E14.55251
G1 F1200 X89.235 Y102.642 E14.56926
G1 X89.451 Y101.94 E14.60346
G1 X89.73 Y101.53 E14.62655
G1 X89.997 Y101.279 E14.64362
G1 X90.49 Y100.991 E14.6702
G1 X91.085 Y100.735 E14.70036
G1 X91.5 Y100.7 E14.71976
G1 X92 Y100.7 E14.74304
G1 X92.374 Y100.736 E14.76053
G1 X92.923 Y100.894 E14.78713
G1 X93.366 Y101.191 E14.81197
G1 X93.529 Y101.351 E14.8226
G1 X94.042 Y102.056 E14.8632
G1 X94.169 Y102.324 E14.87701
G1 X94.265 Y102.642 E14.89248
G1 X94.3 Y103 E14.90923
G1 F1197 X94.297 Y132.256 E16.27492
G1 X94.169 Y132.676 E16.29541
G1 F1200 X94.041 Y132.944 E16.30924
G1 X93.611 Y133.536 E16.34331
G1 X93.366 Y133.809 E16.36039
G1 X92.922 Y134.106 E16.38527
G0 F6000 X93.167 Y133.466
G1 F1200 X92.752 Y133.744 E16.40853
G1 X92.396 Y133.857 E16.42592
G1 X92 Y133.9 E16.44447
G1 X91.5 Y133.9 E16.46775
G1 X91.119 Y133.848 E16.48565
G1 X90.778 Y133.701 E16.50294
G1 X90.549 Y133.584 E16.51492
G1 X90.241 Y133.404 E16.53153
G1 X90.033 Y133.208 E16.54484
G1 F1203 X89.816 Y132.89 E16.56272
G1 X89.604 Y132.2 E16.59625
G1 X89.6 Y103 E17.95252
G1 F1200 X89.627 Y102.722 E17.96553
G1 X89.817 Y102.11 E17.99537
G1 X90.033 Y101.792 E18.01327
G1 X90.241 Y101.596 E18.02658
G1 X90.549 Y101.416 E18.04319
G1 X90.778 Y101.299 E18.05516
G1 X91.119 Y101.152 E18.07245
G1 X91.5 Y101.1 E18.09036
G1 X92 Y101.1 E18.11364
G1 X92.325 Y101.133 E18.12885
G1 X92.752 Y101.256 E18.14954
G1 X93.168 Y101.535 E18.17287
G1 X93.763 Y102.355 E18.22004
G1 X93.873 Y102.721 E18.23784
G1 X93.9 Y103 E18.25089
G1 X93.896 Y132.198 E19.61047
G1 X93.764 Y132.644 E19.63213
G1 X93.167 Y133.466 E19.67943
G0 F6000 X90.923 Y133.4
G0 X90.923 Y133.332
G1 F1200 X90.898 Y133.282 E19.68204
G1 X90.705 Y133.216 E19.69154
G1 X90.485 Y133.087 E19.70341
G1 X90.337 Y132.947 E19.7129
G1 X90.162 Y132.657 E19.72867
G1 X90.072 Y132.376 E19.74241
G1 X90.003 Y132.087 E19.75624
G1 X90 Y102.854 E21.11745
G1 X90.11 Y102.549 E21.13255
G1 X90.162 Y102.343 E21.14244
G1 X90.387 Y101.971 E21.16269
G1 X90.705 Y101.784 E21.17987
G1 X90.898 Y101.718 E21.18936
G1 X90.984 Y101.642 E21.19471
G1 X91.227 Y101.537 E21.20703
G1 X91.5 Y101.5 E21.21986
G1 X92 Y101.5 E21.24314
G1 X92.277 Y101.53 E21.25612
G1 X92.581 Y101.618 E21.27086
G1 X92.882 Y101.819 E21.28771
G1 X93.372 Y102.507 E21.32704
G1 X93.5 Y102.851 E21.34413
G1 X93.497 Y132.088 E22.70553
G1 X93.414 Y132.434 E22.7221
G1 X92.882 Y133.181 E22.7648
G1 X92.581 Y133.382 E22.78165
G1 X92.327 Y133.463 E22.79407
G1 X92 Y133.5 E22.80939
G1 X91.5 Y133.5 E22.83267
G1 X91.227 Y133.463 E22.8455
G1 X90.923 Y133.332 E22.86091
G0 F6000 X91.147 Y132.986
G1 F1200 X91.12 Y132.933 E22.86368
G1 X90.768 Y132.816 E22.88096
G1 X90.564 Y132.575 E22.89566
G1 X90.497 Y132.325 E22.90771
G1 X90.402 Y132.053 E22.92113
G1 X90.4 Y102.914 E24.27796
G1 X90.497 Y102.675 E24.28997
G1 X90.564 Y102.425 E24.30202
G1 X90.768 Y102.184 E24.31673
G1 X91.12 Y102.067 E24.334
G1 X91.147 Y102.014 E24.33677
G1 X91.381 Y101.9 E24.34889
G1 X92.079 Y101.9 E24.38139
G1 X92.411 Y101.98 E24.39729
G1 X92.598 Y102.117 E24.40809
G1 X93.023 Y102.704 E24.44183
G1 X93.1 Y102.909 E24.45203
G1 X93.098 Y132.053 E25.80909
G1 X93.023 Y132.296 E25.82094
G1 X92.59 Y132.899 E25.8555
G1 X92.41 Y133.02 E25.8656
G1 X92.077 Y133.1 E25.88155
G1 X91.381 Y133.1 E25.91396
G1 X91.147 Y132.986 E25.92608
G0 F6000 X91.147 Y133.4
G0 X93.742 Y133.629
G0 X94.505 Y132.238
G0 X94.982 Y133.134
G0 X98.38 Y134.125
G1 F1200 X97.918 Y134.265 E25.94856
G1 X97.5 Y134.3 E25.96809
G1 X97 Y134.3 E25.99137
G1 X96.51 Y134.233 E26.0144
G1 X95.99 Y134.009 E26.04076
G1 X95.497 Y133.721 E26.06735
G1 X95.23 Y133.47 E26.08441
G1 X94.952 Y133.061 E26.10744
G1 F1194 X94.703 Y132.258 E26.14679
G1 X94.7 Y103 E27.51597
G1 F1200 X94.735 Y102.642 E27.53272
G1 X94.951 Y101.94 E27.56692
G1 X95.23 Y101.53 E27.59001
G1 X95.497 Y101.279 E27.60708
G1 X95.99 Y100.991 E27.63366
G1 X96.585 Y100.735 E27.66383
G1 X97 Y100.7 E27.68322
G1 X97.5 Y100.7 E27.7065
G1 X97.874 Y100.736 E27.724
G1 X98.381 Y100.875 E27.74848
G1 X98.802 Y101.135 E27.77152
G1 X99.111 Y101.464 E27.79253
G1 X99.457 Y101.94 E27.81993
G1 X99.622 Y102.216 E27.83491
G1 X99.726 Y102.485 E27.84834
G1 X99.782 Y102.737 E27.86036
G1 X99.801 Y102.999 E27.87259
G1 X99.801 Y112.633 E28.32119
G1 F973.6 X99.897 Y113.031 E28.34469
G1 F871.1 X99.86 Y114.174 E28.41804
G1 F1002.1 X99.822 Y115.318 E28.48186
G1 F1137.4 X99.8 Y117.582 E28.59309
G1 F1126.8 X99.826 Y119.861 E28.70611
G1 F989.7 X99.86 Y120.911 E28.76543
G1 F868 X99.894 Y121.961 E28.83306
G1 F857.1 X99.867 Y122.076 E28.84076
G1 F961.9 X99.834 Y123.013 E28.89522
G1 F1108.5 X99.801 Y123.951 E28.94253
G1 F1200 X99.801 Y132.001 E29.31737
G1 X99.782 Y132.263 E29.3296
G1 X99.726 Y132.515 E29.34162
G1 X99.621 Y132.785 E29.35511
G1 X99.457 Y133.06 E29.37002
G1 X99.111 Y133.536 E29.39742
G1 X98.802 Y133.865 E29.41844
G1 X98.38 Y134.125 E29.44152
G0 F6000 X98.219 Y133.759
G1 F1200 X97.896 Y133.857 E29.45724
G1 X97.5 Y133.9 E29.47579
G1 X97 Y133.9 E29.49907
G1 X96.619 Y133.848 E29.51697
G1 X96.278 Y133.701 E29.53426
G1 X96.049 Y133.584 E29.54624
G1 X95.741 Y133.404 E29.56285
G1 X95.533 Y133.208 E29.57616
G1 F1203 X95.316 Y132.89 E29.59404
G1 X95.104 Y132.2 E29.62757
G1 X95.1 Y103 E30.98384
G1 F1200 X95.127 Y102.722 E30.99685
G1 X95.317 Y102.11 E31.02669
G1 X95.533 Y101.792 E31.04459
G1 X95.741 Y101.596 E31.05789
G1 X96.049 Y101.416 E31.07451
G1 X96.278 Y101.299 E31.08648
G1 X96.619 Y101.152 E31.10377
G1 X97 Y101.1 E31.12168
G1 X97.5 Y101.1 E31.14496
G1 X97.825 Y101.133 E31.16017
G1 X98.219 Y101.241 E31.17919
G1 X98.547 Y101.443 E31.19713
G1 X98.787 Y101.699 E31.21347
G1 X99.133 Y102.175 E31.24087
G1 X99.329 Y102.505 E31.25874
G1 X99.401 Y102.999 E31.28199
G1 X99.401 Y132.138 E32.63882
G1 X99.342 Y132.401 E32.65137
G1 X99.23 Y132.692 E32.66589
G1 X98.787 Y133.301 E32.70096
G1 X98.547 Y133.557 E32.7173
G1 X98.219 Y133.759 E32.73524
G0 F6000 X96.423 Y133.4
G0 X96.423 Y133.332
G1 F1200 X96.398 Y133.282 E32.73784
G1 X96.205 Y133.216 E32.74734
G1 X95.985 Y133.087 E32.75921
G1 X95.837 Y132.947 E32.7687
G1 X95.662 Y132.657 E32.78447
G1 X95.572 Y132.376 E32.79821
G1 X95.503 Y132.087 E32.81205
G1 X95.5 Y102.854 E34.17326
G1 X95.61 Y102.549 E34.18835
G1 X95.662 Y102.343 E34.19825
G1 X95.887 Y101.971 E34.21849
G1 X96.205 Y101.784 E34.23567
G1 X96.398 Y101.718 E34.24517
G1 X96.484 Y101.642 E34.25051
G1 X96.727 Y101.537 E34.26284
G1 X97 Y101.5 E34.27567
G1 X97.5 Y101.5 E34.29895
G1 X97.777 Y101.53 E34.31192
G1 X98.058 Y101.607 E34.32549
G1 X98.292 Y101.752 E34.33831
G1 X98.464 Y101.934 E34.34997
G1 X98.879 Y102.508 E34.38295
G1 X98.959 Y102.713 E34.3932
G1 X99.001 Y102.999 E34.40666
G1 X99.001 Y132.097 E35.76158
G1 X98.88 Y132.49 E35.78073
G1 X98.464 Y133.066 E35.81381
G1 X98.292 Y133.248 E35.82547
G1 X98.058 Y133.393 E35.83829
G1 X97.827 Y133.463 E35.84953
G1 X97.5 Y133.5 E35.86485
G1 X97 Y133.5 E35.88814
G1 X96.727 Y133.463 E35.90096
G1 X96.423 Y133.332 E35.91638
G0 F6000 X96.647 Y132.986
G1 F1200 X96.62 Y132.933 E35.91915
G1 X96.268 Y132.816 E35.93642
G1 X96.064 Y132.575 E35.95112
G1 X95.997 Y132.325 E35.96317
G1 X95.902 Y132.053 E35.97659
G1 X95.9 Y102.914 E37.33342
G1 X95.997 Y102.675 E37.34543
G1 X96.064 Y102.425 E37.35749
G1 X96.268 Y102.184 E37.37219
G1 X96.62 Y102.067 E37.38946
G1 X96.647 Y102.014 E37.39223
G1 X96.881 Y101.9 E37.40435
G1 X97.579 Y101.9 E37.43685
G1 X97.897 Y101.973 E37.45205
G1 X98.079 Y102.086 E37.46202
G1 X98.527 Y102.702 E37.49749
G1 X98.599 Y102.95 E37.50951
G1 X98.599 Y132.05 E38.86453
G1 X98.528 Y132.296 E38.87645
G1 X98.079 Y132.914 E38.91202
G1 X97.896 Y133.027 E38.92204
G1 X97.577 Y133.1 E38.93728
G1 X96.881 Y133.1 E38.96968
G1 X96.647 Y132.986 E38.9818
G0 F6000 X96.647 Y133.4
G0 X97.972 Y133.457
G0 X98.328 Y133.328
G0 X99.962 Y132
G0 X99.962 Y123.95
G0 X100.096 Y122.066
G0 X103.96 Y127.917
G0 X106.729 Y129.274
G1 F1200 X106.418 Y129.3 E38.99634
G1 X105.582 Y129.3 E39.03526
G1 X105.262 Y129.272 E39.05022
G1 X104.885 Y129.169 E39.06842
G1 X103.917 Y128.653 E39.1195
G1 X103.663 Y128.489 E39.13358
G1 X103.422 Y128.264 E39.14893
G1 X102.654 Y127.406 E39.20255
G1 X102.417 Y127.07 E39.22169
G1 X101.745 Y125.841 E39.28692
G1 X101.63 Y125.584 E39.30003
G1 X101.068 Y124.017 E39.37755
G1 F1108.5 X100.796 Y123.01 E39.43012
G1 F961.9 X100.524 Y122.002 E39.49077
G1 F857.1 X100.477 Y121.911 E39.49745
G1 F869.6 X100.371 Y120.792 E39.56967
G1 F1000 X100.265 Y119.673 E39.63248
G1 F1137.4 X100.201 Y117.426 E39.74291
G1 X100.265 Y115.327 E39.84607
G1 F1002.1 X100.372 Y114.205 E39.90892
G1 F871.1 X100.48 Y113.082 E39.98128
G1 F973.6 X100.654 Y112.729 E40.00387
G1 F1200 X101.034 Y111.079 E40.08271
G1 X101.63 Y109.416 E40.16497
G1 X101.745 Y109.159 E40.17808
G1 X102.417 Y107.93 E40.2433
G1 X102.654 Y107.594 E40.26245
G1 X103.422 Y106.736 E40.31607
G1 X103.663 Y106.511 E40.33142
G1 X103.917 Y106.347 E40.3455
G1 X104.907 Y105.825 E40.39762
G1 X105.271 Y105.726 E40.41518
G1 X105.582 Y105.7 E40.42971
G1 X106.418 Y105.7 E40.46864
G1 X106.729 Y105.726 E40.48317
G1 X107.002 Y105.797 E40.49631
G1 X107.265 Y105.911 E40.50965
G1 X108.083 Y106.347 E40.55282
G1 X108.316 Y106.495 E40.56567
G1 X108.546 Y106.7 E40.58002
G1 X109.432 Y107.69 E40.64188
G1 X109.583 Y107.93 E40.65508
G1 X110.316 Y109.281 E40.72665
G1 X110.965 Y111.074 E40.81544
G1 X111.411 Y113.013 E40.90809
G1 F1126.8 X111.581 Y114.088 E40.96206
G1 F1004.2 X111.751 Y115.164 E41.02268
G1 X111.775 Y116.295 E41.08563
G1 F1124.1 X111.8 Y117.426 E41.14186
G1 F1129.4 X111.777 Y118.593 E41.19961
G1 F1019.1 X111.754 Y119.76 E41.26361
G1 F993.8 X111.735 Y119.834 E41.2679
G1 F1100.9 X111.411 Y121.987 E41.37841
G1 F1200 X110.965 Y123.926 E41.47105
G1 X110.316 Y125.719 E41.55984
G1 X109.583 Y127.07 E41.63141
G1 X109.431 Y127.311 E41.64468
G1 X108.514 Y128.332 E41.70858
G1 X108.316 Y128.505 E41.72083
G1 X108.083 Y128.653 E41.73368
G1 X107.265 Y129.089 E41.77684
G1 X107.002 Y129.203 E41.79019
G1 X106.729 Y129.274 E41.80332
G0 F6000 X105.401 Y128.9
G1 F1200 X105.012 Y128.78 E41.82228
G1 X103.965 Y128.226 E41.87744
G1 X103.72 Y127.998 E41.89302
G1 X102.953 Y127.14 E41.94661
G1 X102.768 Y126.878 E41.96154
G1 X102.043 Y125.552 E42.03191
G1 X101.417 Y123.804 E42.11837
G1 X100.964 Y121.825 E42.2129
G1 X100.697 Y119.778 E42.30903
G1 X100.601 Y117.442 E42.41789
G1 X100.697 Y115.222 E42.52136
G1 X100.965 Y113.169 E42.61777
G1 X101.417 Y111.196 E42.71202
G1 X102.043 Y109.448 E42.79848
G1 X102.768 Y108.122 E42.86885
G1 X102.953 Y107.86 E42.88378
G1 X103.72 Y107.002 E42.93737
G1 X103.965 Y106.774 E42.95296
G1 X105.058 Y106.196 E43.01053
G1 X105.414 Y106.1 E43.0277
G1 X106.583 Y106.1 E43.08213
G1 X106.946 Y106.194 E43.09959
G1 X108.021 Y106.767 E43.15632
G1 X108.23 Y106.949 E43.16922
G1 X109.156 Y107.982 E43.23382
G1 X109.951 Y109.445 E43.31135
G1 X110.581 Y111.189 E43.39769
G1 X111.037 Y113.171 E43.4924
G1 X111.313 Y115.344 E43.59439
G1 X111.399 Y117.558 E43.69756
G1 X111.309 Y119.72 E43.79832
G1 X111.036 Y121.831 E43.89744
G1 X110.581 Y123.811 E43.99204
G1 X109.951 Y125.555 E44.07838
G1 X109.155 Y127.02 E44.15602
G1 X108.23 Y128.051 E44.22051
G1 X108.021 Y128.233 E44.23342
G1 X106.946 Y128.806 E44.29014
G1 X106.583 Y128.9 E44.3076
G1 X105.401 Y128.9 E44.36264
G0 F6000 X106.532 Y128.5
G1 F1200 X105.459 Y128.5 E44.41261
G1 X105.196 Y128.428 E44.4253
G1 X104.136 Y127.863 E44.48123
G1 X103.174 Y126.787 E44.54844
G1 X102.41 Y125.389 E44.62263
G1 X101.802 Y123.693 E44.70652
G1 X101.358 Y121.756 E44.79905
