;FLAVOR:Marlin
;TIME:1138
;Filament used: 0.989014m
;Layer height: 0.28
;MINX:88.5
;MINY:88.5
;MINZ:0.28
;MAXX:146.5
;MAXY:146.5
;MAXZ:3.92
;Generated with Cura_SteamEngine 5.4.0
M140 S50
M105
M190 S50
M104 S200
M105
M109 S200
M82 ;absolute extrusion mode
; Ender 3 Custom Start G-code
G92 E0 ; Reset Extruder
G28 ; Home all axes
G1 Z2.0 F3000 ; Move Z Axis up little to prevent scratching of Heat Bed
G1 X0.1 Y20 Z0.3 F5000.0 ; Move to start position
G1 X0.1 Y200.0 Z0.3 F1500.0 E15 ; Draw the first line
G1 X0.4 Y200.0 Z0.3 F5000.0 ; Move to side a little
G1 X0.4 Y20 Z0.3 F1500.0 E30 ; Draw the second line
G92 E0 ; Reset Extruder
G1 Z2.0 F3000 ; Move Z Axis up little to prevent scratching of Heat Bed
G1 X5 Y20 Z0.3 F5000.0 ; Move over to prevent blob squish
G92 E0
G92 E0
G1 F2700 E-5
;LAYER_COUNT:14
;LAYER:0
M107
G0 F6000 X91.969 Y91.501 Z0.28
;TYPE:SKIRT
G1 F2700 E0
G1 F1200 X92.679 Y90.887 E0.04371
G1 X93.498 Y90.297 E0.09071
G1 X94.337 Y89.801 E0.13609
G1 X95.151 Y89.41 E0.17814
G1 X96.128 Y89.042 E0.22676
G1 X97.032 Y88.792 E0.27043
G1 X98.034 Y88.609 E0.31786
G1 X99.205 Y88.513 E0.37257
G1 X99.812 Y88.5 E0.40084
G1 X114.826 Y88.5 E1.09995
G1 X116.113 Y88.517 E1.15989
G1 X118.709 Y88.517 E1.28077
G1 X119.318 Y88.504 E1.30913
G1 X134.803 Y88.5 E2.03018
G1 X135.684 Y88.513 E2.07121
G1 X136.656 Y88.572 E2.11655
G1 X137.619 Y88.718 E2.1619
G1 X138.566 Y88.949 E2.20729
G1 X139.454 Y89.249 E2.25094
G1 X140.346 Y89.639 E2.29627
G1 X141.229 Y90.126 E2.34322
G1 X141.98 Y90.628 E2.38529
G1 X142.795 Y91.286 E2.43406
G1 X143.493 Y91.964 E2.47937
G1 X144.129 Y92.701 E2.5247
G1 X144.699 Y93.491 E2.57006
G1 X145.161 Y94.267 E2.61212
G1 X145.615 Y95.209 E2.66081
G1 X145.944 Y96.087 E2.70447
G1 X146.213 Y97.059 E2.75143
G1 X146.39 Y98.025 E2.79716
G1 X146.485 Y99.155 E2.84996
G1 X146.5 Y99.83 E2.8814
G1 X146.499 Y106.952 E3.21303
G1 X146.481 Y107.969 E3.26039
G1 X146.391 Y109.851 E3.34813
G1 X146.322 Y112.363 E3.46514
G1 X146.324 Y114.825 E3.57978
G1 X146.493 Y119.441 E3.79487
G1 X146.5 Y119.83 E3.81298
G1 X146.499 Y126.95 E4.14452
G1 X146.487 Y127.687 E4.17884
G1 X146.428 Y128.659 E4.22419
G1 X146.282 Y129.622 E4.26954
G1 X146.051 Y130.569 E4.31493
G1 X145.738 Y131.49 E4.36022
G1 X145.344 Y132.382 E4.40563
G1 X144.873 Y133.235 E4.451
G1 X144.33 Y134.041 E4.49626
G1 X143.764 Y134.744 E4.53828
G1 X142.875 Y135.648 E4.59732
G1 X142.379 Y136.098 E4.6285
G1 X140.506 Y137.845 E4.74777
G1 X138.7 Y139.626 E4.86588
G1 X136.948 Y141.454 E4.98378
G1 X136.101 Y142.391 E5.04259
G1 X135.53 Y143.003 E5.08157
G1 X134.821 Y143.694 E5.12767
G1 X134.066 Y144.311 E5.17307
G1 X133.261 Y144.857 E5.21836
G1 X132.409 Y145.331 E5.26376
G1 X131.519 Y145.727 E5.30912
G1 X130.598 Y146.043 E5.35446
G1 X129.653 Y146.276 E5.39978
G1 X128.693 Y146.425 E5.44502
G1 X127.794 Y146.487 E5.48698
G1 X127.17 Y146.5 E5.51604
G1 X120.048 Y146.499 E5.84767
G1 X119.031 Y146.481 E5.89503
G1 X117.149 Y146.391 E5.98277
G1 X114.637 Y146.322 E6.09978
G1 X112.177 Y146.324 E6.21433
G1 X107.559 Y146.493 E6.42951
G1 X107.17 Y146.5 E6.44762
G1 X100.049 Y146.499 E6.77921
G1 X99.316 Y146.487 E6.81334
G1 X98.344 Y146.428 E6.85869
G1 X97.381 Y146.282 E6.90404
G1 X96.434 Y146.051 E6.94943
G1 X95.546 Y145.751 E6.99307
G1 X94.654 Y145.361 E7.03841
G1 X93.771 Y144.874 E7.08536
G1 X93.02 Y144.372 E7.12742
G1 X92.205 Y143.714 E7.1762
G1 X91.507 Y143.036 E7.22151
G1 X90.871 Y142.299 E7.26684
G1 X90.301 Y141.509 E7.3122
G1 X89.839 Y140.733 E7.35425
G1 X89.385 Y139.791 E7.40294
G1 X89.056 Y138.913 E7.4466
G1 X88.787 Y137.94 E7.49361
G1 X88.61 Y136.973 E7.53939
G1 X88.514 Y135.808 E7.59382
G1 X88.5 Y135.158 E7.62409
G1 X88.501 Y120.029 E8.32856
G1 X88.517 Y118.885 E8.38183
G1 X88.517 Y116.273 E8.50346
G1 X88.504 Y115.682 E8.53099
G1 X88.501 Y100.009 E9.26079
G1 X88.513 Y99.308 E9.29343
G1 X88.573 Y98.335 E9.33883
G1 X88.72 Y97.374 E9.38409
G1 X88.951 Y96.426 E9.42953
G1 X89.253 Y95.537 E9.47325
G1 X89.66 Y94.615 E9.52018
G1 X90.131 Y93.763 E9.56551
G1 X90.676 Y92.954 E9.61093
G1 X91.267 Y92.226 E9.65459
G1 X91.969 Y91.501 E9.70158
G0 F6000 X92.231 Y91.804
G1 F1200 X92.941 Y91.19 E9.74529
G1 X93.702 Y90.641 E9.78899
G1 X94.51 Y90.162 E9.83272
G1 X95.324 Y89.771 E9.87477
G1 X96.235 Y89.428 E9.9201
G1 X97.139 Y89.178 E9.96377
G1 X98.067 Y89.008 E10.00771
G1 X99.214 Y88.913 E10.0613
G1 X99.821 Y88.9 E10.08957
G1 X114.821 Y88.9 E10.78803
G1 X116.108 Y88.917 E10.84796
G1 X118.718 Y88.917 E10.9695
G1 X119.318 Y88.904 E10.99744
G1 X134.797 Y88.9 E11.71821
G1 X135.66 Y88.912 E11.7584
G1 X136.597 Y88.968 E11.80211
G1 X137.525 Y89.107 E11.8458
G1 X138.438 Y89.328 E11.88954
G1 X139.294 Y89.616 E11.9316
G1 X140.186 Y90.006 E11.97693
G1 X141.007 Y90.459 E12.02059
G1 X141.758 Y90.961 E12.06265
G1 X142.517 Y91.573 E12.10805
G1 X143.191 Y92.226 E12.15175
G1 X143.805 Y92.935 E12.19542
G1 X144.355 Y93.696 E12.23914
G1 X144.817 Y94.472 E12.2812
G1 X145.24 Y95.349 E12.32654
G1 X145.569 Y96.227 E12.3702
G1 X145.82 Y97.132 E12.41393
G1 X145.991 Y98.059 E12.45782
G1 X146.086 Y99.189 E12.51062
G1 X146.1 Y99.83 E12.54048
G1 X146.099 Y106.945 E12.87178
G1 X146.081 Y107.95 E12.91859
G1 X145.991 Y109.832 E13.00632
G1 X145.922 Y112.352 E13.12371
G1 X145.924 Y114.84 E13.23956
G1 X146.093 Y119.448 E13.45427
G1 X146.1 Y119.83 E13.47206
G1 X146.099 Y126.944 E13.80332
G1 X146.088 Y127.663 E13.8368
G1 X146.032 Y128.6 E13.88051
G1 X145.893 Y129.528 E13.9242
G1 X145.672 Y130.441 E13.96795
G1 X145.372 Y131.329 E14.01159
G1 X144.994 Y132.189 E14.05533
G1 X144.541 Y133.012 E14.09908
G1 X144.018 Y133.79 E14.14273
G1 X143.452 Y134.493 E14.18475
G1 X142.606 Y135.352 E14.24089
G1 X142.106 Y135.805 E14.27231
G1 X140.233 Y137.552 E14.39157
G1 X138.419 Y139.341 E14.51021
G1 X136.659 Y141.177 E14.62864
G1 X135.808 Y142.118 E14.68771
G1 X135.25 Y142.717 E14.72583
G1 X134.567 Y143.385 E14.77032
G1 X133.841 Y143.98 E14.81403
G1 X133.066 Y144.508 E14.85769
G1 X132.246 Y144.966 E14.90143
G1 X131.389 Y145.349 E14.94514
G1 X130.502 Y145.655 E14.98883
G1 X129.591 Y145.881 E15.03254
G1 X128.665 Y146.026 E15.07618
G1 X127.786 Y146.087 E15.11721
G1 X127.17 Y146.1 E15.1459
G1 X120.055 Y146.099 E15.4772
G1 X119.05 Y146.081 E15.52401
G1 X117.168 Y145.991 E15.61174
G1 X114.648 Y145.922 E15.72913
G1 X112.162 Y145.924 E15.84488
G1 X107.552 Y146.093 E16.05969
G1 X107.17 Y146.1 E16.07748
G1 X100.055 Y146.099 E16.40878
G1 X99.34 Y146.088 E16.44208
G1 X98.403 Y146.032 E16.48579
G1 X97.475 Y145.893 E16.52948
G1 X96.562 Y145.672 E16.57322
G1 X95.706 Y145.384 E16.61528
G1 X94.814 Y144.994 E16.66061
G1 X93.993 Y144.541 E16.70427
G1 X93.242 Y144.039 E16.74634
G1 X92.483 Y143.427 E16.79174
G1 X91.809 Y142.774 E16.83543
G1 X91.195 Y142.065 E16.87911
G1 X90.645 Y141.304 E16.92283
G1 X90.183 Y140.528 E16.96488
G1 X89.76 Y139.651 E17.01022
G1 X89.431 Y138.773 E17.05388
G1 X89.18 Y137.868 E17.09761
G1 X89.009 Y136.94 E17.14155
G1 X88.913 Y135.775 E17.19598
G1 X88.9 Y135.158 E17.22472
G1 X88.901 Y120.035 E17.92891
G1 X88.917 Y118.891 E17.98218
G1 X88.917 Y116.273 E18.10409
G1 X88.904 Y115.682 E18.13161
G1 X88.901 Y100.015 E18.86113
G1 X88.912 Y99.332 E18.89294
G1 X88.969 Y98.395 E18.93665
G1 X89.109 Y97.468 E18.98031
G1 X89.33 Y96.555 E19.02405
G1 X89.632 Y95.666 E19.06777
G1 X90.01 Y94.808 E19.11143
G1 X90.463 Y93.986 E19.15513
G1 X90.987 Y93.206 E19.19888
G1 X91.578 Y92.478 E19.24255
G1 X92.231 Y91.804 E19.28624
G0 F6000 X92.493 Y92.106
G1 F1200 X93.175 Y91.514 E19.3283
G1 X93.907 Y90.985 E19.37035
G1 X94.683 Y90.523 E19.4124
G1 X95.497 Y90.132 E19.45445
G1 X96.342 Y89.813 E19.49651
G1 X97.212 Y89.571 E19.53856
G1 X98.1 Y89.407 E19.58061
G1 X99.223 Y89.313 E19.63308
G1 X99.83 Y89.3 E19.66135
G1 X114.816 Y89.3 E20.35916
G1 X116.103 Y89.317 E20.4191
G1 X118.727 Y89.317 E20.54128
G1 X119.318 Y89.304 E20.56881
G1 X134.792 Y89.3 E21.28934
G1 X135.637 Y89.311 E21.32869
G1 X136.539 Y89.364 E21.37076
G1 X137.432 Y89.496 E21.4128
G1 X138.31 Y89.707 E21.45485
G1 X139.166 Y89.995 E21.4969
G1 X139.993 Y90.357 E21.53894
G1 X140.785 Y90.792 E21.58101
G1 X141.536 Y91.294 E21.62307
G1 X142.239 Y91.861 E21.66513
G1 X142.889 Y92.488 E21.70718
G1 X143.481 Y93.17 E21.74923
G1 X144.011 Y93.901 E21.79128
G1 X144.473 Y94.677 E21.83333
G1 X144.866 Y95.49 E21.87538
G1 X145.184 Y96.335 E21.91742
G1 X145.427 Y97.205 E21.95948
G1 X145.592 Y98.093 E22.00154
G1 X145.687 Y99.223 E22.05434
G1 X145.7 Y99.83 E22.08261
G1 X145.699 Y106.938 E22.41359
G1 X145.681 Y107.931 E22.45984
G1 X145.591 Y109.813 E22.54757
G1 X145.522 Y112.341 E22.66533
G1 X145.524 Y114.855 E22.78239
G1 X145.693 Y119.455 E22.99673
G1 X145.7 Y119.83 E23.01419
G1 X145.699 Y126.938 E23.34517
G1 X145.689 Y127.64 E23.37786
G1 X145.636 Y128.542 E23.41994
G1 X145.504 Y129.435 E23.46197
G1 X145.293 Y130.313 E23.50402
G1 X145.005 Y131.169 E23.54607
G1 X144.643 Y131.997 E23.58815
G1 X144.209 Y132.789 E23.6302
G1 X143.706 Y133.539 E23.67226
G1 X143.14 Y134.242 E23.71428
G1 X142.338 Y135.055 E23.76746
G1 X141.833 Y135.512 E23.79917
G1 X139.96 Y137.259 E23.91844
G1 X138.138 Y139.056 E24.0376
G1 X136.37 Y140.9 E24.15655
G1 X135.515 Y141.845 E24.21589
G1 X134.957 Y142.444 E24.25401
G1 X134.313 Y143.076 E24.29603
G1 X133.615 Y143.65 E24.33811
G1 X132.87 Y144.159 E24.38012
G1 X132.082 Y144.601 E24.42219
G1 X131.258 Y144.971 E24.46425
G1 X130.405 Y145.267 E24.50629
G1 X129.529 Y145.486 E24.54834
G1 X128.637 Y145.627 E24.59039
G1 X127.777 Y145.687 E24.63053
G1 X127.17 Y145.7 E24.6588
G1 X120.062 Y145.699 E24.98978
G1 X119.069 Y145.681 E25.03603
G1 X117.187 Y145.591 E25.12376
G1 X114.659 Y145.522 E25.24152
G1 X112.147 Y145.524 E25.35849
G1 X107.545 Y145.693 E25.57292
G1 X107.17 Y145.7 E25.59039
G1 X100.061 Y145.699 E25.92141
G1 X99.363 Y145.689 E25.95392
G1 X98.461 Y145.636 E25.99599
G1 X97.568 Y145.504 E26.03802
G1 X96.69 Y145.293 E26.08007
G1 X95.834 Y145.005 E26.12212
G1 X95.007 Y144.643 E26.16416
G1 X94.215 Y144.208 E26.20624
G1 X93.464 Y143.706 E26.2483
G1 X92.761 Y143.139 E26.29035
G1 X92.111 Y142.512 E26.33241
G1 X91.519 Y141.83 E26.37446
G1 X90.989 Y141.099 E26.4165
G1 X90.527 Y140.323 E26.45856
G1 X90.134 Y139.51 E26.5006
G1 X89.816 Y138.665 E26.54264
G1 X89.573 Y137.795 E26.58471
G1 X89.408 Y136.907 E26.62676
G1 X89.313 Y135.766 E26.68008
G1 X89.3 Y135.158 E26.70839
G1 X89.301 Y120.041 E27.4123
G1 X89.317 Y118.897 E27.46558
G1 X89.317 Y116.273 E27.58776
G1 X89.304 Y115.682 E27.61529
G1 X89.301 Y100.021 E28.34453
G1 X89.311 Y99.356 E28.3755
G1 X89.365 Y98.454 E28.41758
G1 X89.498 Y97.561 E28.45962
G1 X89.709 Y96.683 E28.50166
G1 X89.998 Y95.827 E28.54373
G1 X90.361 Y95 E28.58579
G1 X90.795 Y94.209 E28.6278
G1 X91.298 Y93.458 E28.66989
G1 X91.866 Y92.756 E28.71194
G1 X92.493 Y92.106 E28.75399
G1 F2700 E23.75399
;MESH:body_issue_23.stl
G0 F6000 X99.914 Y98.835
G0 X99.914 Y99.914
G0 X103.7 Y111.7
;TYPE:WALL-INNER
G1 F2700 E28.75399
G1 F1200 X103.7 Y107.5 E28.94956
G1 F1140.1 X103.759 Y106.716 E28.98809
G1 X104.012 Y105.99 E29.02577
G1 F1200 X104.368 Y105.346 E29.06003
G1 X104.812 Y104.812 E29.09237
G1 X105.347 Y104.367 E29.12477
G1 X105.99 Y104.012 E29.15898
G1 F1179.4 X106.798 Y103.744 E29.19931
G1 X107.5 Y103.7 E29.23263
G1 F1200 X111.7 Y103.7 E29.4282
G1 X111.7 Y103.3 E29.44683
G1 X107.5 Y103.3 E29.6424
G1 F1156.6 X106.804 Y103.315 E29.67603
G1 X105.843 Y103.3 E29.72246
G1 F1200 X103.3 Y103.3 E29.84088
G1 X103.3 Y105.843 E29.95929
G1 F1140.1 X103.321 Y106.671 E29.99988
G1 X103.3 Y107.5 E30.04052
G1 F1200 X103.3 Y111.7 E30.23609
G1 X103.7 Y111.7 E30.25472
G0 F6000 X104.1 Y112.1
G1 F1200 X104.1 Y107.5 E30.46891
G1 X104.171 Y106.802 E30.50158
G1 X104.379 Y106.149 E30.53349
G1 X104.698 Y105.572 E30.56419
G1 X105.095 Y105.095 E30.59309
G1 X105.573 Y104.697 E30.62205
G1 X106.149 Y104.379 E30.65269
G1 X106.858 Y104.155 E30.68731
G1 X107.5 Y104.1 E30.71732
G1 X112.1 Y104.1 E30.93151
G1 X112.1 Y102.9 E30.98739
G1 X102.9 Y102.9 E31.41578
G1 X102.9 Y112.1 E31.84417
G1 X104.1 Y112.1 E31.90005
G0 F6000 X104.5 Y112.5
G1 F1200 X104.5 Y107.5 E32.13287
G1 X104.563 Y106.884 E32.1617
G1 X104.746 Y106.308 E32.18984
G1 X105.028 Y105.799 E32.21694
G1 X105.378 Y105.378 E32.24243
G1 X105.8 Y105.027 E32.26799
G1 X106.308 Y104.746 E32.29502
G1 X106.936 Y104.548 E32.32569
G1 X107.5 Y104.5 E32.35204
G1 X112.5 Y104.5 E32.58486
G1 X112.5 Y102.5 E32.67799
G1 X102.5 Y102.5 E33.14363
G1 X102.5 Y112.5 E33.60928
G1 X104.5 Y112.5 E33.7024
G0 F6000 X104.9 Y112.9
G1 F1200 X104.9 Y107.5 E33.95385
G1 X104.954 Y106.966 E33.97884
G1 X105.113 Y106.467 E34.00323
G1 X105.357 Y106.026 E34.0267
G1 X105.661 Y105.661 E34.04882
G1 X106.026 Y105.357 E34.07094
G1 X106.467 Y105.113 E34.0944
G1 X107.01 Y104.941 E34.12093
G1 X107.5 Y104.9 E34.14382
G1 X112.9 Y104.9 E34.39527
G1 X112.9 Y102.1 E34.52565
G1 X102.1 Y102.1 E35.02854
G1 X102.1 Y112.9 E35.53144
G1 X104.9 Y112.9 E35.66181
G0 F6000 X105.3 Y113.3
G1 F1200 X105.3 Y107.5 E35.93189
G1 X105.346 Y107.048 E35.95304
G1 X105.48 Y106.626 E35.97366
G1 X105.687 Y106.253 E35.99352
G1 X105.944 Y105.944 E36.01224
G1 X106.253 Y105.686 E36.03098
G1 X106.626 Y105.48 E36.05082
G1 X107.088 Y105.335 E36.07337
G1 X107.5 Y105.3 E36.09262
G1 X113.3 Y105.3 E36.3627
G1 X113.3 Y101.7 E36.53033
G1 X101.7 Y101.7 E37.07047
G1 X101.7 Y113.3 E37.61062
G1 X105.3 Y113.3 E37.77825
G0 F6000 X105.7 Y113.7
G1 F1200 X105.7 Y107.5 E38.06695
G1 X105.737 Y107.13 E38.08426
G1 X105.847 Y106.785 E38.10112
G1 X106.016 Y106.479 E38.1174
G1 X106.227 Y106.227 E38.1327
G1 X106.48 Y106.016 E38.14804
G1 X106.785 Y105.847 E38.16428
G1 X107.189 Y105.726 E38.18392
G1 X107.5 Y105.7 E38.19845
G1 X113.7 Y105.7 E38.48715
G1 X113.7 Y101.3 E38.69203
G1 X101.3 Y101.3 E39.26943
G1 X101.3 Y113.7 E39.84682
G1 X105.7 Y113.7 E40.0517
G0 F6000 X106.1 Y114.1
G1 F1200 X106.1 Y107.5 E40.35903
G1 X106.129 Y107.212 E40.37251
G1 X106.215 Y106.943 E40.38566
G1 X106.346 Y106.706 E40.39827
G1 X106.509 Y106.509 E40.41017
G1 X106.706 Y106.346 E40.42208
G1 X106.943 Y106.215 E40.43469
G1 X107.324 Y106.1 E40.45322
G1 X114.1 Y106.1 E40.76874
G1 X114.1 Y100.9 E41.01087
G1 X100.9 Y100.9 E41.62552
G1 X100.9 Y114.1 E42.24017
G1 X106.1 Y114.1 E42.4823
G0 F6000 X106.5 Y114.5
G1 F1200 X106.5 Y107.36 E42.81477
G1 X106.582 Y107.102 E42.82737
G1 X106.792 Y106.792 E42.84481
G1 X107.102 Y106.582 E42.86224
G1 X107.373 Y106.5 E42.87543
G1 X114.5 Y106.5 E43.20729
G1 X114.5 Y100.5 E43.48668
G1 X100.5 Y100.5 E44.13858
G1 X100.5 Y114.5 E44.79047
G1 X106.5 Y114.5 E45.06986
G0 F6000 X106.9 Y114.9
G1 F1200 X106.9 Y107.413 E45.41849
G1 X106.949 Y107.261 E45.42592
G1 X107.075 Y107.075 E45.43638
G1 X107.261 Y106.949 E45.44684
G1 X107.422 Y106.9 E45.45468
G1 X114.9 Y106.9 E45.80289
G1 X114.9 Y100.1 E46.11952
G1 X100.1 Y100.1 E46.80867
G1 X100.1 Y114.9 E47.49782
G1 X106.9 Y114.9 E47.81446
G0 F6000 X107.3 Y115.3
;TYPE:WALL-OUTER
G1 F1200 X107.304 Y107.458 E48.17962
G1 X107.358 Y107.358 E48.18491
G1 X107.465 Y107.302 E48.19053
G1 X115.3 Y107.3 E48.55536
G1 X115.3 Y99.7 E48.90925
G1 X99.7 Y99.7 E49.63565
G1 X99.7 Y115.3 E50.36205
G1 X107.3 Y115.3 E50.71594
G0 F6000 X107.03 Y115.03
G0 X103.481 Y107.066
G0 X103.403 Y105.889
G0 X103.663 Y105.877
;TYPE:SKIN
G1 F1200 X103.661 Y103.661 E50.81913
G1 X105.877 Y103.663 E50.92231
G1 X105.162 Y104.057 E50.96033
G1 X104.557 Y104.56 E50.99696
G1 X104.083 Y105.124 E51.03127
G1 X103.663 Y105.877 E51.07142
G0 F6000 X103.403 Y105.89
G0 X103.536 Y106.71
G0 X104.511 Y105.018
G0 X104.158 Y104.723
G1 F1200 X103.86 Y104.426 E51.09101
G0 F6000 X104.416 Y104.416
G1 F1200 X103.86 Y103.86 E51.12762
G0 F6000 X104.426 Y103.86
G1 F1200 X104.723 Y104.157 E51.14718
G0 F6000 X105.21 Y104.743
G1 F2700 E46.14718
G0 F6000 X115.086 Y107.086
G0 X116.165 Y107.086
G0 X118.835 Y107.086
G0 X119.92 Y107.086
G0 X123.3 Y111.7
;TYPE:WALL-INNER
G1 F2700 E51.14718
G1 F1200 X123.7 Y111.7 E51.1658
G1 X123.7 Y107.5 E51.36137
G1 F1140.1 X123.759 Y106.716 E51.39991
G1 X124.012 Y105.99 E51.43759
G1 F1200 X124.368 Y105.346 E51.47185
G1 X124.812 Y104.812 E51.50419
G1 X125.347 Y104.367 E51.53659
G1 X125.99 Y104.012 E51.57079
G1 F1179.4 X126.798 Y103.744 E51.61112
G1 X127.5 Y103.7 E51.64445
G1 F1200 X131.7 Y103.7 E51.84002
G1 X131.7 Y103.3 E51.85864
G1 X127.5 Y103.3 E52.05421
G1 F1156.6 X126.804 Y103.315 E52.08785
