;FLAVOR:Marlin
;TIME:2263
;Filament used: 1.94926m
;Layer height: 0.28
;MINX:88.5
;MINY:88.5
;MINZ:0.28
;MAXX:184
;MAXY:146.5
;MAXZ:3.92
;Generated with Cura_SteamEngine 5.4.0
M140 S50
M105
M190 S50
M104 S200
M105
M109 S200
M82 ;absolute extrusion mode
; Ender 3 Custom Start G-code
G92 E0 ; Reset Extruder
G28 ; Home all axes
G1 Z2.0 F3000 ; Move Z Axis up little to prevent scratching of Heat Bed
G1 X0.1 Y20 Z0.3 F5000.0 ; Move to start position
G1 X0.1 Y200.0 Z0.3 F1500.0 E15 ; Draw the first line
G1 X0.4 Y200.0 Z0.3 F5000.0 ; Move to side a little
G1 X0.4 Y20 Z0.3 F1500.0 E30 ; Draw the second line
G92 E0 ; Reset Extruder
G1 Z2.0 F3000 ; Move Z Axis up little to prevent scratching of Heat Bed
G1 X5 Y20 Z0.3 F5000.0 ; Move over to prevent blob squish
G92 E0
G92 E0
G1 F2700 E-5
;LAYER_COUNT:14
;LAYER:0
M107
G0 F6000 X91.969 Y91.501 Z0.28
;TYPE:SKIRT
G1 F2700 E0
G1 F1200 X92.679 Y90.887 E0.04371
G1 X93.498 Y90.297 E0.09071
G1 X94.337 Y89.801 E0.13609
G1 X95.151 Y89.41 E0.17814
G1 X96.128 Y89.042 E0.22676
G1 X97.032 Y88.792 E0.27043
G1 X98.034 Y88.609 E0.31786
G1 X99.205 Y88.513 E0.37257
G1 X99.812 Y88.5 E0.40084
G1 X114.826 Y88.5 E1.09995
G1 X116.113 Y88.517 E1.15989
G1 X118.709 Y88.517 E1.28077
G1 X119.318 Y88.504 E1.30913
G1 X152.325 Y88.5 E2.84608
G1 X153.613 Y88.517 E2.90606
G1 X156.209 Y88.517 E3.02694
G1 X156.818 Y88.504 E3.0553
G1 X172.303 Y88.5 E3.77635
G1 X173.184 Y88.513 E3.81737
G1 X174.156 Y88.572 E3.86272
G1 X175.119 Y88.718 E3.90807
G1 X176.066 Y88.949 E3.95346
G1 X176.954 Y89.249 E3.99711
G1 X177.846 Y89.639 E4.04244
G1 X178.729 Y90.126 E4.08939
G1 X179.48 Y90.628 E4.13146
G1 X180.295 Y91.286 E4.18023
G1 X180.993 Y91.964 E4.22554
G1 X181.629 Y92.701 E4.27087
G1 X182.199 Y93.491 E4.31623
G1 X182.661 Y94.267 E4.35828
G1 X183.115 Y95.209 E4.40698
G1 X183.444 Y96.087 E4.45064
G1 X183.713 Y97.059 E4.4976
G1 X183.89 Y98.025 E4.54333
G1 X183.985 Y99.155 E4.59613
G1 X184 Y99.83 E4.62757
G1 X183.999 Y114.971 E5.3326
G1 X183.983 Y116.115 E5.38587
G1 X183.983 Y118.727 E5.5075
G1 X183.996 Y119.318 E5.53502
G1 X184 Y134.773 E6.25467
G1 X183.988 Y135.663 E6.29612
G1 X183.931 Y136.636 E6.3415
G1 X183.786 Y137.599 E6.38685
G1 X183.557 Y138.545 E6.43217
G1 X183.246 Y139.469 E6.47757
G1 X182.854 Y140.36 E6.5229
G1 X182.386 Y141.212 E6.56816
G1 X181.864 Y141.993 E6.6119
G1 X181.231 Y142.778 E6.65886
G1 X180.606 Y143.429 E6.70088
G1 X179.817 Y144.117 E6.74963
G1 X179.057 Y144.667 E6.79331
G1 X178.19 Y145.184 E6.84031
G1 X177.312 Y145.606 E6.88567
G1 X176.401 Y145.948 E6.93098
G1 X175.462 Y146.209 E6.97637
G1 X174.496 Y146.387 E7.0221
G1 X173.345 Y146.485 E7.07589
G1 X172.67 Y146.5 E7.10733
G1 X165.548 Y146.499 E7.43896
G1 X164.531 Y146.481 E7.48633
G1 X162.649 Y146.391 E7.57406
G1 X160.137 Y146.322 E7.69107
G1 X157.677 Y146.324 E7.80562
G1 X153.059 Y146.493 E8.0208
G1 X152.67 Y146.5 E8.03891
G1 X145.549 Y146.499 E8.3705
G1 X144.827 Y146.489 E8.40412
G1 X144.175 Y146.459 E8.43451
G1 X142.615 Y146.34 E8.50736
G1 X140.104 Y146.195 E8.62448
G1 X137.538 Y146.12 E8.74402
G1 X135.051 Y146.118 E8.85982
G1 X132.515 Y146.187 E8.97795
G1 X129.994 Y146.327 E9.09552
G1 X128.336 Y146.457 E9.17296
G1 X127.794 Y146.487 E9.19824
G1 X127.17 Y146.5 E9.2273
G1 X120.048 Y146.499 E9.55893
G1 X119.031 Y146.481 E9.60629
G1 X117.149 Y146.391 E9.69403
G1 X114.637 Y146.322 E9.81104
G1 X112.177 Y146.324 E9.92559
G1 X107.559 Y146.493 E10.14077
G1 X107.17 Y146.5 E10.15888
G1 X100.049 Y146.499 E10.49047
G1 X99.316 Y146.487 E10.5246
G1 X98.344 Y146.428 E10.56995
G1 X97.381 Y146.282 E10.6153
G1 X96.434 Y146.051 E10.66069
G1 X95.546 Y145.751 E10.70433
G1 X94.654 Y145.361 E10.74967
G1 X93.771 Y144.874 E10.79662
G1 X93.02 Y144.372 E10.83868
G1 X92.205 Y143.714 E10.88746
G1 X91.507 Y143.036 E10.93277
G1 X90.871 Y142.299 E10.9781
G1 X90.301 Y141.509 E11.02346
G1 X89.839 Y140.733 E11.06551
G1 X89.385 Y139.791 E11.1142
G1 X89.056 Y138.913 E11.15786
G1 X88.787 Y137.94 E11.20487
G1 X88.61 Y136.973 E11.25065
G1 X88.514 Y135.808 E11.30508
G1 X88.5 Y135.158 E11.33535
G1 X88.501 Y120.029 E12.03982
G1 X88.517 Y118.885 E12.09309
G1 X88.517 Y116.273 E12.21472
G1 X88.504 Y115.682 E12.24225
G1 X88.501 Y100.009 E12.97205
G1 X88.513 Y99.308 E13.00469
G1 X88.573 Y98.335 E13.05009
G1 X88.72 Y97.374 E13.09535
G1 X88.951 Y96.426 E13.14079
G1 X89.253 Y95.537 E13.18451
G1 X89.66 Y94.615 E13.23144
G1 X90.131 Y93.763 E13.27677
G1 X90.676 Y92.954 E13.32219
G1 X91.267 Y92.226 E13.36585
G1 X91.969 Y91.501 E13.41284
G0 F6000 X92.231 Y91.804
G1 F1200 X92.941 Y91.19 E13.45655
G1 X93.702 Y90.641 E13.50025
G1 X94.51 Y90.162 E13.54398
G1 X95.324 Y89.771 E13.58603
G1 X96.235 Y89.428 E13.63136
G1 X97.139 Y89.178 E13.67503
G1 X98.067 Y89.008 E13.71897
G1 X99.214 Y88.913 E13.77256
G1 X99.821 Y88.9 E13.80083
G1 X114.821 Y88.9 E14.49929
G1 X116.108 Y88.917 E14.55922
G1 X118.718 Y88.917 E14.68076
G1 X119.318 Y88.904 E14.7087
G1 X152.32 Y88.9 E16.24541
G1 X153.608 Y88.917 E16.30539
G1 X156.218 Y88.917 E16.42693
G1 X156.818 Y88.904 E16.45487
G1 X172.297 Y88.9 E17.17564
G1 X173.16 Y88.912 E17.21583
G1 X174.097 Y88.968 E17.25954
G1 X175.025 Y89.107 E17.30323
G1 X175.938 Y89.328 E17.34697
G1 X176.794 Y89.616 E17.38902
G1 X177.686 Y90.006 E17.43436
G1 X178.507 Y90.459 E17.47802
G1 X179.258 Y90.961 E17.52008
G1 X180.017 Y91.573 E17.56548
G1 X180.691 Y92.226 E17.60918
G1 X181.305 Y92.935 E17.65285
G1 X181.855 Y93.696 E17.69657
G1 X182.317 Y94.472 E17.73863
G1 X182.74 Y95.349 E17.78397
G1 X183.069 Y96.227 E17.82762
G1 X183.32 Y97.132 E17.87136
G1 X183.491 Y98.059 E17.91525
G1 X183.586 Y99.189 E17.96805
G1 X183.6 Y99.83 E17.99791
G1 X183.599 Y114.965 E18.70266
G1 X183.583 Y116.109 E18.75593
G1 X183.583 Y118.727 E18.87784
G1 X183.596 Y119.318 E18.90536
G1 X183.6 Y134.768 E19.62478
G1 X183.589 Y135.64 E19.66539
G1 X183.535 Y136.577 E19.70909
G1 X183.397 Y137.506 E19.75282
G1 X183.178 Y138.418 E19.7965
G1 X182.88 Y139.308 E19.8402
G1 X182.503 Y140.168 E19.88392
G1 X182.053 Y140.99 E19.92756
G1 X181.531 Y141.771 E19.9713
G1 X180.942 Y142.501 E20.01498
G1 X180.317 Y143.152 E20.057
G1 X179.582 Y143.793 E20.10241
G1 X178.822 Y144.343 E20.14609
G1 X178.016 Y144.824 E20.1898
G1 X177.171 Y145.232 E20.23349
G1 X176.293 Y145.563 E20.27719
G1 X175.389 Y145.816 E20.3209
G1 X174.462 Y145.988 E20.3648
G1 X173.311 Y146.086 E20.41859
G1 X172.67 Y146.1 E20.44844
G1 X165.555 Y146.099 E20.77975
G1 X164.55 Y146.081 E20.82655
G1 X162.668 Y145.991 E20.91429
G1 X160.148 Y145.922 E21.03167
G1 X157.662 Y145.924 E21.14743
G1 X153.052 Y146.093 E21.36224
G1 X152.67 Y146.1 E21.38003
G1 X145.555 Y146.099 E21.71133
G1 X144.845 Y146.089 E21.74439
G1 X144.205 Y146.06 E21.77423
G1 X142.645 Y145.941 E21.84708
G1 X140.116 Y145.795 E21.96503
G1 X137.55 Y145.72 E22.08457
G1 X135.04 Y145.718 E22.20144
G1 X132.504 Y145.787 E22.31957
G1 X129.963 Y145.928 E22.43808
G1 X128.314 Y146.058 E22.5151
G1 X127.786 Y146.087 E22.53972
G1 X127.17 Y146.1 E22.56841
G1 X120.055 Y146.099 E22.89972
G1 X119.05 Y146.081 E22.94652
G1 X117.168 Y145.991 E23.03425
G1 X114.648 Y145.922 E23.15164
G1 X112.162 Y145.924 E23.2674
G1 X107.552 Y146.093 E23.4822
G1 X107.17 Y146.1 E23.49999
G1 X100.055 Y146.099 E23.8313
G1 X99.34 Y146.088 E23.8646
G1 X98.403 Y146.032 E23.9083
G1 X97.475 Y145.893 E23.952
G1 X96.562 Y145.672 E23.99574
G1 X95.706 Y145.384 E24.03779
G1 X94.814 Y144.994 E24.08313
G1 X93.993 Y144.541 E24.12679
G1 X93.242 Y144.039 E24.16885
G1 X92.483 Y143.427 E24.21425
G1 X91.809 Y142.774 E24.25795
G1 X91.195 Y142.065 E24.30162
G1 X90.645 Y141.304 E24.34534
G1 X90.183 Y140.528 E24.3874
G1 X89.76 Y139.651 E24.43273
G1 X89.431 Y138.773 E24.47639
G1 X89.18 Y137.868 E24.52013
G1 X89.009 Y136.94 E24.56406
G1 X88.913 Y135.775 E24.6185
G1 X88.9 Y135.158 E24.64723
G1 X88.901 Y120.035 E25.35142
G1 X88.917 Y118.891 E25.4047
G1 X88.917 Y116.273 E25.5266
G1 X88.904 Y115.682 E25.55413
G1 X88.901 Y100.015 E26.28365
G1 X88.912 Y99.332 E26.31546
G1 X88.969 Y98.395 E26.35917
G1 X89.109 Y97.468 E26.40282
G1 X89.33 Y96.555 E26.44656
G1 X89.632 Y95.666 E26.49028
G1 X90.01 Y94.808 E26.53394
G1 X90.463 Y93.986 E26.57764
G1 X90.987 Y93.206 E26.6214
G1 X91.578 Y92.478 E26.66506
G1 X92.231 Y91.804 E26.70876
G0 F6000 X92.493 Y92.106
G1 F1200 X93.175 Y91.514 E26.75081
G1 X93.907 Y90.985 E26.79286
G1 X94.683 Y90.523 E26.83492
G1 X95.497 Y90.132 E26.87697
G1 X96.342 Y89.813 E26.91902
G1 X97.212 Y89.571 E26.96107
G1 X98.1 Y89.407 E27.00312
G1 X99.223 Y89.313 E27.0556
G1 X99.83 Y89.3 E27.08387
G1 X114.816 Y89.3 E27.78168
G1 X116.103 Y89.317 E27.84161
G1 X118.727 Y89.317 E27.9638
G1 X119.318 Y89.304 E27.99132
G1 X152.315 Y89.3 E29.5278
G1 X153.603 Y89.317 E29.58778
G1 X156.227 Y89.317 E29.70996
G1 X156.818 Y89.304 E29.73749
G1 X172.292 Y89.3 E30.45802
G1 X173.137 Y89.311 E30.49737
G1 X174.039 Y89.364 E30.53945
G1 X174.932 Y89.496 E30.58148
G1 X175.81 Y89.707 E30.62353
G1 X176.666 Y89.995 E30.66558
G1 X177.493 Y90.357 E30.70762
G1 X178.285 Y90.792 E30.7497
G1 X179.036 Y91.294 E30.79176
G1 X179.739 Y91.861 E30.83381
G1 X180.389 Y92.488 E30.87587
G1 X180.981 Y93.17 E30.91792
G1 X181.511 Y93.901 E30.95996
G1 X181.973 Y94.677 E31.00201
G1 X182.366 Y95.49 E31.04406
G1 X182.684 Y96.335 E31.0861
G1 X182.927 Y97.205 E31.12816
G1 X183.092 Y98.093 E31.17022
G1 X183.187 Y99.223 E31.22302
G1 X183.2 Y99.83 E31.2513
G1 X183.199 Y114.959 E31.95577
G1 X183.183 Y116.103 E32.00904
G1 X183.183 Y118.727 E32.13122
G1 X183.196 Y119.318 E32.15875
G1 X183.2 Y134.763 E32.87793
G1 X183.19 Y135.617 E32.9177
G1 X183.139 Y136.519 E32.95977
G1 X183.008 Y137.413 E33.00184
G1 X182.799 Y138.291 E33.04387
G1 X182.513 Y139.148 E33.08594
G1 X182.152 Y139.976 E33.128
G1 X181.72 Y140.768 E33.17001
G1 X181.219 Y141.52 E33.21208
G1 X180.653 Y142.224 E33.25414
G1 X180.028 Y142.875 E33.29617
G1 X179.347 Y143.469 E33.33824
G1 X178.616 Y144 E33.38032
G1 X177.842 Y144.464 E33.42234
G1 X177.029 Y144.858 E33.4644
G1 X176.185 Y145.178 E33.50643
G1 X175.315 Y145.423 E33.54852
G1 X174.428 Y145.589 E33.59054
G1 X173.277 Y145.687 E33.64433
G1 X172.67 Y145.7 E33.6726
G1 X165.562 Y145.699 E34.00358
G1 X164.569 Y145.681 E34.04982
G1 X162.687 Y145.591 E34.13756
G1 X160.159 Y145.522 E34.25532
G1 X157.647 Y145.524 E34.37229
G1 X153.045 Y145.693 E34.58672
G1 X152.67 Y145.7 E34.60418
G1 X145.561 Y145.699 E34.93521
G1 X144.863 Y145.689 E34.96771
G1 X144.235 Y145.661 E34.99698
G1 X142.675 Y145.542 E35.06984
G1 X140.128 Y145.395 E35.18863
G1 X137.562 Y145.32 E35.30817
G1 X135.029 Y145.318 E35.42611
G1 X132.493 Y145.387 E35.54424
G1 X129.932 Y145.53 E35.66368
G1 X128.292 Y145.659 E35.74028
G1 X127.777 Y145.687 E35.7643
G1 X127.17 Y145.7 E35.79257
G1 X120.062 Y145.699 E36.12355
G1 X119.069 Y145.681 E36.16979
G1 X117.187 Y145.591 E36.25753
G1 X114.659 Y145.522 E36.37529
G1 X112.147 Y145.524 E36.49225
G1 X107.545 Y145.693 E36.70669
G1 X107.17 Y145.7 E36.72415
G1 X100.061 Y145.699 E37.05518
G1 X99.363 Y145.689 E37.08768
G1 X98.461 Y145.636 E37.12976
G1 X97.568 Y145.504 E37.17179
G1 X96.69 Y145.293 E37.21384
G1 X95.834 Y145.005 E37.25589
G1 X95.007 Y144.643 E37.29793
G1 X94.215 Y144.208 E37.34
G1 X93.464 Y143.706 E37.38207
G1 X92.761 Y143.139 E37.42412
G1 X92.111 Y142.512 E37.46617
G1 X91.519 Y141.83 E37.50823
G1 X90.989 Y141.099 E37.55027
G1 X90.527 Y140.323 E37.59232
G1 X90.134 Y139.51 E37.63437
G1 X89.816 Y138.665 E37.67641
G1 X89.573 Y137.795 E37.71847
G1 X89.408 Y136.907 E37.76053
G1 X89.313 Y135.766 E37.81384
G1 X89.3 Y135.158 E37.84216
G1 X89.301 Y120.041 E38.54607
G1 X89.317 Y118.897 E38.59935
G1 X89.317 Y116.273 E38.72153
G1 X89.304 Y115.682 E38.74906
G1 X89.301 Y100.021 E39.4783
G1 X89.311 Y99.356 E39.50927
G1 X89.365 Y98.454 E39.55134
G1 X89.498 Y97.561 E39.59338
G1 X89.709 Y96.683 E39.63543
G1 X89.998 Y95.827 E39.6775
G1 X90.361 Y95 E39.71955
G1 X90.795 Y94.209 E39.76157
G1 X91.298 Y93.458 E39.80366
G1 X91.866 Y92.756 E39.8457
G1 X92.493 Y92.106 E39.88776
G1 F2700 E34.88776
;MESH:body_issue_23.stl
G0 F6000 X99.914 Y98.835
G0 X99.914 Y99.914
G0 X103.7 Y111.7
;TYPE:WALL-INNER
G1 F2700 E39.88776
G1 F1200 X103.7 Y107.5 E40.08333
G1 F1140.1 X103.759 Y106.716 E40.12186
G1 X104.012 Y105.99 E40.15954
G1 F1200 X104.368 Y105.346 E40.1938
G1 X104.812 Y104.812 E40.22614
G1 X105.347 Y104.367 E40.25854
G1 X105.99 Y104.012 E40.29274
G1 F1179.4 X106.798 Y103.744 E40.33308
G1 X107.5 Y103.7 E40.3664
G1 F1200 X111.7 Y103.7 E40.56197
G1 X111.7 Y103.3 E40.5806
G1 X107.5 Y103.3 E40.77617
G1 F1156.6 X106.804 Y103.315 E40.8098
G1 X105.843 Y103.3 E40.85623
G1 F1200 X103.3 Y103.3 E40.97464
G1 X103.3 Y105.843 E41.09305
G1 F1140.1 X103.321 Y106.671 E41.13365
G1 X103.3 Y107.5 E41.17429
G1 F1200 X103.3 Y111.7 E41.36986
G1 X103.7 Y111.7 E41.38848
G0 F6000 X104.1 Y112.1
G1 F1200 X104.1 Y107.5 E41.60268
G1 X104.171 Y106.802 E41.63535
G1 X104.379 Y106.149 E41.66726
G1 X104.698 Y105.572 E41.69796
G1 X105.095 Y105.095 E41.72686
G1 X105.573 Y104.697 E41.75582
G1 X106.149 Y104.379 E41.78646
G1 X106.858 Y104.155 E41.82108
G1 X107.5 Y104.1 E41.85108
G1 X112.1 Y104.1 E42.06528
G1 X112.1 Y102.9 E42.12116
G1 X102.9 Y102.9 E42.54955
G1 X102.9 Y112.1 E42.97794
G1 X104.1 Y112.1 E43.03381
G0 F6000 X104.5 Y112.5
G1 F1200 X104.5 Y107.5 E43.26664
G1 X104.563 Y106.884 E43.29547
G1 X104.746 Y106.308 E43.32361
G1 X105.028 Y105.799 E43.35071
G1 X105.378 Y105.378 E43.3762
G1 X105.8 Y105.027 E43.40176
G1 X106.308 Y104.746 E43.42879
G1 X106.936 Y104.548 E43.45945
G1 X107.5 Y104.5 E43.48581
G1 X112.5 Y104.5 E43.71863
G1 X112.5 Y102.5 E43.81176
G1 X102.5 Y102.5 E44.2774
G1 X102.5 Y112.5 E44.74304
G1 X104.5 Y112.5 E44.83617
G0 F6000 X104.9 Y112.9
G1 F1200 X104.9 Y107.5 E45.08762
G1 X104.954 Y106.966 E45.11261
G1 X105.113 Y106.467 E45.137
G1 X105.357 Y106.026 E45.16046
G1 X105.661 Y105.661 E45.18258
G1 X106.026 Y105.357 E45.2047
G1 X106.467 Y105.113 E45.22817
G1 X107.01 Y104.941 E45.25469
G1 X107.5 Y104.9 E45.27759
G1 X112.9 Y104.9 E45.52904
G1 X112.9 Y102.1 E45.65942
G1 X102.1 Y102.1 E46.16231
G1 X102.1 Y112.9 E46.6652
G1 X104.9 Y112.9 E46.79558
G0 F6000 X105.3 Y113.3
G1 F1200 X105.3 Y107.5 E47.06565
G1 X105.346 Y107.048 E47.08681
G1 X105.48 Y106.626 E47.10743
G1 X105.687 Y106.253 E47.12729
G1 X105.944 Y105.944 E47.146
G1 X106.253 Y105.686 E47.16475
G1 X106.626 Y105.48 E47.18459
G1 X107.088 Y105.335 E47.20714
G1 X107.5 Y105.3 E47.22639
G1 X113.3 Y105.3 E47.49646
G1 X113.3 Y101.7 E47.66409
G1 X101.7 Y101.7 E48.20424
G1 X101.7 Y113.3 E48.74438
G1 X105.3 Y113.3 E48.91201
G0 F6000 X105.7 Y113.7
G1 F1200 X105.7 Y107.5 E49.20071
G1 X105.737 Y107.13 E49.21803
G1 X105.847 Y106.785 E49.23489
G1 X106.016 Y106.479 E49.25117
G1 X106.227 Y106.227 E49.26647
G1 X106.48 Y106.016 E49.28181
G1 X106.785 Y105.847 E49.29805
G1 X107.189 Y105.726 E49.31768
G1 X107.5 Y105.7 E49.33222
G1 X113.7 Y105.7 E49.62091
G1 X113.7 Y101.3 E49.8258
G1 X101.3 Y101.3 E50.40319
G1 X101.3 Y113.7 E50.98059
G1 X105.7 Y113.7 E51.18547
G0 F6000 X106.1 Y114.1
G1 F1200 X106.1 Y107.5 E51.4928
G1 X106.129 Y107.212 E51.50627
G1 X106.215 Y106.943 E51.51942
G1 X106.346 Y106.706 E51.53203
G1 X106.509 Y106.509 E51.54394
G1 X106.706 Y106.346 E51.55585
G1 X106.943 Y106.215 E51.56845
G1 X107.324 Y106.1 E51.58699
G1 X114.1 Y106.1 E51.9025
G1 X114.1 Y100.9 E52.14464
G1 X100.9 Y100.9 E52.75929
G1 X100.9 Y114.1 E53.37393
G1 X106.1 Y114.1 E53.61607
G0 F6000 X106.5 Y114.5
G1 F1200 X106.5 Y107.36 E53.94854
G1 X106.582 Y107.102 E53.96114
G1 X106.792 Y106.792 E53.97858
G1 X107.102 Y106.582 E53.99601
G1 X107.373 Y106.5 E54.0092
G1 X114.5 Y106.5 E54.34106
G1 X114.5 Y100.5 E54.62044
G1 X100.5 Y100.5 E55.27234
G1 X100.5 Y114.5 E55.92424
G1 X106.5 Y114.5 E56.20363
G0 F6000 X106.9 Y114.9
G1 F1200 X106.9 Y107.413 E56.55225
G1 X106.949 Y107.261 E56.55969
G1 X107.075 Y107.075 E56.57015
G1 X107.261 Y106.949 E56.58061
G1 X107.422 Y106.9 E56.58845
G1 X114.9 Y106.9 E56.93665
G1 X114.9 Y100.1 E57.25329
G1 X100.1 Y100.1 E57.94244
G1 X100.1 Y114.9 E58.63159
G1 X106.9 Y114.9 E58.94823
G0 F6000 X107.3 Y115.3
;TYPE:WALL-OUTER
G1 F1200 X107.304 Y107.458 E59.31338
G1 X107.358 Y107.358 E59.31868
G1 X107.465 Y107.302 E59.3243
G1 X115.3 Y107.3 E59.68913
G1 X115.3 Y99.7 E60.04302
G1 X99.7 Y99.7 E60.76942
G1 X99.7 Y115.3 E61.49582
G1 X107.3 Y115.3 E61.84971
G0 F6000 X107.03 Y115.03
