;FLAVOR:Marlin
;TIME:1134
;Filament used: 1.04121m
;Layer height: 0.32
;MINX:77.498
;MINY:82.5
;MINZ:0.32
;MAXX:161.782
;MAXY:159.065
;MAXZ:3.84
;Generated with Creality Slicer 4.8.2-191
M140 S50
M105
M190 S50
M104 S200
M105
M109 S200
M82 ;absolute extrusion mode

G28 ;Home

G92 E0 ;Reset Extruder
G1 Z2.0 F3000 ;Move Z Axis up
G1 X10.1 Y20 Z0.28 F5000.0 ;Move to start position
G1 X10.1 Y200.0 Z0.28 F1500.0 E15 ;Draw the first line
G1 X10.4 Y200.0 Z0.28 F5000.0 ;Move to side a little
G1 X10.4 Y20 Z0.28 F1500.0 E30 ;Draw the second line
G92 E0 ;Reset Extruder
G1 Z2.0 F3000 ;Move Z Axis up

G92 E0
G92 E0
G1 F2700 E-5
;LAYER_COUNT:12
;LAYER:0
M107
G0 F6000 X80.71 Y85.752 Z0.32
;TYPE:SKIRT
G1 F2700 E0
G1 F1200 X81.399 Y85.116 E0.0499
G1 X82.14 Y84.541 E0.09981
G1 X82.927 Y84.031 E0.14972
G1 X83.755 Y83.59 E0.19964
G1 X84.617 Y83.221 E0.24954
G1 X85.508 Y82.927 E0.29947
G1 X86.42 Y82.709 E0.34937
G1 X87.347 Y82.571 E0.39925
G1 X88.201 Y82.513 E0.4448
G1 X88.521 Y82.504 E0.46183
G1 X88.83 Y82.5 E0.47828
G1 X130.793 Y82.5 E2.71139
G1 X131.652 Y82.511 E2.75711
G1 X132.588 Y82.564 E2.807
G1 X133.516 Y82.697 E2.85689
G1 X134.43 Y82.909 E2.90682
G1 X135.323 Y83.197 E2.95675
G1 X136.187 Y83.561 E3.00664
G1 X137.018 Y83.997 E3.05658
G1 X137.808 Y84.502 E3.10648
G1 X138.552 Y85.072 E3.15636
G1 X139.245 Y85.704 E3.20627
G1 X139.882 Y86.393 E3.2562
G1 X140.608 Y87.349 E3.32008
G1 X141.194 Y88.215 E3.37573
G1 X142.634 Y90.28 E3.5097
G1 X144.135 Y92.307 E3.64393
G1 X145.688 Y94.286 E3.7778
G1 X147.303 Y96.226 E3.91213
G1 X148.979 Y98.129 E4.04707
G1 X150.691 Y99.967 E4.18074
G1 X152.446 Y101.743 E4.31361
G1 X154.281 Y103.5 E4.44881
G1 X156.144 Y105.187 E4.58256
G1 X157.799 Y106.603 E4.69847
G1 X158.029 Y106.805 E4.71476
G1 X158.706 Y107.453 E4.76463
G1 X159.326 Y108.157 E4.81455
G1 X159.884 Y108.911 E4.86447
G1 X160.376 Y109.71 E4.91441
G1 X160.797 Y110.548 E4.96431
G1 X161.146 Y111.418 E5.0142
G1 X161.42 Y112.315 E5.06411
G1 X161.615 Y113.233 E5.11405
G1 X161.733 Y114.163 E5.16394
G1 X161.765 Y114.732 E5.19427
G1 X161.775 Y115.057 E5.21157
G1 X161.78 Y115.394 E5.22951
G1 X161.782 Y131.105 E6.06559
G1 X161.778 Y132.077 E6.11731
G1 X161.78 Y132.341 E6.13136
G1 X161.779 Y147.48 E6.937
G1 X161.769 Y148.207 E6.9757
G1 X161.716 Y149.144 E7.02564
G1 X161.584 Y150.072 E7.07552
G1 X161.373 Y150.986 E7.12544
G1 X161.084 Y151.878 E7.17534
G1 X160.721 Y152.743 E7.22526
G1 X160.286 Y153.574 E7.27517
G1 X159.781 Y154.364 E7.32507
G1 X159.211 Y155.109 E7.37499
G1 X158.58 Y155.803 E7.4249
G1 X157.891 Y156.44 E7.47484
G1 X157.151 Y157.016 E7.52474
G1 X156.365 Y157.527 E7.57463
G1 X155.538 Y157.969 E7.62453
G1 X154.676 Y158.339 E7.67445
G1 X153.786 Y158.634 E7.72435
G1 X152.874 Y158.853 E7.77426
G1 X151.947 Y158.993 E7.82415
G1 X151.079 Y159.052 E7.87045
G1 X150.759 Y159.061 E7.88749
G1 X150.45 Y159.065 E7.90393
G1 X108.33 Y159.064 E10.1454
G1 X107.63 Y159.054 E10.18266
G1 X106.694 Y159.001 E10.23255
G1 X105.765 Y158.868 E10.28249
G1 X104.851 Y158.656 E10.33242
G1 X103.959 Y158.367 E10.38232
G1 X103.095 Y158.004 E10.43219
G1 X102.264 Y157.568 E10.48213
G1 X101.474 Y157.063 E10.53203
G1 X100.729 Y156.492 E10.58198
G1 X100.036 Y155.861 E10.63185
G1 X99.4 Y155.172 E10.68175
G1 X98.684 Y154.23 E10.74472
G1 X98.106 Y153.378 E10.79951
G1 X96.647 Y151.285 E10.93528
G1 X95.144 Y149.257 E11.06961
G1 X93.575 Y147.258 E11.20484
G1 X91.979 Y145.34 E11.33763
G1 X90.3 Y143.434 E11.4728
G1 X88.606 Y141.615 E11.60508
G1 X86.834 Y139.822 E11.73923
G1 X85.017 Y138.082 E11.87311
G1 X83.116 Y136.361 E12.00957
G1 X81.481 Y134.962 E12.12408
G1 X81.251 Y134.76 E12.14037
G1 X80.574 Y134.112 E12.19025
G1 X79.954 Y133.408 E12.24017
G1 X79.396 Y132.654 E12.29008
G1 X78.904 Y131.855 E12.34002
G1 X78.483 Y131.017 E12.38993
G1 X78.134 Y130.147 E12.43981
G1 X77.86 Y129.25 E12.48972
G1 X77.665 Y128.332 E12.53966
G1 X77.547 Y127.402 E12.58955
G1 X77.515 Y126.833 E12.61988
G1 X77.505 Y126.508 E12.63718
G1 X77.5 Y126.171 E12.65512
G1 X77.498 Y110.46 E13.4912
G1 X77.502 Y109.488 E13.54293
G1 X77.5 Y109.224 E13.55698
G1 X77.501 Y94.009 E14.36666
G1 X77.511 Y93.344 E14.40205
G1 X77.565 Y92.407 E14.452
G1 X77.699 Y91.479 E14.5019
G1 X77.911 Y90.565 E14.55183
G1 X78.2 Y89.673 E14.60173
G1 X78.565 Y88.809 E14.65164
G1 X79.001 Y87.979 E14.70153
G1 X79.507 Y87.189 E14.75146
G1 X80.078 Y86.445 E14.80137
G1 X80.71 Y85.752 E14.85128
G0 F6000 X81.102 Y85.927
G1 F1200 X81.788 Y85.313 E14.90027
G1 X82.524 Y84.761 E14.94923
G1 X83.306 Y84.274 E14.99826
G1 X84.127 Y83.858 E15.04723
G1 X84.981 Y83.514 E15.09623
G1 X85.861 Y83.245 E15.1452
G1 X86.762 Y83.054 E15.19421
G1 X87.676 Y82.942 E15.24322
G1 X88.212 Y82.913 E15.27178
G1 X88.532 Y82.904 E15.28882
G1 X88.83 Y82.9 E15.30468
G1 X130.793 Y82.9 E17.53779
G1 X131.646 Y82.911 E17.58319
G1 X132.565 Y82.964 E17.63217
G1 X133.476 Y83.097 E17.68117
G1 X134.372 Y83.308 E17.73015
G1 X135.247 Y83.596 E17.77917
G1 X136.093 Y83.959 E17.82817
G1 X136.904 Y84.394 E17.87714
G1 X137.675 Y84.898 E17.92616
G1 X138.399 Y85.466 E17.97513
G1 X139.071 Y86.096 E18.02415
G1 X139.685 Y86.781 E18.0731
G1 X140.276 Y87.573 E18.12569
G1 X140.823 Y88.382 E18.17766
G1 X142.312 Y90.517 E18.31618
G1 X143.831 Y92.569 E18.45204
G1 X145.381 Y94.543 E18.58561
G1 X146.993 Y96.481 E18.71975
G1 X148.687 Y98.403 E18.85609
G1 X150.397 Y100.238 E18.98957
G1 X152.167 Y102.03 E19.12361
G1 X153.999 Y103.785 E19.25862
G1 X155.881 Y105.488 E19.39369
G1 X157.535 Y106.904 E19.50956
G1 X157.765 Y107.106 E19.52585
G1 X158.43 Y107.743 E19.57485
G1 X159.036 Y108.435 E19.6238
G1 X159.581 Y109.177 E19.6728
G1 X160.059 Y109.964 E19.7218
G1 X160.467 Y110.789 E19.77078
G1 X160.802 Y111.647 E19.81979
G1 X161.061 Y112.53 E19.86876
G1 X161.243 Y113.433 E19.91778
G1 X161.365 Y114.744 E19.98785
G1 X161.375 Y115.069 E20.00515
G1 X161.38 Y115.394 E20.02245
G1 X161.382 Y131.104 E20.85848
G1 X161.378 Y132.08 E20.91042
G1 X161.38 Y132.344 E20.92447
G1 X161.379 Y147.475 E21.72968
G1 X161.369 Y148.202 E21.76837
G1 X161.316 Y149.121 E21.81736
G1 X161.184 Y150.032 E21.86635
G1 X160.973 Y150.928 E21.91533
G1 X160.686 Y151.803 E21.96434
G1 X160.323 Y152.649 E22.01333
G1 X159.889 Y153.461 E22.06232
G1 X159.385 Y154.232 E22.11134
G1 X158.817 Y154.956 E22.16031
G1 X158.188 Y155.628 E22.2093
G1 X157.503 Y156.243 E22.25828
G1 X156.767 Y156.796 E22.30728
G1 X155.986 Y157.284 E22.35628
G1 X155.166 Y157.702 E22.40526
G1 X154.312 Y158.047 E22.45428
G1 X153.432 Y158.316 E22.50325
G1 X152.531 Y158.509 E22.55228
G1 X151.618 Y158.622 E22.60124
G1 X151.068 Y158.652 E22.63055
G1 X150.748 Y158.661 E22.64759
G1 X150.45 Y158.665 E22.66345
G1 X108.336 Y158.664 E24.9046
G1 X107.636 Y158.654 E24.94185
G1 X106.716 Y158.601 E24.99089
G1 X105.805 Y158.468 E25.03989
G1 X104.909 Y158.257 E25.08887
G1 X104.035 Y157.969 E25.13784
G1 X103.189 Y157.606 E25.18683
G1 X102.377 Y157.171 E25.23585
G1 X101.607 Y156.667 E25.28483
G1 X100.883 Y156.098 E25.33383
G1 X100.211 Y155.469 E25.38281
G1 X99.596 Y154.783 E25.43184
G1 X99.015 Y154.006 E25.48347
G1 X98.445 Y153.165 E25.53754
G1 X96.968 Y151.048 E25.67491
G1 X95.464 Y149.017 E25.8094
G1 X93.881 Y147 E25.94585
G1 X92.286 Y145.083 E26.07855
G1 X90.609 Y143.18 E26.21354
G1 X88.866 Y141.309 E26.34962
G1 X87.131 Y139.552 E26.48102
G1 X85.262 Y137.763 E26.6187
G1 X83.399 Y136.077 E26.75242
G1 X81.745 Y134.661 E26.86828
G1 X81.515 Y134.459 E26.88457
G1 X80.85 Y133.822 E26.93358
G1 X80.244 Y133.13 E26.98253
G1 X79.699 Y132.388 E27.03152
G1 X79.221 Y131.601 E27.08052
G1 X78.813 Y130.776 E27.1295
G1 X78.478 Y129.918 E27.17852
G1 X78.219 Y129.035 E27.22749
G1 X78.037 Y128.132 E27.27651
G1 X77.915 Y126.821 E27.34658
G1 X77.905 Y126.496 E27.36388
G1 X77.9 Y126.171 E27.38118
G1 X77.898 Y110.461 E28.21721
G1 X77.902 Y109.485 E28.26914
G1 X77.9 Y109.221 E28.28319
G1 X77.901 Y94.015 E29.0924
G1 X77.911 Y93.35 E29.12779
G1 X77.965 Y92.431 E29.17678
G1 X78.098 Y91.52 E29.22578
G1 X78.31 Y90.624 E29.27477
G1 X78.599 Y89.749 E29.32381
G1 X78.963 Y88.904 E29.37278
G1 X79.398 Y88.093 E29.42175
G1 X79.903 Y87.322 E29.4708
G1 X80.472 Y86.599 E29.51976
G1 X81.102 Y85.927 E29.56878
G0 F6000 X81.493 Y86.106
G1 F1200 X82.175 Y85.514 E29.61684
G1 X82.907 Y84.985 E29.6649
G1 X83.683 Y84.523 E29.71296
G1 X84.497 Y84.132 E29.76102
G1 X85.342 Y83.813 E29.80908
G1 X86.212 Y83.571 E29.85714
G1 X87.1 Y83.407 E29.90519
G1 X88.223 Y83.313 E29.96516
G1 X88.543 Y83.304 E29.9822
G1 X88.83 Y83.3 E29.99747
G1 X130.793 Y83.3 E32.23059
G1 X131.64 Y83.311 E32.27566
G1 X132.542 Y83.364 E32.32375
G1 X133.435 Y83.496 E32.37179
G1 X134.313 Y83.707 E32.41984
G1 X135.169 Y83.995 E32.4679
G1 X135.997 Y84.357 E32.51599
G1 X136.789 Y84.791 E32.56405
G1 X137.539 Y85.294 E32.61211
G1 X138.242 Y85.86 E32.66014
G1 X138.892 Y86.487 E32.7082
G1 X139.484 Y87.169 E32.75626
G1 X139.945 Y87.797 E32.79772
G1 X140.508 Y88.629 E32.85118
G1 X141.995 Y90.762 E32.98955
G1 X143.494 Y92.786 E33.12358
G1 X145.076 Y94.801 E33.25991
G1 X146.704 Y96.758 E33.39538
G1 X148.376 Y98.656 E33.52999
G1 X150.118 Y100.526 E33.66599
G1 X151.871 Y102.3 E33.79871
G1 X153.738 Y104.088 E33.93628
G1 X155.617 Y105.788 E34.07113
G1 X157.271 Y107.204 E34.18699
G1 X157.501 Y107.406 E34.20328
G1 X158.152 Y108.032 E34.25135
G1 X158.746 Y108.712 E34.2994
G1 X159.277 Y109.443 E34.34748
G1 X159.742 Y110.217 E34.39553
G1 X160.136 Y111.03 E34.44361
G1 X160.456 Y111.874 E34.49164
G1 X160.701 Y112.743 E34.53969
G1 X160.868 Y113.631 E34.58777
G1 X160.965 Y114.756 E34.64786
G1 X160.975 Y115.081 E34.66517
G1 X160.98 Y115.394 E34.68182
G1 X160.982 Y131.102 E35.51775
G1 X160.978 Y132.083 E35.56995
G1 X160.98 Y132.347 E35.584
G1 X160.979 Y147.469 E36.38874
G1 X160.969 Y148.196 E36.42743
G1 X160.917 Y149.098 E36.47551
G1 X160.785 Y149.991 E36.52355
G1 X160.574 Y150.87 E36.57165
G1 X160.287 Y151.726 E36.6197
G1 X159.925 Y152.553 E36.66774
G1 X159.491 Y153.345 E36.7158
G1 X158.989 Y154.096 E36.76387
G1 X158.423 Y154.799 E36.8119
G1 X157.796 Y155.45 E36.86
G1 X157.115 Y156.042 E36.90802
G1 X156.384 Y156.572 E36.95607
G1 X155.608 Y157.035 E37.00416
G1 X154.795 Y157.428 E37.05221
G1 X153.95 Y157.748 E37.1003
G1 X153.081 Y157.991 E37.14831
G1 X152.193 Y158.156 E37.19638
G1 X151.057 Y158.252 E37.25705
G1 X150.737 Y158.261 E37.27408
G1 X150.45 Y158.265 E37.28936
G1 X108.341 Y158.264 E39.53024
G1 X107.641 Y158.254 E39.5675
G1 X106.74 Y158.201 E39.61553
G1 X105.846 Y158.069 E39.66362
G1 X104.968 Y157.858 E39.71167
G1 X104.112 Y157.57 E39.75973
G1 X103.285 Y157.208 E39.80778
G1 X102.493 Y156.774 E39.85584
G1 X101.743 Y156.271 E39.90389
G1 X101.04 Y155.704 E39.95196
G1 X100.389 Y155.078 E40.00002
G1 X99.797 Y154.396 E40.04808
G1 X99.346 Y153.781 E40.08866
G1 X98.783 Y152.951 E40.14203
G1 X97.285 Y150.804 E40.28135
G1 X95.785 Y148.778 E40.4155
G1 X94.202 Y146.761 E40.55195
G1 X92.58 Y144.812 E40.68689
G1 X90.902 Y142.906 E40.82202
G1 X89.161 Y141.038 E40.95791
G1 X87.409 Y139.265 E41.09056
G1 X85.541 Y137.476 E41.2282
G1 X83.664 Y135.777 E41.36293
G1 X82.009 Y134.361 E41.47884
G1 X81.779 Y134.159 E41.49513
G1 X81.128 Y133.533 E41.54319
G1 X80.534 Y132.853 E41.59124
G1 X80.003 Y132.122 E41.63932
G1 X79.538 Y131.348 E41.68738
G1 X79.144 Y130.535 E41.73545
G1 X78.824 Y129.691 E41.78349
G1 X78.579 Y128.822 E41.83153
G1 X78.412 Y127.934 E41.87962
G1 X78.315 Y126.809 E41.93971
G1 X78.305 Y126.484 E41.95701
G1 X78.3 Y126.171 E41.97367
G1 X78.298 Y110.463 E42.80959
G1 X78.302 Y109.482 E42.8618
G1 X78.3 Y109.218 E42.87585
G1 X78.301 Y94.021 E43.68457
G1 X78.311 Y93.356 E43.71997
G1 X78.365 Y92.454 E43.76805
G1 X78.498 Y91.561 E43.8161
G1 X78.709 Y90.683 E43.86415
G1 X78.998 Y89.827 E43.91223
G1 X79.361 Y89 E43.9603
G1 X79.795 Y88.209 E44.00831
G1 X80.298 Y87.458 E44.05641
G1 X80.866 Y86.756 E44.10447
G1 X81.493 Y86.106 E44.15253
G1 F2700 E39.15253
;MESH:quater-body-top.stl
G0 F6000 X87.835 Y110.914
G0 X88.914 Y110.914
G0 X108.518 Y114.482
G0 X108.7 Y122.7
;TYPE:WALL-INNER
G1 F2700 E44.15253
G1 F1200 X92.3 Y122.7 E45.02527
G1 X92.3 Y114.3 E45.47229
G1 X108.7 Y114.3 E46.34503
G1 X108.7 Y122.7 E46.79205
G0 F6000 X109.1 Y123.1
G1 F1200 X91.9 Y123.1 E47.70737
G1 X91.9 Y113.9 E48.19696
G1 X109.1 Y113.9 E49.11228
G1 X109.1 Y123.1 E49.60187
G0 F6000 X109.5 Y123.5
G1 F1200 X91.5 Y123.5 E50.55976
G1 X91.5 Y113.5 E51.09192
G1 X109.5 Y113.5 E52.04981
G1 X109.5 Y123.5 E52.58198
G0 F6000 X109.9 Y123.9
G1 F1200 X91.1 Y123.9 E53.58244
G1 X91.1 Y113.1 E54.15718
G1 X109.9 Y113.1 E55.15764
G1 X109.9 Y123.9 E55.73238
G0 F6000 X110.3 Y124.3
G1 F1200 X90.7 Y124.3 E56.77541
G1 X90.7 Y112.7 E57.39272
G1 X110.3 Y112.7 E58.43576
G1 X110.3 Y124.3 E59.05307
G0 F6000 X110.7 Y124.7
G1 F1200 X90.3 Y124.7 E60.13868
G1 X90.3 Y112.3 E60.79856
G1 X110.7 Y112.3 E61.88417
G1 X110.7 Y124.7 E62.54405
G0 F6000 X111.1 Y125.1
G1 F1200 X89.9 Y125.1 E63.67223
G1 X89.9 Y111.9 E64.37469
G1 X111.1 Y111.9 E65.50287
G1 X111.1 Y125.1 E66.20533
G0 F6000 X111.5 Y125.5
G1 F1200 X89.5 Y125.5 E67.37608
G1 X89.5 Y111.5 E68.12111
G1 X111.5 Y111.5 E69.29187
G1 X111.5 Y125.5 E70.03689
G0 F6000 X111.9 Y125.9
G1 F1200 X89.1 Y125.9 E71.25022
G1 X89.1 Y111.1 E72.03782
G1 X111.9 Y111.1 E73.25115
G1 X111.9 Y125.9 E74.03875
G0 F6000 X112.3 Y126.3
;TYPE:WALL-OUTER
G1 F1200 X88.7 Y126.3 E75.29466
G1 X88.7 Y110.7 E76.12483
G1 X112.3 Y110.7 E77.38073
G1 X112.3 Y126.3 E78.21091
G0 F6000 X112.03 Y126.03
G0 X108.59 Y122.31
G0 X108.31 Y122.31
;TYPE:SKIN
G1 F1200 X92.69 Y122.31 E79.04214
G1 X92.69 Y114.69 E79.44765
G1 X108.31 Y114.69 E80.27889
G1 X108.31 Y122.31 E80.68439
G0 F6000 X108.59 Y122.31
G0 X108.59 Y114.938
G0 X108.149 Y114.938
G1 F1200 X108.061 Y114.849 E80.69106
G0 F6000 X107.495 Y114.849
G1 F1200 X108.149 Y115.503 E80.74027
G0 F6000 X108.149 Y116.069
G1 F1200 X106.93 Y114.849 E80.83205
G0 F6000 X106.364 Y114.849
G1 F1200 X108.149 Y116.635 E80.96643
G0 F6000 X108.149 Y117.2
G1 F1200 X105.798 Y114.849 E81.14336
G0 F6000 X105.233 Y114.849
G1 F1200 X108.149 Y117.766 E81.36286
G0 F6000 X108.149 Y118.332
G1 F1200 X104.667 Y114.849 E81.62495
G0 F6000 X104.101 Y114.849
G1 F1200 X108.149 Y118.897 E81.92959
G0 F6000 X108.149 Y119.463
G1 F1200 X103.535 Y114.849 E82.27684
G0 F6000 X102.97 Y114.849
G1 F1200 X108.149 Y120.029 E82.66664
G0 F6000 X108.149 Y120.594
G1 F1200 X102.404 Y114.849 E83.09901
G0 F6000 X101.838 Y114.849
G1 F1200 X108.149 Y121.16 E83.57397
G0 F6000 X108.149 Y121.726
G1 F1200 X101.273 Y114.849 E84.09149
G0 F6000 X100.707 Y114.849
G1 F1200 X108.007 Y122.149 E84.64088
G0 F6000 X107.441 Y122.149
G1 F1200 X100.141 Y114.849 E85.19027
G0 F6000 X99.576 Y114.849
G1 F1200 X106.875 Y122.149 E85.73962
G0 F6000 X106.309 Y122.149
G1 F1200 X99.01 Y114.849 E86.28898
G0 F6000 X98.444 Y114.849
G1 F1200 X105.744 Y122.149 E86.83837
G0 F6000 X105.178 Y122.149
G1 F1200 X97.879 Y114.849 E87.38772
G0 F6000 X97.313 Y114.849
G1 F1200 X104.612 Y122.149 E87.93708
G0 F6000 X104.047 Y122.149
G1 F1200 X96.747 Y114.849 E88.48647
G0 F6000 X96.182 Y114.849
G1 F1200 X103.481 Y122.149 E89.03582
G0 F6000 X102.915 Y122.149
G1 F1200 X95.616 Y114.849 E89.58518
G0 F6000 X95.05 Y114.849
G1 F1200 X102.35 Y122.149 E90.13457
G0 F6000 X101.784 Y122.149
G1 F1200 X94.485 Y114.849 E90.68392
G0 F6000 X93.919 Y114.849
G1 F1200 X101.218 Y122.149 E91.23327
G0 F6000 X100.653 Y122.149
G1 F1200 X93.353 Y114.849 E91.78267
G0 F6000 X92.849 Y114.911
G1 F1200 X100.087 Y122.149 E92.32739
G0 F6000 X99.521 Y122.149
G1 F1200 X92.849 Y115.476 E92.82956
G0 F6000 X92.849 Y116.042
G1 F1200 X98.956 Y122.149 E93.28916
G0 F6000 X98.39 Y122.149
G1 F1200 X92.849 Y116.608 E93.70618
G0 F6000 X92.849 Y117.173
G1 F1200 X97.824 Y122.149 E94.08063
G0 F6000 X97.259 Y122.149
G1 F1200 X92.849 Y117.739 E94.41252
G0 F6000 X92.849 Y118.305
G1 F1200 X96.693 Y122.149 E94.70182
G0 F6000 X96.127 Y122.149
G1 F1200 X92.849 Y118.871 E94.94851
G0 F6000 X92.849 Y119.436
G1 F1200 X95.561 Y122.149 E95.15265
G0 F6000 X94.996 Y122.149
G1 F1200 X92.849 Y120.002 E95.31424
G0 F6000 X92.849 Y120.568
G1 F1200 X94.43 Y122.149 E95.43322
G0 F6000 X93.864 Y122.149
G1 F1200 X92.849 Y121.133 E95.50965
G0 F6000 X92.849 Y121.699
G1 F1200 X93.299 Y122.149 E95.54351
G0 F6000 X93.299 Y122.89
G1 F2700 E90.54351
G0 F6000 X92.482 Y122.518
G0 X92.482 Y114.482
G0 X112.086 Y110.914
