;FLAVOR:Marlin
;TIME:18042
;Filament used: 18.5228m
;Layer height: 0.28
;MINX:4.866
;MINY:33
;MINZ:0.28
;MAXX:198.866
;MAXY:187
;MAXZ:7.84
;Generated with Creality Slicer 4.8.2-191
M140 S50
M105
M190 S50
M104 S200
M105
M109 S200
M82 ;absolute extrusion mode

G28 ;Home

G92 E0 ;Reset Extruder
G1 Z2.0 F3000 ;Move Z Axis up
G1 X10.1 Y20 Z0.28 F5000.0 ;Move to start position
G1 X10.1 Y200.0 Z0.28 F1500.0 E15 ;Draw the first line
G1 X10.4 Y200.0 Z0.28 F5000.0 ;Move to side a little
G1 X10.4 Y20 Z0.28 F1500.0 E30 ;Draw the second line
G92 E0 ;Reset Extruder
G1 Z2.0 F3000 ;Move Z Axis up

G92 E0
G92 E0
G1 F2700 E-3
;LAYER_COUNT:28
;LAYER:0
M107
G0 F6000 X11.967 Y33.727 Z0.28
;TYPE:SKIRT
G1 F2700 E0
G1 F1200 X12.857 Y33.431 E0.04367
G1 X13.769 Y33.213 E0.08734
G1 X14.696 Y33.072 E0.131
G1 X15.567 Y33.013 E0.17165
G1 X15.888 Y33.004 E0.1866
G1 X16.196 Y33 E0.20094
G1 X187.159 Y33 E8.1617
G1 X188.015 Y33.011 E8.20156
G1 X188.951 Y33.065 E8.24522
G1 X189.879 Y33.197 E8.28886
G1 X190.793 Y33.409 E8.33255
G1 X191.685 Y33.698 E8.37621
G1 X192.55 Y34.061 E8.41989
G1 X193.38 Y34.497 E8.46355
G1 X194.171 Y35.002 E8.50725
G1 X194.915 Y35.573 E8.55092
G1 X195.608 Y36.205 E8.59459
G1 X196.245 Y36.893 E8.63825
G1 X196.82 Y37.634 E8.68193
G1 X197.331 Y38.42 E8.72558
G1 X197.773 Y39.248 E8.76928
G1 X198.142 Y40.11 E8.81295
G1 X198.437 Y41 E8.85661
G1 X198.655 Y41.912 E8.90027
G1 X198.795 Y42.84 E8.94397
G1 X198.853 Y43.701 E8.98415
G1 X198.862 Y44.021 E8.99906
G1 X198.866 Y44.33 E9.01345
G1 X198.865 Y107.416 E11.951
G1 X198.855 Y108.142 E11.9848
G1 X198.802 Y109.078 E12.02846
G1 X198.67 Y110.006 E12.07211
G1 X198.459 Y110.92 E12.11578
G1 X198.17 Y111.813 E12.15949
G1 X197.807 Y112.677 E12.20313
G1 X197.372 Y113.508 E12.2468
G1 X196.867 Y114.299 E12.2905
G1 X196.297 Y115.043 E12.33414
G1 X195.666 Y115.737 E12.37782
G1 X194.977 Y116.374 E12.42151
G1 X194.237 Y116.95 E12.46518
G1 X193.451 Y117.461 E12.50883
G1 X192.624 Y117.903 E12.5525
G1 X191.762 Y118.273 E12.59618
G1 X190.872 Y118.569 E12.63985
G1 X190.057 Y118.768 E12.67891
G1 X189.675 Y118.846 E12.69707
G1 X187.18 Y119.386 E12.81594
G1 X184.792 Y119.972 E12.93043
G1 X182.313 Y120.658 E13.0502
G1 X179.892 Y121.401 E13.16812
G1 X177.524 Y122.202 E13.28452
G1 X175.185 Y123.067 E13.40065
G1 X172.803 Y124.025 E13.5202
G1 X170.528 Y125.017 E13.63576
G1 X168.238 Y126.092 E13.75356
G1 X166.015 Y127.215 E13.86953
G1 X163.76 Y128.434 E13.98889
G1 X161.633 Y129.663 E14.10328
G1 X159.464 Y131 E14.22192
G1 X157.327 Y132.401 E14.34091
G1 X155.295 Y133.819 E14.45629
G1 X153.284 Y135.307 E14.57278
G1 X151.272 Y136.887 E14.6919
G1 X149.35 Y138.486 E14.80832
G1 X147.451 Y140.158 E14.92613
G1 X145.632 Y141.853 E15.04191
G1 X143.832 Y143.629 E15.15965
G1 X142.099 Y145.438 E15.2763
G1 X140.387 Y147.33 E15.39511
G1 X138.764 Y149.228 E15.5114
G1 X137.173 Y151.199 E15.62935
G1 X135.66 Y153.188 E15.74571
G1 X134.195 Y155.23 E15.86274
G1 X132.763 Y157.347 E15.98175
G1 X131.44 Y159.431 E16.09669
G1 X130.148 Y161.599 E16.21421
G1 X128.904 Y163.824 E16.33291
G1 X127.754 Y166.028 E16.44867
G1 X126.644 Y168.31 E16.56683
G1 X125.611 Y170.596 E16.68364
G1 X124.645 Y172.906 E16.80023
G1 X123.715 Y175.317 E16.92056
G1 X122.905 Y177.611 E17.03384
G1 X122.635 Y178.454 E17.07506
G1 X122.276 Y179.517 E17.1273
G1 X121.938 Y180.392 E17.17098
G1 X121.526 Y181.235 E17.21467
G1 X121.044 Y182.039 E17.25832
G1 X120.496 Y182.8 E17.30198
G1 X119.884 Y183.511 E17.34567
G1 X119.214 Y184.168 E17.38936
G1 X118.491 Y184.765 E17.43302
G1 X117.719 Y185.298 E17.4767
G1 X116.905 Y185.763 E17.52036
G1 X116.054 Y186.158 E17.56404
G1 X115.173 Y186.478 E17.60769
G1 X114.267 Y186.723 E17.65139
G1 X113.344 Y186.889 E17.69506
G1 X112.2 Y186.985 E17.74852
G1 X111.879 Y186.995 E17.76347
G1 X111.536 Y187 E17.77944
G1 X16.431 Y186.999 E22.20793
G1 X15.733 Y186.99 E22.24044
G1 X14.797 Y186.938 E22.28409
G1 X13.868 Y186.806 E22.32778
G1 X12.954 Y186.596 E22.37145
G1 X12.061 Y186.309 E22.41512
G1 X11.196 Y185.946 E22.45881
G1 X10.365 Y185.512 E22.50246
G1 X9.574 Y185.008 E22.54613
G1 X8.829 Y184.438 E22.58981
G1 X8.135 Y183.807 E22.63349
G1 X7.498 Y183.12 E22.67711
G1 X6.921 Y182.38 E22.72081
G1 X6.409 Y181.594 E22.76449
G1 X5.966 Y180.767 E22.80817
G1 X5.595 Y179.906 E22.85183
G1 X5.299 Y179.016 E22.8955
G1 X5.08 Y178.104 E22.93918
G1 X4.939 Y177.177 E22.98284
G1 X4.879 Y176.288 E23.02433
G1 X4.87 Y175.955 E23.03984
G1 X4.866 Y175.658 E23.05367
G1 X4.867 Y112.53 E25.99317
G1 X4.883 Y111.386 E26.04645
G1 X4.883 Y108.746 E26.16938
G1 X4.868 Y108.026 E26.20291
G1 X4.866 Y107.702 E26.218
G1 X4.867 Y44.525 E29.15978
G1 X4.876 Y43.86 E29.19075
G1 X4.929 Y42.924 E29.23441
G1 X5.061 Y41.995 E29.2781
G1 X5.272 Y41.081 E29.32178
G1 X5.56 Y40.189 E29.36542
G1 X5.923 Y39.324 E29.4091
G1 X6.358 Y38.493 E29.45278
G1 X6.862 Y37.703 E29.49641
G1 X7.432 Y36.958 E29.54009
G1 X8.064 Y36.264 E29.5838
G1 X8.752 Y35.627 E29.62746
G1 X9.492 Y35.051 E29.67113
G1 X10.278 Y34.539 E29.71481
G1 X11.105 Y34.097 E29.75847
G1 X11.967 Y33.727 E29.80215
G0 F6000 X12.331 Y34.019
G1 F1200 X13.211 Y33.749 E29.84501
G1 X14.111 Y33.557 E29.88786
G1 X15.025 Y33.443 E29.93075
G1 X15.578 Y33.413 E29.95654
G1 X15.899 Y33.404 E29.97149
G1 X16.196 Y33.4 E29.98532
G1 X187.159 Y33.4 E37.94608
G1 X188.009 Y33.411 E37.98566
G1 X188.928 Y33.464 E38.02852
G1 X189.839 Y33.597 E38.07139
G1 X190.735 Y33.808 E38.11426
G1 X191.609 Y34.096 E38.1571
G1 X192.456 Y34.459 E38.20001
G1 X193.267 Y34.894 E38.24287
G1 X194.037 Y35.398 E38.28572
G1 X194.761 Y35.967 E38.3286
G1 X195.433 Y36.597 E38.37149
G1 X196.048 Y37.282 E38.41435
G1 X196.601 Y38.018 E38.45722
G1 X197.088 Y38.799 E38.50008
G1 X197.505 Y39.62 E38.54296
G1 X197.85 Y40.474 E38.58584
G1 X198.119 Y41.354 E38.62869
G1 X198.311 Y42.255 E38.67159
G1 X198.424 Y43.168 E38.71443
G1 X198.453 Y43.712 E38.73979
G1 X198.462 Y44.032 E38.7547
G1 X198.466 Y44.33 E38.76858
G1 X198.465 Y107.41 E41.70585
G1 X198.455 Y108.136 E41.73966
G1 X198.402 Y109.055 E41.78252
G1 X198.27 Y109.966 E41.82538
G1 X198.059 Y110.862 E41.86824
G1 X197.772 Y111.737 E41.91112
G1 X197.409 Y112.583 E41.95399
G1 X196.975 Y113.395 E41.99686
G1 X196.471 Y114.166 E42.03975
G1 X195.903 Y114.89 E42.0826
G1 X195.274 Y115.562 E42.12546
G1 X194.589 Y116.177 E42.16833
G1 X193.853 Y116.731 E42.21122
G1 X193.072 Y117.218 E42.25408
G1 X192.251 Y117.636 E42.29698
G1 X191.398 Y117.981 E42.33982
G1 X190.518 Y118.25 E42.38267
G1 X189.977 Y118.376 E42.40854
G1 X189.595 Y118.454 E42.42669
G1 X187.113 Y118.991 E42.54494
G1 X184.664 Y119.593 E42.66237
G1 X182.185 Y120.278 E42.78213
G1 X179.794 Y121.012 E42.89859
G1 X177.394 Y121.823 E43.01655
G1 X175.033 Y122.696 E43.13377
G1 X172.672 Y123.646 E43.25227
G1 X170.347 Y124.66 E43.37038
G1 X168.067 Y125.731 E43.48768
G1 X165.823 Y126.864 E43.60473
G1 X163.576 Y128.078 E43.72365
G1 X161.403 Y129.335 E43.84055
G1 X159.24 Y130.667 E43.95883
G1 X157.124 Y132.055 E44.07667
G1 X155.074 Y133.485 E44.19305
G1 X153.022 Y135.004 E44.31193
G1 X151.032 Y136.566 E44.42973
G1 X149.096 Y138.176 E44.54698
G1 X147.197 Y139.849 E44.66483
G1 X145.326 Y141.593 E44.78393
G1 X143.545 Y143.35 E44.90042
G1 X141.796 Y145.175 E45.01812
G1 X140.102 Y147.047 E45.13568
G1 X138.447 Y148.984 E45.25432
G1 X136.859 Y150.952 E45.37207
G1 X135.349 Y152.935 E45.48813
G1 X133.854 Y155.018 E45.60752
G1 X132.453 Y157.09 E45.72398
G1 X131.076 Y159.259 E45.84362
G1 X129.788 Y161.42 E45.96076
G1 X128.566 Y163.608 E46.07745
G1 X127.397 Y165.846 E46.19502
G1 X126.277 Y168.149 E46.31427
G1 X125.254 Y170.413 E46.42995
G1 X124.261 Y172.787 E46.54978
G1 X123.351 Y175.146 E46.66751
G1 X122.523 Y177.493 E46.7834
G1 X122.254 Y178.332 E46.82443
G1 X121.897 Y179.389 E46.87638
G1 X121.564 Y180.247 E46.91923
G1 X121.158 Y181.074 E46.96213
G1 X120.682 Y181.862 E47.005
G1 X120.139 Y182.605 E47.04785
G1 X119.534 Y183.299 E47.09072
G1 X118.871 Y183.938 E47.1336
G1 X118.155 Y184.516 E47.17645
G1 X117.391 Y185.031 E47.21935
G1 X116.586 Y185.477 E47.2622
G1 X115.745 Y185.851 E47.30506
G1 X114.875 Y186.151 E47.34791
G1 X113.981 Y186.375 E47.39083
G1 X113.072 Y186.52 E47.43369
G1 X112.187 Y186.585 E47.47501
G1 X111.866 Y186.595 E47.48996
G1 X111.536 Y186.6 E47.50533
G1 X16.436 Y186.599 E51.93358
G1 X15.738 Y186.59 E51.96609
G1 X14.819 Y186.538 E52.00895
G1 X13.908 Y186.407 E52.05181
G1 X13.012 Y186.197 E52.09466
G1 X12.137 Y185.91 E52.13754
G1 X11.29 Y185.548 E52.18043
G1 X10.478 Y185.114 E52.2233
G1 X9.707 Y184.612 E52.26614
G1 X8.982 Y184.044 E52.30903
G1 X8.309 Y183.415 E52.35192
G1 X7.694 Y182.731 E52.39475
G1 X7.14 Y181.996 E52.43761
G1 X6.652 Y181.215 E52.48049
G1 X6.233 Y180.395 E52.52337
G1 X5.887 Y179.542 E52.56623
G1 X5.617 Y178.662 E52.60909
G1 X5.424 Y177.761 E52.652
G1 X5.31 Y176.848 E52.69484
G1 X5.279 Y176.277 E52.72147
G1 X5.27 Y175.944 E52.73698
G1 X5.266 Y175.658 E52.7503
G1 X5.267 Y112.536 E55.68953
G1 X5.283 Y111.392 E55.7428
G1 X5.283 Y108.737 E55.86643
G1 X5.268 Y108.023 E55.89968
G1 X5.266 Y107.699 E55.91477
G1 X5.267 Y44.531 E58.85614
G1 X5.276 Y43.866 E58.8871
G1 X5.328 Y42.946 E58.93001
G1 X5.46 Y42.035 E58.97288
G1 X5.671 Y41.139 E59.01574
G1 X5.958 Y40.264 E59.05862
G1 X6.321 Y39.418 E59.10148
G1 X6.755 Y38.606 E59.14436
G1 X7.258 Y37.835 E59.18722
G1 X7.827 Y37.111 E59.2301
G1 X8.455 Y36.439 E59.27293
G1 X9.14 Y35.823 E59.31582
G1 X9.876 Y35.27 E59.35869
G1 X10.657 Y34.782 E59.40157
G1 X11.477 Y34.364 E59.44443
G1 X12.331 Y34.019 E59.48732
G0 F6000 X11.848 Y34.638
G1 F1200 X12.693 Y34.318 E59.52939
G1 X13.562 Y34.075 E59.57141
G1 X14.45 Y33.909 E59.61347
G1 X15.589 Y33.813 E59.6667
G1 X15.91 Y33.804 E59.68165
G1 X16.196 Y33.8 E59.69497
G1 X187.159 Y33.8 E67.65572
G1 X188.003 Y33.811 E67.69503
G1 X188.905 Y33.864 E67.7371
G1 X189.798 Y33.996 E67.77913
G1 X190.676 Y34.207 E67.82118
G1 X191.532 Y34.495 E67.86324
G1 X192.359 Y34.857 E67.90527
G1 X193.151 Y35.292 E67.94735
G1 X193.902 Y35.794 E67.98941
G1 X194.605 Y36.361 E68.03147
G1 X195.255 Y36.988 E68.07352
G1 X195.847 Y37.67 E68.11557
G1 X196.377 Y38.401 E68.15761
G1 X196.839 Y39.177 E68.19967
G1 X197.232 Y39.99 E68.24172
G1 X197.55 Y40.835 E68.28376
G1 X197.793 Y41.705 E68.32582
G1 X197.958 Y42.593 E68.36787
G1 X198.053 Y43.723 E68.42068
G1 X198.062 Y44.043 E68.43558
G1 X198.066 Y44.33 E68.44895
G1 X198.065 Y107.404 E71.38594
G1 X198.055 Y108.13 E71.41975
G1 X198.003 Y109.032 E71.46182
G1 X197.871 Y109.925 E71.50385
G1 X197.66 Y110.804 E71.54594
G1 X197.373 Y111.66 E71.58798
G1 X197.011 Y112.487 E71.63002
G1 X196.577 Y113.279 E71.67207
G1 X196.075 Y114.03 E71.71414
G1 X195.509 Y114.734 E71.7562
G1 X194.882 Y115.384 E71.79825
G1 X194.201 Y115.977 E71.8403
G1 X193.469 Y116.506 E71.88235
G1 X192.694 Y116.97 E71.92441
G1 X191.881 Y117.362 E71.96644
G1 X191.036 Y117.682 E72.00851
G1 X189.897 Y117.984 E72.06338
G1 X189.515 Y118.062 E72.08154
G1 X187.005 Y118.605 E72.20112
G1 X184.558 Y119.206 E72.31845
G1 X182.108 Y119.883 E72.4368
G1 X179.654 Y120.637 E72.55634
G1 X177.275 Y121.441 E72.67328
G1 X174.851 Y122.338 E72.79363
G1 X172.542 Y123.267 E72.90952
G1 X170.183 Y124.295 E73.02934
G1 X167.895 Y125.369 E73.14704
G1 X165.632 Y126.512 E73.26509
G1 X163.392 Y127.723 E73.38366
G1 X161.198 Y128.991 E73.50166
G1 X159.007 Y130.342 E73.62151
G1 X156.905 Y131.72 E73.73855
G1 X154.829 Y133.168 E73.85641
G1 X152.783 Y134.683 E73.97495
G1 X150.796 Y136.242 E74.09256
G1 X148.821 Y137.885 E74.21218
G1 X146.923 Y139.556 E74.32993
G1 X145.055 Y141.298 E74.44887
G1 X143.276 Y143.054 E74.56526
G1 X141.494 Y144.913 E74.68517
G1 X139.802 Y146.782 E74.80256
G1 X138.133 Y148.735 E74.92219
G1 X136.558 Y150.686 E75.03894
G1 X135.009 Y152.722 E75.15807
G1 X133.542 Y154.766 E75.27522
G1 X132.101 Y156.898 E75.39504
G1 X130.754 Y159.019 E75.51204
G1 X129.439 Y161.226 E75.63167
G1 X128.22 Y163.407 E75.74801
G1 X127.027 Y165.693 E75.86808
G1 X125.925 Y167.959 E75.98541
G1 X124.879 Y170.272 E76.10361
G1 X123.895 Y172.625 E76.22237
G1 X122.972 Y175.017 E76.34176
G1 X122.144 Y177.364 E76.45765
G1 X121.873 Y178.21 E76.49901
G1 X121.518 Y179.261 E76.55067
G1 X121.191 Y180.103 E76.59273
G1 X120.791 Y180.912 E76.63475
G1 X120.32 Y181.683 E76.67682
G1 X119.784 Y182.409 E76.71884
G1 X119.185 Y183.085 E76.7609
G1 X118.528 Y183.706 E76.80299
G1 X117.82 Y184.266 E76.84503
G1 X117.064 Y184.761 E76.8871
G1 X116.268 Y185.187 E76.92914
G1 X115.438 Y185.541 E76.97116
G1 X114.579 Y185.82 E77.01322
G1 X113.699 Y186.022 E77.05526
G1 X112.804 Y186.146 E77.09733
G1 X112.175 Y186.185 E77.12668
G1 X111.854 Y186.195 E77.14163
G1 X111.536 Y186.2 E77.15644
G1 X16.441 Y186.199 E81.58446
G1 X15.743 Y186.19 E81.61697
G1 X14.842 Y186.139 E81.65899
G1 X13.948 Y186.007 E81.70107
G1 X13.07 Y185.798 E81.74309
G1 X12.213 Y185.511 E81.78518
G1 X11.386 Y185.15 E81.82719
G1 X10.593 Y184.717 E81.86927
G1 X9.842 Y184.216 E81.9113
G1 X9.138 Y183.65 E81.95336
G1 X8.487 Y183.024 E81.99542
G1 X7.894 Y182.343 E82.03747
G1 X7.364 Y181.612 E82.07951
G1 X6.9 Y180.837 E82.12157
G1 X6.506 Y180.024 E82.16364
G1 X6.186 Y179.18 E82.20567
G1 X5.942 Y178.31 E82.24774
G1 X5.776 Y177.422 E82.28981
G1 X5.679 Y176.267 E82.34378
G1 X5.67 Y175.934 E82.35929
G1 X5.666 Y175.658 E82.37214
G1 X5.667 Y112.541 E85.31114
G1 X5.683 Y111.397 E85.36441
G1 X5.683 Y108.773 E85.48659
G1 X5.668 Y108.021 E85.52162
G1 X5.666 Y107.697 E85.53671
G1 X5.667 Y44.536 E88.47775
G1 X5.676 Y43.871 E88.50871
G1 X5.728 Y42.969 E88.55078
G1 X5.86 Y42.076 E88.59282
G1 X6.07 Y41.198 E88.63485
G1 X6.357 Y40.341 E88.67694
G1 X6.719 Y39.514 E88.71897
G1 X7.152 Y38.722 E88.76101
G1 X7.654 Y37.971 E88.80307
G1 X8.221 Y37.267 E88.84516
G1 X8.847 Y36.617 E88.88718
G1 X9.528 Y36.024 E88.92923
G1 X10.26 Y35.494 E88.97131
G1 X11.035 Y35.031 E89.01335
G1 X11.848 Y34.638 E89.05539
G1 F2700 E86.05539
;MESH:body_top.stl
G0 F6000 X15.213 Y108.653
G0 X16.286 Y111.335
G0 X16.286 Y112.42
G0 X111.084 Y112.782
G0 X111.266 Y175.4
;TYPE:WALL-INNER
G1 F2700 E89.05539
G1 F1200 X16.466 Y175.4 E93.46968
G1 X16.466 Y112.6 E96.39391
G1 X111.266 Y112.6 E100.80819
G1 X111.266 Y175.4 E103.73243
G0 F6000 X111.666 Y175.8
;TYPE:WALL-OUTER
G1 F1200 X16.066 Y175.8 E108.18396
G1 X16.066 Y112.2 E111.14544
G1 X111.666 Y112.2 E115.59698
G1 X111.666 Y175.8 E118.55846
G0 F6000 X111.396 Y175.53
G0 X111.156 Y175.01
G0 X110.876 Y175.01
;TYPE:SKIN
G1 F1200 X16.856 Y175.01 E122.93643
G1 X16.856 Y112.99 E125.82434
G1 X110.876 Y112.99 E130.2023
G1 X110.876 Y175.01 E133.09022
G1 F2700 E130.09022
G0 F6000 X111.156 Y175.01
G0 X111.156 Y113.544
G0 X110.715 Y113.544
G1 F2700 E133.09022
G1 F1200 X110.321 Y113.149 E133.11619
G0 F6000 X109.755 Y113.149
G1 F1200 X110.715 Y114.11 E133.17944
G0 F6000 X110.715 Y114.675
G1 F1200 X109.19 Y113.149 E133.2799
G0 F6000 X108.624 Y113.149
G1 F1200 X110.715 Y115.241 E133.41763
G0 F6000 X110.715 Y115.807
G1 F1200 X108.058 Y113.149 E133.59263
G0 F6000 X107.492 Y113.149
G1 F1200 X110.715 Y116.372 E133.80487
G0 F6000 X110.715 Y116.938
G1 F1200 X106.927 Y113.149 E134.05435
G0 F6000 X106.361 Y113.149
G1 F1200 X110.715 Y117.504 E134.3411
G0 F6000 X110.715 Y118.069
G1 F1200 X105.795 Y113.149 E134.66509
G0 F6000 X105.23 Y113.149
G1 F1200 X110.715 Y118.635 E135.02632
G0 F6000 X110.715 Y119.201
G1 F1200 X104.664 Y113.149 E135.42482
G0 F6000 X104.098 Y113.149
G1 F1200 X110.715 Y119.766 E135.86056
G0 F6000 X110.715 Y120.332
G1 F1200 X103.533 Y113.149 E136.33354
G0 F6000 X102.967 Y113.149
G1 F1200 X110.715 Y120.898 E136.8438
G0 F6000 X110.715 Y121.463
G1 F1200 X102.401 Y113.149 E137.39129
G0 F6000 X101.836 Y113.149
G1 F1200 X110.715 Y122.029 E137.97602
G0 F6000 X110.715 Y122.595
G1 F1200 X101.27 Y113.149 E138.59802
G0 F6000 X100.704 Y113.149
G1 F1200 X110.715 Y123.161 E139.25729
G0 F6000 X110.715 Y123.726
G1 F1200 X100.139 Y113.149 E139.95377
G0 F6000 X99.573 Y113.149
G1 F1200 X110.715 Y124.292 E140.68753
G0 F6000 X110.715 Y124.858
G1 F1200 X99.007 Y113.149 E141.45855
G0 F6000 X98.441 Y113.149
G1 F1200 X110.715 Y125.423 E142.26682
G0 F6000 X110.715 Y125.989
G1 F1200 X97.876 Y113.149 E143.11232
G0 F6000 X97.31 Y113.149
G1 F1200 X110.715 Y126.555 E143.99509
G0 F6000 X110.715 Y127.12
G1 F1200 X96.744 Y113.149 E144.91511
G0 F6000 X96.179 Y113.149
G1 F1200 X110.715 Y127.686 E145.87236
