;FLAVOR:Marlin
;TIME:3819
;Filament used: 3.32758m
;Layer height: 0.28
;MINX:83.702
;MINY:39.744
;MINZ:0.28
;MAXX:151.298
;MAXY:195.256
;MAXZ:3.92
;Generated with Cura_SteamEngine 5.4.0
M140 S50
M105
M190 S50
M104 S200
M105
M109 S200
M82 ;absolute extrusion mode
; Ender 3 Custom Start G-code
G92 E0 ; Reset Extruder
G28 ; Home all axes
G1 Z2.0 F3000 ; Move Z Axis up little to prevent scratching of Heat Bed
G1 X0.1 Y20 Z0.3 F5000.0 ; Move to start position
G1 X0.1 Y200.0 Z0.3 F1500.0 E15 ; Draw the first line
G1 X0.4 Y200.0 Z0.3 F5000.0 ; Move to side a little
G1 X0.4 Y20 Z0.3 F1500.0 E30 ; Draw the second line
G92 E0 ; Reset Extruder
G1 Z2.0 F3000 ; Move Z Axis up little to prevent scratching of Heat Bed
G1 X5 Y20 Z0.3 F5000.0 ; Move over to prevent blob squish
G92 E0
G92 E0
G1 F2700 E-5
;LAYER_COUNT:14
;LAYER:0
M107
;MESH:6479.stl
G0 F6000 X98.7 Y163.81 Z0.28
;TYPE:WALL-INNER
G1 F2700 E0
G1 F1200 X98.7 Y43.344 E5.6094
G1 X98.3 Y43.344 E5.62803
G1 X98.3 Y163.81 E11.23743
G1 X98.7 Y163.81 E11.25605
G0 F6000 X99.144 Y164.21
G1 F1200 X99.1 Y163.915 E11.26994
G1 X99.1 Y42.944 E16.90286
G1 X97.9 Y42.944 E16.95874
G1 X97.9 Y164.234 E22.60651
G1 X98.248 Y164.21 E22.62275
G1 X99.144 Y164.21 E22.66447
G0 F6000 X99.605 Y164.61
G1 F1200 X99.5 Y163.915 E22.6972
G1 X99.5 Y42.544 E28.34874
G1 X97.5 Y42.544 E28.44187
G1 X97.494 Y164.561 E34.12349
G1 X97.461 Y164.709 E34.13055
G1 X97.83 Y164.639 E34.14804
G1 X98.248 Y164.61 E34.16755
G1 X99.605 Y164.61 E34.23074
G0 F6000 X100.19 Y165.01
G1 F1200 X100.016 Y164.687 E34.24783
G1 X99.9 Y163.915 E34.28418
G1 X99.9 Y42.144 E39.95434
G1 X97.1 Y42.144 E40.08472
G1 X97.095 Y164.533 E45.78367
G1 X96.942 Y165.229 E45.81685
G1 X97.886 Y165.035 E45.86173
G1 X98.248 Y165.01 E45.87862
G1 X100.19 Y165.01 E45.96905
G0 F6000 X100.888 Y165.409
G1 F1200 X100.798 Y165.311 E45.97525
G1 X100.398 Y164.569 E46.0145
G1 X100.3 Y163.915 E46.04529
G1 X100.3 Y41.744 E51.73408
G1 X96.7 Y41.744 E51.90171
G1 X96.696 Y164.505 E57.61798
G1 X96.555 Y165.145 E57.6485
G1 X96.156 Y165.805 E57.68441
G1 X97.941 Y165.431 E57.76933
G1 X98.248 Y165.41 E57.78366
G1 X100.888 Y165.409 E57.90659
G1 F2700 E52.90659
G0 F6000 X105.896 Y168.419
G0 X108.152 Y170.068
G0 X109.891 Y171.994
G0 X111.234 Y174.32
G0 X112.317 Y177.707
G0 X112.344 Y179.544
G0 X112.064 Y182.214
G0 X111.234 Y184.769
G0 X109.949 Y187.019
G0 X108.28 Y188.882
G0 X103.88 Y193.044
G1 F2700 E57.90659
G1 F1221.4 X106.597 Y191.834 E58.04266
G1 X108.996 Y190.091 E58.17832
G1 F1212.1 X110.978 Y187.886 E58.315
G1 X112.467 Y185.313 E58.45204
G1 F1221.4 X113.382 Y182.493 E58.58767
G1 X113.693 Y179.543 E58.72338
G1 F1230.8 X113.603 Y178.66 E58.76368
G1 F1052.6 X113.426 Y177.627 E58.81931
G1 F1012.7 X113.412 Y177 E58.85392
G1 F1156.6 X113.376 Y176.596 E58.87351
G1 F1203 X113.261 Y176.21 E58.89222
G1 F1224.5 X112.466 Y173.775 E59.00911
G1 F1218.3 X110.98 Y171.199 E59.14551
G1 F1209.1 X108.992 Y168.997 E59.28261
G1 F1200 X106.599 Y167.259 E59.42032
G1 F1209.1 X103.88 Y166.045 E59.55794
G1 F1227.6 X102.128 Y165.672 E59.63947
G1 F1218.3 X101.375 Y165.321 E59.67758
G1 F1200 X101.107 Y165.058 E59.69506
G1 X100.78 Y164.45 E59.72721
G1 X100.7 Y163.915 E59.7524
G1 X100.7 Y41.344 E65.45981
G1 X96.304 Y41.344 E65.66451
G1 X96.296 Y164.478 E71.39815
G1 X96.182 Y165.001 E71.42307
G1 X95.853 Y165.545 E71.45267
G1 F1197 X95.281 Y165.977 E71.48613
G1 F1215.2 X94.902 Y166.138 E71.50507
G1 F1218.3 X92.401 Y167.258 E71.63076
G1 F1200 X90.961 Y168.303 E71.7136
G1 F1153.8 X90.018 Y169.008 E71.77062
G1 F1170.7 X89.599 Y169.442 E71.79941
G1 F1227.6 X88.02 Y171.199 E71.90694
G1 F1218.3 X86.534 Y173.775 E72.04334
G1 F1227.6 X85.739 Y176.21 E72.15993
G1 F1206 X85.624 Y176.596 E72.17859
G1 F1156.6 X85.587 Y177.001 E72.19823
G1 F1012.7 X85.574 Y177.627 E72.23278
G1 F1052.6 X85.398 Y178.66 E72.28841
G1 F1227.6 X85.307 Y179.543 E72.32881
G1 F1218.3 X85.618 Y182.493 E72.46487
G1 F1221.4 X86.533 Y185.313 E72.6005
G1 F1212.1 X88.022 Y187.886 E72.73754
G1 X90.004 Y190.091 E72.87422
G1 F1206 X90.585 Y190.507 E72.90732
G1 F1090.9 X91.005 Y190.767 E72.93262
G1 F1111.1 X91.659 Y191.296 E72.97493
G1 F1230.8 X92.403 Y191.834 E73.01661
G1 F1221.4 X95.12 Y193.044 E73.15268
G1 F1218.3 X98.013 Y193.658 E73.28833
G1 X100.987 Y193.659 E73.42473
G1 X103.88 Y193.044 E73.56038
G0 F6000 X104.003 Y193.423
G1 F1200 X106.796 Y192.18 E73.70274
G1 X109.263 Y190.387 E73.84475
G1 X111.303 Y188.123 E73.98665
G1 X112.831 Y185.475 E74.12901
G1 X113.773 Y182.576 E74.27094
G1 X114.091 Y179.543 E74.41295
G1 X113.774 Y176.511 E74.5549
G1 X112.831 Y173.612 E74.69685
G1 X111.303 Y170.964 E74.83921
G1 X109.261 Y168.698 E74.98125
G1 X106.8 Y166.91 E75.12289
G1 X104.003 Y165.665 E75.26545
G1 X102.209 Y165.286 E75.35083
G1 X101.625 Y165.009 E75.38093
G1 X101.417 Y164.804 E75.39453
G1 X101.162 Y164.331 E75.41955
G1 X101.1 Y163.915 E75.43913
G1 X101.1 Y41.03 E81.16117
G1 X100.909 Y40.944 E81.17093
G1 X96.102 Y40.944 E81.39476
G1 X96.018 Y40.995 E81.39934
G1 X95.9 Y41.197 E81.41023
G1 X95.897 Y164.45 E87.14941
G1 X95.808 Y164.857 E87.16881
G1 X95.552 Y165.28 E87.19183
G1 F1203 X95.107 Y165.614 E87.21767
G1 X92.2 Y166.91 E87.36551
G1 F1200 X89.738 Y168.697 E87.50716
G1 X87.697 Y170.964 E87.6492
G1 X86.169 Y173.612 E87.79156
G1 X85.227 Y176.511 E87.9335
G1 X84.908 Y179.543 E88.07546
G1 X85.227 Y182.576 E88.21747
G1 X86.169 Y185.475 E88.35941
G1 X87.697 Y188.123 E88.50176
G1 X89.737 Y190.387 E88.64367
G1 X92.204 Y192.179 E88.78565
G1 X94.997 Y193.424 E88.92804
G1 X97.971 Y194.055 E89.0696
G1 X101.029 Y194.056 E89.212
G1 X104.003 Y193.423 E89.35358
G0 F6000 X104.127 Y193.806
G1 F1200 X106.997 Y192.528 E89.49987
G1 X109.532 Y190.686 E89.64578
G1 X111.628 Y188.359 E89.79161
G1 X113.198 Y185.639 E89.93785
G1 X114.167 Y182.659 E90.08376
G1 X114.493 Y179.543 E90.22965
G1 X114.167 Y176.428 E90.37549
G1 X113.199 Y173.449 E90.52134
G1 X111.628 Y170.728 E90.66765
G1 X109.531 Y168.399 E90.81358
G1 X107.002 Y166.562 E90.95912
G1 X104.127 Y165.282 E91.10567
G1 X102.292 Y164.894 E91.193
G1 X101.875 Y164.696 E91.21449
G1 X101.726 Y164.55 E91.22421
G1 X101.544 Y164.212 E91.24208
G1 X101.5 Y163.915 E91.25606
G1 X101.5 Y40.868 E96.98565
G1 X101.348 Y40.661 E96.99761
G1 X101.089 Y40.606 E97.00994
G1 X101.05 Y40.544 E97.01335
G1 X95.957 Y40.544 E97.2505
G1 X95.922 Y40.6 E97.25357
G1 X95.673 Y40.689 E97.26589
G1 X95.586 Y40.992 E97.28056
G1 X95.5 Y41.044 E97.28524
G1 X95.498 Y164.422 E103.03024
G1 X95.435 Y164.713 E103.0441
G1 X95.252 Y165.015 E103.06055
G1 F1203 X94.933 Y165.254 E103.07906
G1 X91.999 Y166.561 E103.22825
G1 F1200 X89.469 Y168.399 E103.37386
G1 X87.372 Y170.728 E103.51979
G1 X85.801 Y173.449 E103.6661
G1 X84.834 Y176.428 E103.81194
G1 X84.506 Y179.543 E103.95778
G1 X84.833 Y182.659 E104.10368
G1 X85.802 Y185.639 E104.24959
G1 X87.372 Y188.359 E104.39583
G1 X89.468 Y190.686 E104.54166
G1 X92.003 Y192.527 E104.68754
G1 X94.872 Y193.806 E104.83381
G1 X97.929 Y194.455 E104.97933
G1 X101.071 Y194.456 E105.12563
G1 X104.127 Y193.806 E105.27111
G0 F6000 X104.252 Y194.188
G1 F1200 X107.199 Y192.876 E105.42132
G1 X109.801 Y190.985 E105.5711
G1 X111.954 Y188.596 E105.72085
G1 X113.566 Y185.803 E105.87101
G1 X114.56 Y182.743 E106.02083
G1 X114.896 Y179.543 E106.17065
G1 X114.56 Y176.344 E106.32043
G1 X113.566 Y173.285 E106.4702
G1 X111.953 Y170.491 E106.62043
G1 X109.8 Y168.1 E106.77025
G1 X107.203 Y166.213 E106.91973
G1 X104.251 Y164.9 E107.07017
G1 X102.375 Y164.503 E107.15946
G1 X102.125 Y164.384 E107.17235
G1 X101.9 Y164.056 E107.19087
G1 X101.9 Y40.738 E112.93307
G1 X101.557 Y40.269 E112.96013
G1 X101.253 Y40.241 E112.97434
G1 X101.191 Y40.144 E112.9797
G1 X95.813 Y40.144 E113.23013
G1 X95.753 Y40.238 E113.23532
G1 X95.291 Y40.393 E113.25801
G1 X95.271 Y40.701 E113.27238
G1 X95.228 Y40.813 E113.27797
G1 X95.1 Y40.892 E113.28497
G1 X95.099 Y164.394 E119.03574
G1 X95.061 Y164.569 E119.04408
G1 X94.951 Y164.75 E119.05394
G1 F1203 X94.76 Y164.893 E119.06503
G1 X91.797 Y166.213 E119.21569
G1 F1200 X89.2 Y168.1 E119.36517
G1 X87.047 Y170.491 E119.51499
G1 X85.434 Y173.285 E119.66521
G1 X84.44 Y176.344 E119.81498
G1 X84.104 Y179.543 E119.96476
G1 X84.44 Y182.743 E120.11459
G1 X85.434 Y185.803 E120.2644
G1 X87.046 Y188.596 E120.41456
G1 X89.199 Y190.985 E120.56431
G1 X91.801 Y192.876 E120.71409
G1 X94.748 Y194.189 E120.86432
G1 X97.887 Y194.855 E121.01374
G1 X101.113 Y194.856 E121.16395
G1 X104.252 Y194.188 E121.31339
G0 F6000 X104.167 Y193.9
G0 X103.796 Y192.661
G1 F1224.5 X100.948 Y193.272 E121.44631
G1 F1218.3 X98.054 Y193.266 E121.57905
G1 F1221.4 X95.204 Y192.661 E121.71234
G1 F1227.6 X92.629 Y191.514 E121.84064
G1 F1233.9 X91.887 Y190.983 E121.88196
G1 F1111.1 X91.351 Y190.454 E121.91983
G1 F1006.3 X91.307 Y190.351 E121.92605
G1 X91.195 Y190.341 E121.9323
G1 F1090.9 X90.791 Y190.163 E121.95491
G1 F1200 X90.286 Y189.83 E121.98308
G1 F1224.5 X88.874 Y188.262 E122.07937
G1 F1218.3 X88.502 Y187.638 E122.11269
G1 F1200 X88.41 Y186.966 E122.14427
G1 X88.452 Y186.638 E122.15967
G1 X88.135 Y186.541 E122.1751
G1 X87.632 Y186.243 E122.20233
G1 F1194 X87.409 Y186.022 E122.21702
G1 F1212.1 X87.239 Y185.766 E122.23119
G1 F1230.8 X86.886 Y185.157 E122.26314
G1 F1221.4 X86.003 Y182.411 E122.39511
G1 F1218.3 X85.699 Y179.584 E122.52552
G1 F1227.6 X85.783 Y178.699 E122.56598
G1 F1052.6 X86.049 Y177.806 E122.61544
G1 F914.3 X86.157 Y177.693 E122.62499
G1 X86.08 Y177.559 E122.63444
G1 F1012.7 X86.008 Y177.009 E122.66505
G1 F1156.6 X86.021 Y176.695 E122.68023
G1 F1206 X86.109 Y176.33 E122.69762
G1 F1230.8 X86.887 Y173.933 E122.81204
G1 X88.335 Y171.424 E122.94355
G1 F1233.9 X89.887 Y169.702 E123.04853
G1 F1170.7 X90.275 Y169.353 E123.07344
G1 F1153.8 X91.221 Y169.104 E123.12081
G1 F1200 X92.221 Y169.106 E123.16737
G1 X92.631 Y169.226 E123.18727
G1 X92.771 Y169.292 E123.19447
G1 X92.906 Y169.23 E123.20139
G1 X92.842 Y168.699 E123.2263
G1 X92.851 Y168.449 E123.23794
G1 X93.027 Y167.846 E123.26719
G1 X93.38 Y167.358 E123.29524
G1 F1194 X93.634 Y167.147 E123.31069
G1 F1212.1 X93.911 Y167.003 E123.32508
G1 F1237.1 X95.058 Y166.492 E123.3818
G1 F1212.1 X95.363 Y166.38 E123.39678
G1 F1194 X97.997 Y165.827 E123.52273
G1 F1200 X98.248 Y165.81 E123.53444
G1 X100.875 Y165.809 E123.65677
G1 X101.126 Y165.848 E123.66859
G1 F1215.2 X103.796 Y166.428 E123.79423
G1 F1233.9 X105.089 Y167.003 E123.85831
G1 F1218.3 X105.365 Y167.146 E123.87257
G1 F1200 X105.622 Y167.355 E123.88799
G1 X105.974 Y167.845 E123.91609
G1 X106.173 Y168.602 E123.95253
G1 X106.109 Y169.096 E123.97573
G1 X106.574 Y169.179 E123.99772
G1 X106.962 Y169.369 E124.01784
G1 X107.112 Y169.472 E124.02631
G1 X107.408 Y169.352 E124.04118
G1 X108.027 Y169.275 E124.07023
G1 X108.697 Y169.442 E124.10238
G1 F1218.3 X109.268 Y169.872 E124.13517
G1 F1233.9 X110.665 Y171.424 E124.22973
G1 F1230.8 X112.112 Y173.931 E124.36114
G1 X112.891 Y176.33 E124.47565
G1 F1212.1 X112.971 Y176.63 E124.48997
G1 F1165 X112.991 Y177.008 E124.50812
G1 F1012.7 X112.92 Y177.559 E124.53878
G1 F914.3 X112.843 Y177.693 E124.54822
G1 X112.951 Y177.806 E124.55778
G1 F1052.6 X113.217 Y178.699 E124.60724
G1 F1230.8 X113.301 Y179.578 E124.64733
G1 F1221.4 X112.997 Y182.411 E124.77768
G1 X112.114 Y185.157 E124.90964
G1 F1230.8 X111.761 Y185.766 E124.9416
G1 F1218.3 X111.593 Y186.022 E124.95564
G1 F1200 X111.371 Y186.246 E124.97033
G1 X110.865 Y186.541 E124.9976
G1 X110.548 Y186.638 E125.01304
G1 X110.59 Y186.966 E125.02843
G1 X110.498 Y187.638 E125.06002
G1 F1218.3 X110.126 Y188.262 E125.09334
G1 F1233.9 X108.76 Y189.778 E125.18574
G1 F1230.8 X106.404 Y191.499 E125.31821
G1 X103.796 Y192.661 E125.44783
G0 F6000 X103.675 Y192.283
G1 F1200 X100.902 Y192.878 E125.57989
G1 X98.097 Y192.878 E125.7105
G1 X95.324 Y192.283 E125.84257
G1 X92.791 Y191.154 E125.9717
G1 X92.118 Y190.665 E126.01043
G1 X91.73 Y190.235 E126.0374
G1 X91.604 Y189.943 E126.05221
G1 X91.288 Y189.912 E126.067
G1 X90.896 Y189.777 E126.0863
G1 X90.532 Y189.504 E126.10749
G1 X89.167 Y187.998 E126.20213
G1 X88.881 Y187.51 E126.22847
G1 X88.797 Y186.9 E126.25714
G1 X88.931 Y186.481 E126.27763
G1 X89.04 Y186.265 E126.28889
G1 X88.781 Y186.264 E126.30095
G1 X88.36 Y186.216 E126.32068
G1 X87.89 Y185.936 E126.34616
G1 X87.662 Y185.71 E126.36111
G1 X87.249 Y184.999 E126.39939
G1 X86.384 Y182.33 E126.53004
G1 X86.092 Y179.548 E126.66029
G1 X86.175 Y178.74 E126.69811
G1 X86.426 Y178.073 E126.7313
G1 X86.723 Y177.763 E126.75129
G1 X86.51 Y177.392 E126.77121
G1 X86.418 Y176.981 E126.79082
G1 X86.432 Y176.612 E126.80801
G1 X87.25 Y174.092 E126.93138
G1 X88.656 Y171.655 E127.06239
G1 X90.18 Y169.966 E127.16832
G1 X90.492 Y169.708 E127.18717
G1 X91.221 Y169.504 E127.22242
G1 X92.169 Y169.505 E127.26657
G1 X92.553 Y169.626 E127.28531
G1 X92.771 Y169.752 E127.29704
G1 X92.989 Y169.626 E127.30876
G1 X93.3 Y169.528 E127.32395
G1 X93.443 Y169.514 E127.33064
G1 X93.355 Y169.332 E127.34005
G1 X93.239 Y168.779 E127.36636
G1 X93.249 Y168.492 E127.37973
G1 X93.386 Y168.023 E127.40248
G1 X93.66 Y167.643 E127.4243
G1 X93.922 Y167.43 E127.44002
G1 X95.219 Y166.852 E127.50614
G1 X95.458 Y166.771 E127.51789
G1 X98.114 Y166.21 E127.64429
G1 X100.897 Y166.209 E127.77388
G1 X103.644 Y166.792 E127.90464
G1 X105.087 Y167.434 E127.97818
G1 F1203 X105.341 Y167.642 E127.99343
G1 X105.615 Y168.023 E128.01523
G1 F1200 X105.756 Y168.557 E128.04095
G1 X105.758 Y168.799 E128.05222
G1 X105.673 Y169.193 E128.07099
G1 X105.555 Y169.504 E128.08647
G1 X106.154 Y169.509 E128.11437
G1 X106.519 Y169.595 E128.13183
G1 X106.753 Y169.71 E128.14397
G1 X107.052 Y169.951 E128.16185
G1 X107.487 Y169.739 E128.18438
G1 X108.007 Y169.675 E128.20878
G1 X108.528 Y169.805 E128.23378
G1 X108.975 Y170.136 E128.25968
G1 X110.346 Y171.659 E128.3551
G1 X111.749 Y174.089 E128.48576
G1 X112.571 Y176.622 E128.60976
G1 X112.581 Y176.98 E128.62644
G1 X112.49 Y177.392 E128.64608
G1 X112.277 Y177.763 E128.666
G1 X112.574 Y178.073 E128.686
G1 X112.825 Y178.74 E128.71918
G1 X112.905 Y179.575 E128.75824
G1 X112.616 Y182.33 E128.88723
G1 X111.749 Y185.005 E129.01817
G1 X111.332 Y185.719 E129.05667
G1 X111.113 Y185.939 E129.07112
G1 X110.638 Y186.216 E129.09673
G1 X110.219 Y186.264 E129.11636
G1 X109.96 Y186.265 E129.12842
G1 X110.072 Y186.491 E129.14017
G1 X110.203 Y186.9 E129.16017
G1 X110.119 Y187.51 E129.18884
G1 X109.833 Y187.998 E129.21518
G1 X108.469 Y189.511 E129.31003
G1 X106.205 Y191.156 E129.44034
G1 X103.675 Y192.283 E129.56931
G0 F6000 X103.517 Y191.91
G1 F1200 X100.86 Y192.472 E129.69577
G1 X98.14 Y192.473 E129.82242
G1 X95.484 Y191.909 E129.94885
G1 X93 Y190.804 E130.07545
G1 X92.353 Y190.341 E130.1125
G1 X92.076 Y190.034 E130.13175
G1 X91.984 Y189.82 E130.1426
G1 X91.979 Y189.427 E130.1609
G1 X91.605 Y189.543 E130.17913
G1 X91.372 Y189.521 E130.19003
G1 X91.089 Y189.423 E130.20397
G1 X90.8 Y189.206 E130.2208
G1 X89.464 Y187.73 E130.3135
G1 X89.26 Y187.381 E130.33233
G1 X89.209 Y187.008 E130.34986
G1 X89.228 Y186.859 E130.35685
G1 X89.38 Y186.458 E130.37682
G1 X89.707 Y186.054 E130.40102
G1 F1176.5 X90.121 Y185.871 E130.42252
G1 X88.791 Y185.865 E130.48569
G1 F1200 X88.426 Y185.796 E130.50299
G1 X88.147 Y185.63 E130.5181
G1 X87.981 Y185.464 E130.52904
G1 X87.622 Y184.832 E130.56288
G1 X86.783 Y182.246 E130.68947
G1 X86.5 Y179.543 E130.81603
G1 X86.573 Y178.781 E130.85167
G1 X86.752 Y178.305 E130.87535
G1 X86.956 Y178.092 E130.88908
G1 F1156.6 X87.568 Y177.869 E130.92055
G1 X87.029 Y177.503 E130.95203
G1 F1200 X86.883 Y177.247 E130.96575
G1 X86.817 Y176.953 E130.97978
G1 X86.827 Y176.688 E130.99213
G1 X87.622 Y174.257 E131.11122
G1 X88.977 Y171.898 E131.2379
G1 X90.477 Y170.234 E131.34222
G1 X90.7 Y170.05 E131.35568
G1 X91.221 Y169.904 E131.38087
G1 X92.118 Y169.905 E131.42264
G1 X92.388 Y169.991 E131.43584
G1 X92.56 Y170.09 E131.44508
G1 X92.771 Y170.324 E131.45975
G1 X92.981 Y170.09 E131.47439
G1 X93.153 Y169.991 E131.48363
G1 F1140.1 X93.418 Y169.907 E131.49726
G1 F1036.7 X94.33 Y169.88 E131.54643
G1 F1039 X94.165 Y169.776 E131.55692
G1 F1142.9 X93.838 Y169.419 E131.58059
G1 F1200 X93.739 Y169.209 E131.5914
G1 X93.64 Y168.74 E131.61372
G1 X93.647 Y168.535 E131.62327
G1 X93.745 Y168.2 E131.63953
G1 X93.941 Y167.929 E131.6551
