;FLAVOR:Marlin
;TIME:5805
;Filament used: 5.16943m
;Layer height: 0.28
;MINX:49.702
;MINY:23.788
;MINZ:0.28
;MAXX:185.298
;MAXY:211.212
;MAXZ:3.92
;Generated with Cura_SteamEngine 5.4.0
M140 S50
M105
M190 S50
M104 S200
M105
M109 S200
M82 ;absolute extrusion mode
; Ender 3 Custom Start G-code
G92 E0 ; Reset Extruder
G28 ; Home all axes
G1 Z2.0 F3000 ; Move Z Axis up little to prevent scratching of Heat Bed
G1 X0.1 Y20 Z0.3 F5000.0 ; Move to start position
G1 X0.1 Y200.0 Z0.3 F1500.0 E15 ; Draw the first line
G1 X0.4 Y200.0 Z0.3 F5000.0 ; Move to side a little
G1 X0.4 Y20 Z0.3 F1500.0 E30 ; Draw the second line
G92 E0 ; Reset Extruder
G1 Z2.0 F3000 ; Move Z Axis up little to prevent scratching of Heat Bed
G1 X5 Y20 Z0.3 F5000.0 ; Move over to prevent blob squish
G92 E0
G92 E0
G1 F2700 E-5
;LAYER_COUNT:14
;LAYER:0
M107
;MESH:6479.stl
G0 F6000 X66.393 Y165.083 Z0.28
;TYPE:WALL-INNER
G1 F2700 E0
G1 F1315.1 X66.551 Y164.534 E0.02427
G1 X66.692 Y164.401 E0.03251
G1 X66.556 Y164.255 E0.04099
G1 X66.374 Y163.977 E0.05511
G1 F1276.6 X66.189 Y163.623 E0.07259
G1 X66.201 Y164.024 E0.09015
G1 F1315.1 X66.258 Y164.473 E0.10938
G1 X66.393 Y165.083 E0.13593
G0 F6000 X67.739 Y167.261
G0 X68.096 Y167.666
G0 X68.502 Y167.968
G0 X68.959 Y168.159
G0 X69.463 Y168.222
G0 X69.769 Y168.176
G0 X71.175 Y167.779
G0 X71.501 Y167.631
G1 F944.9 X70.954 Y167.549 E0.16863
G1 F981.6 X70.613 Y167.994 E0.20055
G1 F1061.9 X70.069 Y168.282 E0.23294
G1 F1230.8 X69.471 Y168.36 E0.26032
G1 F1371.4 X68.971 Y168.302 E0.28082
G1 X68.54 Y168.145 E0.29951
G1 F1326 X68.305 Y168.005 E0.31104
G1 F1256.5 X67.946 Y167.734 E0.33104
G1 F1179.4 X67.588 Y167.344 E0.35613
G1 F1093.4 X67.287 Y166.888 E0.38405
G1 F1030 X66.996 Y166.272 E0.42101
G1 F950.5 X66.752 Y165.519 E0.46754
G1 F954.3 X66.677 Y165.205 E0.48644
G1 F1098.4 X66.861 Y164.757 E0.51108
G1 F1200 X67.056 Y164.583 E0.52325
G1 X67.273 Y164.465 E0.53475
G1 F1188.1 X66.772 Y163.925 E0.56939
G1 F1159.4 X66.583 Y163.522 E0.59084
G1 F971.7 X66.409 Y163.279 E0.60803
G1 F866.4 X66.351 Y162.829 E0.63729
G1 F912.5 X66.346 Y162.449 E0.66056
G1 F943 X66.371 Y162.118 E0.68023
G1 F961.9 X66.452 Y161.72 E0.70383
G1 F983.6 X66.603 Y161.328 E0.72769
G1 F1021.3 X66.831 Y160.982 E0.75036
G1 F1083.5 X67.122 Y160.712 E0.77083
G1 F1179.4 X67.475 Y160.514 E0.79001
G1 F1286.9 X67.843 Y160.409 E0.80662
G1 F1359.8 X68.25 Y160.365 E0.82345
G1 F1411.8 X68.739 Y160.42 E0.84292
G1 F1363.6 X69.157 Y160.536 E0.8607
G1 F1286.9 X69.588 Y160.802 E0.88269
G1 F1233.9 X69.914 Y161.12 E0.90331
G1 F1100.9 X70.192 Y161.51 E0.92762
G1 F1004.2 X70.366 Y161.91 E0.95189
G1 F890.5 X70.554 Y162.44 E0.98718
G1 F830.4 X70.55 Y163.052 E1.02836
G1 F939.3 X70.478 Y163.319 E1.04481
G1 F1124.1 X70.441 Y163.396 E1.04906
G1 F1200 X70.367 Y163.735 E1.06521
G1 X70.212 Y164.089 E1.08321
G1 X70.018 Y164.36 E1.09873
G1 X69.726 Y164.626 E1.11712
G1 X69.234 Y164.891 E1.14314
G1 X68.552 Y164.945 E1.175
G1 X68.889 Y165.075 E1.19182
G1 X69.281 Y165.145 E1.21036
G1 X69.848 Y165.101 E1.23684
G1 X70.192 Y165.007 E1.25344
G1 X70.476 Y164.859 E1.26836
G1 X70.734 Y164.64 E1.28411
G1 X70.929 Y164.383 E1.29914
G1 X71.082 Y164.052 E1.31612
G1 X71.196 Y163.583 E1.33859
G1 F1045.8 X71.147 Y163.176 E1.36049
G1 F866.4 X71.103 Y162.999 E1.37226
G1 F800 X71.141 Y162.654 E1.3965
G1 F785.6 X71.286 Y162.452 E1.41418
G1 X71.075 Y162.321 E1.43185
G1 F826.2 X70.968 Y162.188 E1.44339
G1 F937.5 X70.828 Y161.719 E1.47257
G1 F1036.7 X70.57 Y161.272 E1.50038
G1 F1093.4 X70.325 Y160.962 E1.52058
G1 F1167.9 X70.05 Y160.694 E1.53895
G1 F1256.5 X69.717 Y160.451 E1.55728
G1 F1304.3 X69.371 Y160.265 E1.57411
G1 F1290.3 X69.348 Y160.176 E1.57809
G1 F1326 X69.07 Y160.157 E1.58983
G1 F1379.3 X68.635 Y160.056 E1.60792
G1 X68.111 Y160.029 E1.62918
G1 F1344.5 X67.614 Y160.073 E1.64991
G1 F1203 X67.16 Y160.205 E1.67187
G1 F1106 X67.023 Y160.205 E1.6788
G1 X67.006 Y160.271 E1.68224
G1 F1088.4 X66.71 Y160.473 E1.70064
G1 F1048 X66.403 Y160.77 E1.72341
G1 F1008.4 X66.151 Y161.155 E1.74891
G1 F977.6 X65.957 Y161.642 E1.77887
G1 F950.5 X65.848 Y162.198 E1.81218
G1 F910.8 X65.816 Y162.914 E1.85615
G1 F864.9 X65.847 Y163.35 E1.88439
G1 F971.7 X65.788 Y163.704 E1.90503
G1 F1173.6 X65.822 Y164.07 E1.92253
G1 F1200 X65.884 Y164.555 E1.94529
G1 F1069 X66.093 Y165.266 E1.98403
G1 F917.8 X66.159 Y165.386 E1.99237
G1 F893.9 X66.331 Y165.946 E2.02899
G1 F941.2 X66.596 Y166.58 E2.06978
G1 F1010.5 X66.911 Y167.143 E2.10546
G1 F1093.4 X67.257 Y167.607 E2.13504
G1 F1176.5 X67.667 Y168.009 E2.16231
G1 F1253.3 X68.102 Y168.317 E2.18607
G1 F1315.1 X68.556 Y168.532 E2.20742
G1 F1348.3 X68.99 Y168.661 E2.22618
G1 F1352.1 X69.55 Y168.707 E2.2494
G1 F1311.5 X70.062 Y168.662 E2.2713
G1 F1197 X70.491 Y168.544 E2.29207
G1 F1090.9 X70.818 Y168.394 E2.3105
G1 F1012.7 X71.062 Y168.214 E2.32723
G1 F952.4 X71.273 Y167.985 E2.3455
G1 F930.2 X71.501 Y167.631 E2.37079
G1 F2700 E-2.62921
G0 F6000 X71.175 Y167.779
G0 X71.81 Y167.431
G0 X71.974 Y166.365
G0 X73.647 Y165.996
G0 X79.22 Y168.942
;TYPE:WALL-OUTER
G1 F2700 E2.37079
G1 F1200 X78.048 Y162.932 E2.65591
G1 X78.117 Y162.806 E2.6626
G1 X78.221 Y162.753 E2.66804
G1 X79.285 Y162.751 E2.71758
G1 X79.08 Y161.727 E2.76621
G1 X77.911 Y161.727 E2.82064
G1 X77.784 Y161.62 E2.82837
G1 X77.438 Y159.788 E2.91519
G1 X76.029 Y159.788 E2.9808
G1 X76.354 Y161.524 E3.06304
G1 X76.292 Y161.672 E3.07051
G1 X76.188 Y161.725 E3.07594
G1 X72.66 Y161.727 E3.24022
G1 F1151.1 X72.346 Y161.745 E3.25549
G1 F1106 X72.05 Y161.745 E3.27044
G1 F958.1 X71.942 Y162.001 E3.28665
G1 F852.6 X71.629 Y162.097 E3.30811
G1 F1004.2 X71.412 Y161.945 E3.32285
G1 F1200 X71.162 Y161.41 E3.35035
G1 X70.914 Y161.018 E3.37194
G1 X70.622 Y160.674 E3.39296
G1 X70.296 Y160.38 E3.4134
G1 X69.91 Y160.12 E3.43507
G1 X69.652 Y159.986 E3.4486
G1 X69.598 Y159.792 E3.45798
G1 X69.117 Y159.785 E3.48038
G1 X68.607 Y159.683 E3.5046
G1 X68.107 Y159.652 E3.52793
G1 X67.485 Y159.705 E3.55699
G1 X67.207 Y159.784 E3.57045
G1 X66.759 Y159.788 E3.59131
G1 X66.708 Y159.979 E3.60052
G1 X66.46 Y160.126 E3.61394
G1 X66.071 Y160.484 E3.63856
G1 X65.759 Y160.945 E3.66448
G1 X65.526 Y161.509 E3.69289
G1 X65.394 Y162.136 E3.72273
G1 X65.345 Y162.896 E3.75819
G1 F1203 X65.379 Y163.754 E3.79808
G1 X65.484 Y164.598 E3.83758
G1 F1200 X65.655 Y165.371 E3.87444
G1 X65.898 Y166.113 E3.9108
G1 X66.199 Y166.787 E3.94517
G1 X66.558 Y167.387 E3.97773
G1 X66.955 Y167.886 E4.00742
G1 X67.42 Y168.32 E4.03704
G1 X67.912 Y168.654 E4.06473
G1 X68.427 Y168.89 E4.09111
G1 X68.987 Y169.038 E4.11808
G1 X69.546 Y169.085 E4.1442
G1 X70.101 Y169.05 E4.1701
G1 X70.593 Y168.947 E4.1935
G1 X70.996 Y168.788 E4.21367
G1 X71.343 Y168.564 E4.23291
G1 X71.632 Y168.275 E4.25194
G1 X71.852 Y167.934 E4.27083
G1 X72.007 Y167.531 E4.29094
G1 X72.061 Y167.255 E4.30403
G1 X70.636 Y167.036 E4.37117
G1 X70.544 Y167.331 E4.38556
G1 X70.278 Y167.697 E4.40662
G1 X69.921 Y167.91 E4.42598
G1 X69.473 Y167.98 E4.4471
G1 X69.023 Y167.926 E4.4682
G1 X68.639 Y167.766 E4.48757
G1 X68.273 Y167.5 E4.50864
G1 X67.943 Y167.133 E4.53162
G1 X67.642 Y166.643 E4.5584
G1 X67.411 Y166.096 E4.58605
G1 X67.213 Y165.441 E4.61791
G1 X67.148 Y165.122 E4.63307
G1 X67.193 Y164.964 E4.64072
G1 X67.475 Y164.811 E4.65566
G1 F1113.7 X67.663 Y164.799 E4.66511
G1 X68.011 Y165.105 E4.68836
G1 F1200 X68.243 Y165.249 E4.70107
G1 X68.525 Y165.38 E4.71555
G1 X68.793 Y165.465 E4.72864
G1 X69.102 Y165.519 E4.74325
G1 X69.398 Y165.536 E4.75706
G1 X69.916 Y165.497 E4.78125
G1 X70.338 Y165.382 E4.80161
G1 X70.701 Y165.193 E4.82067
G1 X71.026 Y164.917 E4.84052
G1 X71.275 Y164.589 E4.8597
G1 X71.462 Y164.184 E4.88047
G1 X71.57 Y163.738 E4.90184
G1 F1203 X71.609 Y163.198 E4.92698
G1 X71.591 Y162.88 E4.94178
G1 F1019.1 X71.718 Y162.652 E4.95609
G1 F933.9 X72.046 Y162.55 E4.97664
G1 F1014.8 X73.297 Y164.148 E5.08839
G1 F1061.9 X74.549 Y165.746 E5.1952
G1 F1113.7 X75.801 Y167.345 E5.2971
G1 F1170.7 X77.053 Y168.943 E5.39399
G1 F1200 X79.22 Y168.942 E5.49489
G0 F6000 X78.899 Y168.679
G0 X77.3 Y168.313
G0 X77.076 Y168.083
G0 X77.307 Y167.942
;TYPE:WALL-INNER
G1 F1106 X77.45 Y168.125 E5.50662
G1 X78.228 Y168.125 E5.54593
G1 X78.062 Y167.273 E5.58979
G1 X77.821 Y167.766 E5.61751
G1 X77.407 Y167.958 E5.64057
G1 X77.307 Y167.942 E5.64568
G0 F6000 X77.076 Y168.083
G0 X77.277 Y168.29
G0 X78.414 Y168.279
G0 X78.734 Y168.542
G1 F1200 X78.587 Y167.788 E5.68145
G1 F1078.7 X78.359 Y166.855 E5.73121
G1 F977.6 X77.621 Y163.075 E5.95134
G1 F1076.2 X77.744 Y162.636 E5.97501
G1 F1025.6 X77.996 Y162.334 E5.99644
G1 F820.5 X78.133 Y162.244 E6.0076
G1 X77.969 Y162.196 E6.01924
G1 F1025.6 X77.618 Y162.015 E6.04076
G1 F1200 X77.457 Y161.842 E6.05176
G1 F1071.4 X77.298 Y161.469 E6.07291
G1 F969.7 X77.068 Y160.234 E6.14529
G1 F973.6 X76.567 Y160.234 E6.17405
G1 F969.7 X76.804 Y161.517 E6.24923
G1 F1071.4 X76.665 Y161.842 E6.26766
G1 F1023.5 X76.411 Y162.144 E6.28921
G1 F819.1 X76.276 Y162.234 E6.30028
G1 X76.438 Y162.282 E6.3118
G1 F1023.5 X76.789 Y162.464 E6.33339
G1 F1134.8 X76.981 Y162.677 E6.34751
G1 F1023.5 X77.139 Y163.168 E6.37567
G1 F975.6 X77.761 Y166.367 E6.56232
G1 X77.881 Y166.895 E6.59333
G1 F1078.7 X77.574 Y167.421 E6.62488
G1 F1200 X77.233 Y167.578 E6.64236
G1 F1027.8 X76.536 Y167.528 E6.68035
G1 X77.058 Y168.299 E6.73097
G1 F1200 X77.247 Y168.542 E6.7453
G1 X78.734 Y168.542 E6.81454
G0 F6000 X78.414 Y168.279
G0 X77.3 Y168.313
G0 X76.536 Y167.528
G1 F907.4 X76.461 Y167.441 E6.82162
G1 F905.7 X76.145 Y167.023 E6.85395
G1 F900.6 X73.421 Y163.548 E7.12791
G0 F6000 X73.025 Y162.49
G0 X73.148 Y162.55
G1 F1081.1 X73.12 Y162.597 E7.13074
G1 X73.066 Y162.597 E7.13353
G1 X73.038 Y162.55 E7.13635
G1 X73.066 Y162.503 E7.13918
G1 X73.12 Y162.503 E7.14197
G0 F6000 X72.325 Y162.263
G1 F1151.1 X72.854 Y162.93 E7.1833
G1 F1032.3 X73.421 Y163.548 E7.2287
G1 X73.405 Y162.872 E7.2653
G1 F1200 X73.496 Y162.687 E7.2749
G1 F928.4 X73.913 Y162.244 E7.31152
G1 X73.147 Y162.127 E7.35815
G1 F1200 X72.66 Y162.127 E7.38083
G1 F1151.1 X72.319 Y162.179 E7.39757
G1 F1106 X72.235 Y162.24 E7.40282
G1 X72.325 Y162.263 E7.40751
G0 F6000 X72.864 Y162.39
G0 X73.13 Y162.38
G0 X73.913 Y162.244
G1 F757.1 X76.276 Y162.234 E7.58191
G0 F6000 X77.061 Y162.086
G1 F902.3 X77.347 Y162.393 E7.6079
G0 F6000 X78.133 Y162.244
G1 F763.1 X78.661 Y162.239 E7.64656
G1 F2700 E2.64656
G0 F6000 X73.529 Y162.518
G0 X72.482 Y162.75
G0 X71.386 Y162.813
G0 X70.81 Y163.468
G1 F2700 E7.64656
G1 F1322.3 X70.789 Y163.617 E7.65292
G1 F1269.8 X70.711 Y163.923 E7.66681
G1 F1266.5 X70.594 Y164.183 E7.67939
G1 F1326 X70.461 Y164.382 E7.68948
G1 F2700 E2.68948
G0 F6000 X70.28 Y162.475
G0 X70.023 Y161.597
G0 X69.787 Y161.225
G0 X69.486 Y160.913
G0 X69.127 Y160.683
G0 X68.721 Y160.545
G0 X67.908 Y160.536
G0 X67.558 Y160.645
G0 X67.246 Y160.831
G0 X66.989 Y161.089
G0 X66.662 Y161.733
G0 X66.561 Y162.495
G0 X66.763 Y164.403
G0 X66.979 Y165.491
G0 X67.433 Y166.762
G0 X67.739 Y167.261
G0 X68.096 Y167.666
G0 X68.502 Y167.968
G0 X68.76 Y168.075
G0 X70.898 Y168.591
G0 X71.295 Y169.6
G0 X73.985 Y173.923
G0 X73.985 Y174.999
G0 X74.136 Y175.42
G0 X74.689 Y175.229
G1 F2700 E7.68948
G1 F758.3 X74.77 Y175.205 E7.6957
G1 F806.7 X75.094 Y175.154 E7.71842
G1 F864.9 X75.503 Y175.12 E7.74494
G1 F874.3 X76.11 Y175.176 E7.7839
G1 F821.9 X76.571 Y175.295 E7.81626
G1 F2700 E2.81626
G0 F6000 X77.29 Y175.686
G0 X77.605 Y177.139
G0 X77.769 Y179.066
G0 X77.084 Y179.332
G0 X77.252 Y179.994
G0 X77.975 Y180.154
G0 X78.118 Y180.868
G0 X78.405 Y182.95
G0 X78.844 Y183.499
;TYPE:WALL-OUTER
G1 F2700 E7.81626
G1 F1200 X79.15 Y183.195 E7.83635
G1 X79.366 Y182.848 E7.85538
G1 X79.501 Y182.437 E7.87553
G1 X79.546 Y181.983 E7.89677
G1 X79.513 Y181.564 E7.91634
G1 X79.413 Y181.186 E7.93455
G1 X79.249 Y180.842 E7.95229
G1 X79.016 Y180.533 E7.97031
G1 X78.73 Y180.273 E7.98831
G1 X78.399 Y180.069 E8.00641
G1 F1156.6 X78.078 Y179.961 E8.02278
G1 F977.6 X77.814 Y179.918 E8.03807
G1 F960 X77.77 Y179.85 E8.04278
G1 F1132.1 X77.743 Y179.451 E8.06252
G1 F1200 X77.796 Y179.325 E8.06888
G1 X78.146 Y179.13 E8.08754
G1 X78.39 Y178.934 E8.10211
G1 X78.591 Y178.705 E8.1163
G1 X78.751 Y178.446 E8.13048
G1 X78.864 Y178.166 E8.14454
G1 X78.933 Y177.86 E8.15914
G1 X78.955 Y177.512 E8.17538
G1 X78.897 Y176.888 E8.20456
G1 X78.722 Y176.335 E8.23157
G1 X78.431 Y175.854 E8.25775
G1 X78.025 Y175.439 E8.28478
G1 X77.501 Y175.094 E8.31399
G1 X77.252 Y174.974 E8.32686
G1 X77.205 Y174.788 E8.3358
G1 X76.604 Y174.788 E8.36378
G1 X76.201 Y174.706 E8.38293
G1 X75.385 Y174.654 E8.42101
G1 X74.704 Y174.695 E8.45277
G1 X74.238 Y174.788 E8.4749
G1 X73.697 Y174.789 E8.50009
G1 X73.649 Y174.979 E8.50922
G1 X73.188 Y175.286 E8.53501
G1 X72.851 Y175.635 E8.5576
G1 X72.618 Y176.028 E8.57887
G1 X72.474 Y176.498 E8.60176
G1 X72.426 Y177.029 E8.62659
G1 X72.463 Y177.464 E8.64692
G1 X72.575 Y177.87 E8.66653
G1 X72.759 Y178.23 E8.68535
G1 X73.01 Y178.547 E8.70418
G1 X73.344 Y178.836 E8.72475
G1 X73.72 Y179.063 E8.7452
G1 F1188.1 X74.208 Y179.256 E8.76988
G1 F1116.3 X74.538 Y179.317 E8.78668
G1 F1081.1 X74.586 Y179.436 E8.79331
G1 F1151.1 X74.623 Y179.749 E8.80861
G1 F1200 X74.581 Y179.859 E8.81409
G1 X74.247 Y180.107 E8.83346
G1 X74.049 Y180.309 E8.84663
G1 X73.889 Y180.537 E8.8596
G1 X73.761 Y180.795 E8.87301
G1 X73.665 Y181.088 E8.88737
G1 X73.614 Y181.376 E8.90099
G1 X73.595 Y181.723 E8.91717
G1 X73.648 Y182.242 E8.94147
G1 X73.807 Y182.701 E8.96408
G1 X74.068 Y183.096 E8.98613
G1 X74.441 Y183.437 E9.00966
G1 X74.914 Y183.714 E9.03519
G1 X75.467 Y183.914 E9.06257
G1 X76.106 Y184.034 E9.09284
G1 X76.836 Y184.076 E9.12689
G1 F1203 X77.45 Y184.041 E9.15546
G1 X77.988 Y183.93 E9.18097
G1 F1200 X78.452 Y183.749 E9.20416
G1 X78.844 Y183.499 E9.22581
G0 F6000 X78.405 Y182.95
G0 X77.332 Y183.552
;TYPE:WALL-INNER
G1 F997.9 X77.542 Y183.574 E9.23764
G1 F1090.9 X77.886 Y183.56 E9.25527
G1 F1151.1 X78.263 Y183.377 E9.27561
G1 F1030 X78.56 Y183.145 E9.29606
G1 F924.9 X78.782 Y182.902 E9.31594
G1 F877.5 X78.929 Y182.643 E9.33491
G1 F845.1 X79.019 Y182.335 E9.35612
G1 F836.2 X79.059 Y181.978 E9.38013
G1 F852.6 X79.041 Y181.645 E9.40198
G1 F864.9 X78.963 Y181.351 E9.42164
G1 X78.839 Y181.091 E9.44025
G1 X78.661 Y180.856 E9.45929
G1 X78.442 Y180.655 E9.4785
G1 X78.158 Y180.482 E9.49998
G1 X78.367 Y180.947 E9.53292
G1 X78.468 Y181.389 E9.56221
G1 F860.2 X78.495 Y181.87 E9.59351
G1 F855.6 X78.428 Y182.401 E9.62846
G1 F875.9 X78.334 Y182.611 E9.64314
G1 F924.9 X78.19 Y182.816 E9.65827
G1 F1030 X77.998 Y183.048 E9.67461
G1 F1191.1 X77.73 Y183.215 E9.68942
G1 F1116.3 X77.332 Y183.552 E9.71553
G0 F6000 X77.32 Y183.551
G1 F830.4 X76.711 Y183.611 E9.7567
G1 F871.1 X76.163 Y183.566 E9.79197
G1 X75.902 Y183.507 E9.80913
G1 F805.4 X75.603 Y183.414 E9.83086
G1 F750 X75.486 Y183.362 E9.8404
G0 F6000 X75.467 Y183.362
G1 F1071.4 X75.259 Y183.022 E9.86118
G1 F1215.2 X75.158 Y182.935 E9.86731
G1 F1113.7 X74.978 Y182.739 E9.88067
G1 F1000 X74.836 Y182.529 E9.89483
G1 F926.6 X74.723 Y182.302 E9.91012
G1 F900.6 X74.627 Y181.944 E9.93312
G1 F898.9 X74.605 Y181.548 E9.95777
G1 F914.3 X74.63 Y181.179 E9.98038
G1 F943 X74.727 Y180.78 E10.00471
G1 F833.3 X74.951 Y180.227 E10.04471
G1 X74.544 Y180.448 E10.07577
G1 F958.1 X74.396 Y180.598 E10.08806
G1 X74.178 Y180.966 E10.113
G1 F930.2 X74.077 Y181.43 E10.14153
G1 F893.9 X74.067 Y181.712 E10.15917
G1 F880.7 X74.112 Y182.139 E10.18641
G1 F890.5 X74.228 Y182.494 E10.20984
G1 F926.6 X74.414 Y182.8 E10.23143
G1 F1004.2 X74.677 Y183.077 E10.25269
G1 F1090.9 X75.067 Y183.352 E10.27713
G1 F1016.9 X75.467 Y183.362 E10.29912
G0 F6000 X74.954 Y183.02
G0 X74.83 Y181.505
G0 X74.924 Y180.886
G0 X75.508 Y179.735
G0 X75.897 Y179.628
G1 F790.8 X76.371 Y179.579 E10.33279
G0 F6000 X75.879 Y179.624
G1 F971.7 X75.307 Y179.505 E10.36639
G1 F1045.8 X75.01 Y179.422 E10.38286
G1 X75.052 Y179.733 E10.39963
G1 F950.5 X75.04 Y180.133 E10.42316
G1 F989.7 X75.367 Y179.98 E10.44354
G1 F1093.4 X75.495 Y179.882 E10.45178
G1 F971.7 X75.879 Y179.624 E10.47838
G0 F6000 X75.508 Y179.735
G0 X77.149 Y179.86
G0 X77.326 Y179.815
G1 F937.5 X77.299 Y179.241 E10.51263
G1 F893.9 X77.35 Y179.088 E10.52271
G1 F875.9 X76.386 Y179.573 E10.59156
G1 F932 X76.729 Y179.663 E10.61281
G1 F1004.2 X76.91 Y179.696 E10.62305
