;FLAVOR:Marlin
;TIME:8724
;Filament used: 1.71957m
;Layer height: 0.12
;MINX:71.509
;MINY:25.5
;MINZ:0.12
;MAXX:163.491
;MAXY:209.5
;MAXZ:5.04
;Generated with Cura_SteamEngine 5.4.0
M140 S50
M105
M190 S50
M104 S200
M105
M109 S200
M82 ;absolute extrusion mode
; Ender 3 Custom Start G-code
G92 E0 ; Reset Extruder
G28 ; Home all axes
G1 Z2.0 F3000 ; Move Z Axis up little to prevent scratching of Heat Bed
G1 X0.1 Y20 Z0.3 F5000.0 ; Move to start position
G1 X0.1 Y200.0 Z0.3 F1500.0 E15 ; Draw the first line
G1 X0.4 Y200.0 Z0.3 F5000.0 ; Move to side a little
G1 X0.4 Y20 Z0.3 F1500.0 E30 ; Draw the second line
G92 E0 ; Reset Extruder
G1 Z2.0 F3000 ; Move Z Axis up little to prevent scratching of Heat Bed
G1 X5 Y20 Z0.3 F5000.0 ; Move over to prevent blob squish
G92 E0
G92 E0
G1 F2700 E-5
;LAYER_COUNT:42
;LAYER:0
M107
G0 F6000 X105.035 Y33.643 Z0.12
;TYPE:SKIRT
G1 F2700 E0
G1 F1200 X105.14 Y33.319 E0.0068
G1 X105.482 Y32.408 E0.02622
G1 X105.901 Y31.529 E0.04565
G1 X106.378 Y30.722 E0.06436
G1 X106.967 Y29.9 E0.08454
G1 X107.603 Y29.164 E0.10395
G1 X108.276 Y28.509 E0.12269
G1 X109.059 Y27.873 E0.14282
G1 X109.864 Y27.329 E0.16221
G1 X110.616 Y26.908 E0.17941
G1 X111.045 Y26.691 E0.189
G1 X111.9 Y26.304 E0.20773
G1 X112.854 Y25.97 E0.2279
G1 X113.799 Y25.733 E0.24734
G1 X114.76 Y25.581 E0.26676
G1 X115.673 Y25.515 E0.28503
G1 X116.33 Y25.5 E0.29814
G1 X118.463 Y25.501 E0.34071
G1 X119.341 Y25.516 E0.35823
G1 X120.314 Y25.577 E0.37769
G1 X121.275 Y25.724 E0.39709
G1 X122.223 Y25.955 E0.41656
G1 X123.112 Y26.257 E0.4353
G1 X124.034 Y26.663 E0.4554
G1 X124.826 Y27.098 E0.47343
G1 X125.693 Y27.682 E0.49429
G1 X126.448 Y28.295 E0.5137
G1 X127.128 Y28.955 E0.53261
G1 X128.031 Y30.042 E0.56081
G1 X128.418 Y30.579 E0.57402
G1 X128.952 Y31.394 E0.59347
G1 X129.411 Y32.254 E0.61292
G1 X129.79 Y33.15 E0.63234
G1 X130.091 Y34.074 E0.65173
G1 X130.296 Y34.954 E0.66976
G1 X130.439 Y35.985 E0.69053
G1 X130.486 Y36.815 E0.70712
G1 X130.499 Y37.613 E0.72305
G1 X130.5 Y110.001 E2.16763
G1 X130.537 Y112.573 E2.21896
G1 X130.646 Y115.139 E2.27022
G1 X130.82 Y117.602 E2.31949
G1 X131.066 Y120.087 E2.36932
G1 X131.394 Y122.65 E2.42089
G1 X131.777 Y125.091 E2.4702
G1 X132.238 Y127.573 E2.52058
G1 X132.76 Y130.01 E2.57031
G1 X133.36 Y132.445 E2.62036
G1 X134.048 Y134.954 E2.67228
G1 X134.762 Y137.282 E2.72087
G1 X135.587 Y139.727 E2.77237
G1 X136.449 Y142.065 E2.82209
G1 X137.382 Y144.388 E2.87205
G1 X138.397 Y146.722 E2.92284
G1 X139.448 Y148.965 E2.97227
G1 X140.582 Y151.216 E3.02257
G1 X141.803 Y153.48 E3.0739
G1 X143.036 Y155.615 E3.12311
G1 X144.365 Y157.775 E3.17372
G1 X145.73 Y159.861 E3.22347
G1 X147.177 Y161.938 E3.27398
G1 X148.675 Y163.966 E3.3243
G1 X150.242 Y165.968 E3.37503
G1 X152.136 Y168.238 E3.43403
G1 X152.769 Y168.976 E3.45343
G1 X153.499 Y169.87 E3.47646
G1 X154.026 Y170.548 E3.4936
G1 X154.879 Y171.698 E3.52217
G1 X155.497 Y172.581 E3.54368
G1 X155.98 Y173.307 E3.56108
G1 X156.572 Y174.234 E3.58303
G1 X157.333 Y175.504 E3.61258
G1 X157.84 Y176.403 E3.63318
G1 X158.276 Y177.22 E3.65166
G1 X158.888 Y178.438 E3.67886
G1 X159.38 Y179.487 E3.70198
G1 X159.826 Y180.499 E3.72405
G1 X160.167 Y181.325 E3.74188
G1 X160.66 Y182.602 E3.7692
G1 X161.018 Y183.613 E3.79061
G1 X161.405 Y184.793 E3.81539
G1 X161.717 Y185.835 E3.83709
G1 X162.008 Y186.903 E3.85918
G1 X162.267 Y187.952 E3.88075
G1 X162.49 Y188.948 E3.90111
G1 X162.729 Y190.148 E3.92553
G1 X162.938 Y191.365 E3.95017
G1 X163.092 Y192.424 E3.97153
G1 X163.202 Y193.316 E3.98947
G1 X163.337 Y194.689 E4.017
G1 X163.416 Y195.783 E4.03889
G1 X163.469 Y196.945 E4.0621
G1 X163.491 Y197.999 E4.08314
G1 X163.49 Y198.549 E4.09411
G1 X163.448 Y199.451 E4.11213
G1 X163.307 Y200.486 E4.13298
G1 X163.089 Y201.435 E4.15241
G1 X162.812 Y202.294 E4.17042
G1 X162.404 Y203.257 E4.19129
G1 X161.943 Y204.114 E4.21071
G1 X161.408 Y204.929 E4.23017
G1 X160.804 Y205.693 E4.2496
G1 X160.135 Y206.399 E4.26901
G1 X159.461 Y207 E4.28704
G1 X158.622 Y207.622 E4.30788
G1 X157.789 Y208.13 E4.32735
G1 X156.916 Y208.56 E4.34677
G1 X156.009 Y208.912 E4.36618
G1 X155.074 Y209.182 E4.38561
G1 X154.118 Y209.37 E4.40505
G1 X153.164 Y209.471 E4.42419
G1 X152.637 Y209.49 E4.43472
G1 X151.822 Y209.5 E4.45098
G1 X83.049 Y209.499 E5.82342
G1 X82.316 Y209.487 E5.83805
G1 X81.344 Y209.428 E5.85748
G1 X80.381 Y209.282 E5.87692
G1 X79.434 Y209.051 E5.89637
G1 X78.546 Y208.751 E5.91508
G1 X77.654 Y208.361 E5.93451
G1 X76.771 Y207.874 E5.95463
G1 X76.02 Y207.372 E5.97266
G1 X75.205 Y206.714 E5.99356
G1 X74.507 Y206.036 E6.01298
G1 X73.871 Y205.299 E6.03241
G1 X73.301 Y204.509 E6.05185
G1 X72.839 Y203.733 E6.06987
G1 X72.385 Y202.791 E6.09074
G1 X72.056 Y201.913 E6.10945
G1 X71.787 Y200.94 E6.1296
G1 X71.612 Y199.983 E6.14901
G1 X71.522 Y199.028 E6.16815
G1 X71.509 Y198.486 E6.17897
G1 X71.512 Y197.717 E6.19432
G1 X71.543 Y196.668 E6.21526
G1 X71.602 Y195.513 E6.23834
G1 X71.675 Y194.556 E6.25749
G1 X71.811 Y193.194 E6.28481
G1 X71.942 Y192.181 E6.30519
G1 X72.105 Y191.102 E6.32697
G1 X72.32 Y189.884 E6.35165
G1 X72.511 Y188.939 E6.37089
G1 X72.799 Y187.663 E6.397
G1 X73.063 Y186.632 E6.41824
G1 X73.358 Y185.577 E6.4401
G1 X73.682 Y184.518 E6.4622
G1 X73.986 Y183.6 E6.48149
G1 X74.436 Y182.341 E6.50818
G1 X74.842 Y181.3 E6.53047
G1 X75.281 Y180.252 E6.55315
G1 X75.739 Y179.227 E6.57555
G1 X76.229 Y178.199 E6.59828
G1 X76.733 Y177.205 E6.62052
G1 X77.284 Y176.179 E6.64376
G1 X77.671 Y175.494 E6.65946
G1 X78.432 Y174.226 E6.68897
G1 X78.898 Y173.491 E6.70634
G1 X79.661 Y172.35 E6.73373
G1 X80.136 Y171.678 E6.75015
G1 X80.985 Y170.532 E6.77862
G1 X81.681 Y169.646 E6.8011
G1 X82.401 Y168.775 E6.82365
G1 X82.831 Y168.275 E6.83681
G1 X84.528 Y166.25 E6.88954
G1 X86.096 Y164.268 E6.93997
G1 X87.597 Y162.255 E6.99008
G1 X89.027 Y160.219 E7.03973
G1 X90.409 Y158.13 E7.08972
G1 X91.77 Y155.94 E7.14117
G1 X93.026 Y153.783 E7.19098
G1 X94.214 Y151.606 E7.24048
G1 X95.376 Y149.325 E7.29156
G1 X96.447 Y147.066 E7.34145
G1 X97.444 Y144.799 E7.39088
G1 X98.414 Y142.413 E7.44228
G1 X99.292 Y140.067 E7.49226
G1 X100.095 Y137.724 E7.54169
G1 X100.853 Y135.286 E7.59264
G1 X101.539 Y132.838 E7.64338
G1 X102.141 Y130.421 E7.69308
G1 X102.683 Y127.962 E7.74333
G1 X103.156 Y125.477 E7.79381
G1 X103.553 Y123.019 E7.8435
G1 X103.887 Y120.485 E7.89451
G1 X104.144 Y118.017 E7.94403
G1 X104.334 Y115.497 E7.99446
G1 X104.449 Y112.998 E8.04438
G1 X104.5 Y109.953 E8.10516
G1 X104.501 Y37.519 E9.55065
G1 X104.513 Y36.806 E9.56488
G1 X104.572 Y35.833 E9.58434
G1 X104.713 Y34.9 E9.60317
G1 X105.035 Y33.643 E9.62906
G0 F6000 X105.416 Y33.766
G1 F1200 X105.515 Y33.459 E9.6355
G1 X105.843 Y32.58 E9.65422
G1 X106.246 Y31.732 E9.67296
G1 X106.704 Y30.954 E9.69098
G1 X107.27 Y30.161 E9.71042
G1 X107.882 Y29.451 E9.72912
G1 X108.555 Y28.796 E9.74787
G1 X109.283 Y28.204 E9.76659
G1 X110.06 Y27.678 E9.78532
G1 X110.797 Y27.265 E9.80218
G1 X111.211 Y27.055 E9.81144
G1 X112.033 Y26.681 E9.82946
G1 X112.952 Y26.358 E9.8489
G1 X113.862 Y26.128 E9.86763
G1 X114.789 Y25.98 E9.88637
G1 X115.682 Y25.915 E9.90423
G1 X116.33 Y25.9 E9.91717
G1 X118.456 Y25.901 E9.95959
G1 X119.317 Y25.915 E9.97678
G1 X120.254 Y25.972 E9.99551
G1 X121.181 Y26.113 E10.01422
G1 X122.094 Y26.334 E10.03297
G1 X122.983 Y26.636 E10.05171
G1 X123.841 Y27.014 E10.07042
G1 X124.633 Y27.449 E10.08845
G1 X125.441 Y27.993 E10.10789
G1 X126.17 Y28.583 E10.1266
G1 X126.82 Y29.211 E10.14464
G1 X127.723 Y30.298 E10.17284
G1 X128.084 Y30.798 E10.18515
G1 X128.599 Y31.583 E10.20388
G1 X129.043 Y32.411 E10.22263
G1 X129.41 Y33.274 E10.24135
G1 X129.701 Y34.165 E10.26005
G1 X129.906 Y35.045 E10.27809
G1 X130.04 Y36.008 E10.29749
G1 X130.086 Y36.822 E10.31376
G1 X130.099 Y37.613 E10.32955
G1 X130.1 Y110.001 E11.77413
G1 X130.137 Y112.59 E11.8258
G1 X130.246 Y115.156 E11.87705
G1 X130.422 Y117.641 E11.92677
G1 X130.669 Y120.138 E11.97684
G1 X130.997 Y122.701 E12.0284
G1 X131.384 Y125.164 E12.07816
G1 X131.847 Y127.657 E12.12876
G1 X132.372 Y130.106 E12.17874
G1 X132.974 Y132.551 E12.22899
G1 X133.663 Y135.06 E12.28092
G1 X134.383 Y137.41 E12.32997
G1 X135.208 Y139.855 E12.38146
G1 X136.078 Y142.214 E12.43164
G1 X137.015 Y144.548 E12.48183
G1 X138.03 Y146.882 E12.53262
G1 X139.091 Y149.145 E12.5825
G1 X140.23 Y151.406 E12.63302
G1 X141.451 Y153.67 E12.68435
G1 X142.695 Y155.825 E12.73401
G1 X144.03 Y157.994 E12.78483
G1 X145.402 Y160.09 E12.83483
G1 X146.855 Y162.176 E12.88556
G1 X148.36 Y164.213 E12.9361
G1 X149.927 Y166.215 E12.98684
G1 X151.832 Y168.498 E13.04617
G1 X152.459 Y169.229 E13.06539
G1 X153.183 Y170.116 E13.08824
G1 X153.705 Y170.786 E13.10519
G1 X154.551 Y171.928 E13.13355
G1 X155.164 Y172.803 E13.15487
G1 X155.643 Y173.522 E13.17211
G1 X156.229 Y174.44 E13.19385
G1 X156.985 Y175.7 E13.22317
G1 X157.487 Y176.591 E13.24358
G1 X157.919 Y177.4 E13.26188
G1 X158.526 Y178.608 E13.28886
G1 X159.014 Y179.648 E13.31179
G1 X159.456 Y180.652 E13.33368
G1 X159.794 Y181.469 E13.35132
G1 X160.283 Y182.735 E13.37841
G1 X160.638 Y183.738 E13.39964
G1 X161.022 Y184.908 E13.42421
G1 X161.331 Y185.94 E13.44571
G1 X161.62 Y186.999 E13.46762
G1 X161.877 Y188.039 E13.489
G1 X162.098 Y189.026 E13.50918
G1 X162.335 Y190.216 E13.53339
G1 X162.542 Y191.423 E13.55783
G1 X162.695 Y192.473 E13.57901
G1 X162.804 Y193.355 E13.59674
G1 X162.938 Y194.718 E13.62407
G1 X163.016 Y195.801 E13.64574
G1 X163.069 Y196.953 E13.66876
G1 X163.091 Y197.998 E13.68962
G1 X163.09 Y198.53 E13.70023
G1 X163.048 Y199.432 E13.71825
G1 X162.917 Y200.397 E13.73769
G1 X162.708 Y201.312 E13.75642
G1 X162.431 Y202.171 E13.77443
G1 X162.051 Y203.068 E13.79387
G1 X161.608 Y203.895 E13.81259
G1 X161.094 Y204.681 E13.83133
G1 X160.513 Y205.418 E13.85006
G1 X159.869 Y206.1 E13.86878
G1 X159.195 Y206.701 E13.8868
G1 X158.413 Y207.281 E13.90623
G1 X157.612 Y207.771 E13.92497
G1 X156.771 Y208.187 E13.94369
G1 X155.897 Y208.528 E13.96241
G1 X154.996 Y208.79 E13.98114
G1 X154.075 Y208.972 E13.99988
G1 X153.149 Y209.071 E14.01846
G1 X152.632 Y209.09 E14.02878
G1 X151.822 Y209.1 E14.04495
G1 X83.055 Y209.099 E15.41727
G1 X82.34 Y209.088 E15.43154
G1 X81.403 Y209.032 E15.45027
G1 X80.475 Y208.893 E15.469
G1 X79.562 Y208.672 E15.48774
G1 X78.706 Y208.384 E15.50577
G1 X77.814 Y207.994 E15.5252
G1 X76.993 Y207.541 E15.54391
G1 X76.242 Y207.039 E15.56193
G1 X75.483 Y206.427 E15.58139
G1 X74.809 Y205.774 E15.60012
G1 X74.195 Y205.065 E15.61884
G1 X73.645 Y204.304 E15.63757
G1 X73.183 Y203.528 E15.6556
G1 X72.76 Y202.651 E15.67503
G1 X72.431 Y201.773 E15.69374
G1 X72.18 Y200.868 E15.71248
G1 X72.01 Y199.945 E15.73121
G1 X71.922 Y199.018 E15.74979
G1 X71.909 Y198.488 E15.76037
G1 X71.912 Y197.729 E15.77552
G1 X71.942 Y196.689 E15.79628
G1 X72.001 Y195.543 E15.81918
G1 X72.073 Y194.596 E15.83814
G1 X72.208 Y193.245 E15.86523
G1 X72.337 Y192.241 E15.88543
G1 X72.499 Y191.171 E15.90703
G1 X72.712 Y189.963 E15.93151
G1 X72.901 Y189.027 E15.95056
G1 X73.187 Y187.762 E15.97644
G1 X73.448 Y186.74 E15.99749
G1 X73.741 Y185.694 E16.01917
G1 X74.062 Y184.644 E16.04108
G1 X74.363 Y183.735 E16.06019
G1 X74.809 Y182.486 E16.08666
G1 X75.211 Y181.454 E16.10876
G1 X75.646 Y180.415 E16.13124
G1 X76.1 Y179.399 E16.15344
G1 X76.586 Y178.38 E16.17597
G1 X77.085 Y177.394 E16.19803
G1 X77.632 Y176.376 E16.22109
G1 X78.014 Y175.7 E16.23659
G1 X78.77 Y174.44 E16.26591
G1 X79.231 Y173.713 E16.28309
G1 X79.988 Y172.581 E16.31026
G1 X80.457 Y171.916 E16.3265
G1 X81.3 Y170.779 E16.35475
G1 X81.989 Y169.901 E16.37702
G1 X82.704 Y169.036 E16.39942
G1 X83.138 Y168.532 E16.41269
G1 X84.835 Y166.507 E16.46542
G1 X86.41 Y164.516 E16.51608
G1 X87.918 Y162.494 E16.56641
G1 X89.361 Y160.44 E16.61651
G1 X90.743 Y158.351 E16.66649
G1 X92.11 Y156.151 E16.71818
G1 X93.372 Y153.984 E16.76823
G1 X94.565 Y151.798 E16.81792
G1 X95.732 Y149.506 E16.86925
G1 X96.813 Y147.227 E16.91959
G1 X97.815 Y144.95 E16.96923
G1 X98.785 Y142.564 E17.02063
G1 X99.667 Y140.207 E17.07085
G1 X100.477 Y137.843 E17.12072
G1 X101.235 Y135.405 E17.17167
G1 X101.924 Y132.946 E17.22263
G1 X102.532 Y130.507 E17.2728
G1 X103.074 Y128.048 E17.32305
G1 X103.549 Y125.552 E17.37375
G1 X103.948 Y123.083 E17.42366
G1 X104.284 Y120.537 E17.47491
G1 X104.542 Y118.058 E17.52465
G1 X104.733 Y115.527 E17.5753
G1 X104.849 Y113.016 E17.62546
G1 X104.9 Y109.96 E17.68646
G1 X104.901 Y37.525 E19.13198
G1 X104.912 Y36.83 E19.14585
G1 X104.968 Y35.892 E19.1646
G1 X105.101 Y34.999 E19.18262
G1 X105.416 Y33.766 E19.20801
G0 F6000 X105.797 Y33.888
G1 F1200 X105.89 Y33.598 E19.21409
G1 X106.204 Y32.751 E19.23212
G1 X106.591 Y31.935 E19.25014
G1 X107.049 Y31.157 E19.26816
G1 X107.574 Y30.422 E19.28618
G1 X108.162 Y29.737 E19.3042
G1 X108.808 Y29.106 E19.32222
G1 X109.508 Y28.535 E19.34025
G1 X110.255 Y28.027 E19.35827
G1 X110.978 Y27.622 E19.37481
G1 X111.377 Y27.419 E19.38375
G1 X112.199 Y27.045 E19.40177
G1 X113.051 Y26.746 E19.41979
G1 X113.926 Y26.523 E19.43781
G1 X114.818 Y26.379 E19.45584
G1 X115.691 Y26.315 E19.47331
G1 X116.33 Y26.3 E19.48606
G1 X118.45 Y26.301 E19.52837
G1 X119.293 Y26.314 E19.54519
G1 X120.195 Y26.368 E19.56323
G1 X121.088 Y26.502 E19.58125
G1 X121.966 Y26.713 E19.59927
G1 X122.822 Y27.002 E19.6173
G1 X123.648 Y27.365 E19.6353
G1 X124.44 Y27.8 E19.65333
G1 X125.19 Y28.304 E19.67137
G1 X125.892 Y28.871 E19.68937
G1 X126.542 Y29.499 E19.70741
G1 X127.399 Y30.533 E19.73421
G1 X127.75 Y31.018 E19.74616
G1 X128.247 Y31.772 E19.76418
G1 X128.675 Y32.568 E19.78222
G1 X129.03 Y33.398 E19.80023
G1 X129.311 Y34.256 E19.81825
G1 X129.516 Y35.136 E19.83628
G1 X129.641 Y36.03 E19.8543
G1 X129.686 Y36.829 E19.87027
G1 X129.699 Y37.613 E19.88591
G1 X129.7 Y110.001 E21.33049
G1 X129.737 Y112.607 E21.3825
G1 X129.846 Y115.173 E21.43376
G1 X130.024 Y117.68 E21.48391
G1 X130.272 Y120.189 E21.53423
G1 X130.6 Y122.752 E21.58579
G1 X130.991 Y125.237 E21.63599
G1 X131.456 Y127.741 E21.68682
G1 X131.984 Y130.202 E21.73705
G1 X132.588 Y132.657 E21.7875
G1 X133.278 Y135.166 E21.83943
G1 X134.004 Y137.538 E21.88893
G1 X134.829 Y139.983 E21.94043
G1 X135.707 Y142.363 E21.99105
G1 X136.648 Y144.708 E22.04148
G1 X137.663 Y147.042 E22.09227
G1 X138.734 Y149.325 E22.14259
G1 X139.878 Y151.596 E22.19334
G1 X141.099 Y153.86 E22.24467
G1 X142.354 Y156.035 E22.29478
G1 X143.695 Y158.213 E22.34582
G1 X145.074 Y160.319 E22.39606
G1 X146.533 Y162.414 E22.44701
G1 X148.045 Y164.46 E22.49778
G1 X149.612 Y166.462 E22.54851
G1 X151.528 Y168.758 E22.60819
G1 X152.149 Y169.482 E22.62722
G1 X152.868 Y170.362 E22.6499
G1 X153.384 Y171.024 E22.66665
G1 X154.223 Y172.157 E22.69479
G1 X154.831 Y173.025 E22.71593
G1 X155.306 Y173.737 E22.73301
G1 X155.886 Y174.646 E22.75453
G1 X156.636 Y175.896 E22.78362
G1 X157.134 Y176.78 E22.80387
G1 X157.562 Y177.58 E22.82198
G1 X158.164 Y178.778 E22.84873
G1 X158.648 Y179.809 E22.87146
G1 X159.086 Y180.805 E22.89318
G1 X159.421 Y181.613 E22.91063
G1 X159.906 Y182.869 E22.9375
G1 X160.258 Y183.863 E22.95854
G1 X160.639 Y185.023 E22.98291
G1 X160.945 Y186.046 E23.00422
G1 X161.232 Y187.095 E23.02592
G1 X161.487 Y188.126 E23.04712
G1 X161.706 Y189.104 E23.06712
G1 X161.941 Y190.283 E23.09111
G1 X162.146 Y191.481 E23.11536
G1 X162.298 Y192.522 E23.13636
G1 X162.406 Y193.394 E23.15389
G1 X162.539 Y194.747 E23.18102
G1 X162.616 Y195.82 E23.20249
G1 X162.669 Y196.961 E23.22528
G1 X162.691 Y197.997 E23.24596
G1 X162.69 Y198.511 E23.25622
G1 X162.648 Y199.413 E23.27424
G1 X162.527 Y200.308 E23.29226
G1 X162.327 Y201.189 E23.31029
G1 X162.05 Y202.048 E23.3283
G1 X161.698 Y202.88 E23.34633
G1 X161.273 Y203.677 E23.36436
G1 X160.78 Y204.434 E23.38239
G1 X160.222 Y205.144 E23.40041
G1 X159.603 Y205.801 E23.41842
G1 X158.929 Y206.402 E23.43644
G1 X158.204 Y206.94 E23.45446
G1 X157.434 Y207.413 E23.47249
G1 X156.625 Y207.815 E23.49052
G1 X155.785 Y208.144 E23.50852
G1 X154.918 Y208.398 E23.52655
G1 X154.032 Y208.574 E23.54458
G1 X153.134 Y208.671 E23.5626
G1 X152.627 Y208.69 E23.57273
G1 X151.822 Y208.7 E23.58879
G1 X83.061 Y208.699 E24.96099
G1 X82.363 Y208.689 E24.97492
G1 X81.461 Y208.636 E24.99296
G1 X80.568 Y208.504 E25.01097
G1 X79.69 Y208.293 E25.02899
G1 X78.834 Y208.005 E25.04701
G1 X78.007 Y207.643 E25.06503
G1 X77.215 Y207.208 E25.08306
