;FLAVOR:Marlin
;TIME:7985
;Filament used: 1.30841m
;Layer height: 0.12
;MINX:85.7
;MINY:85.7
;MINZ:0.12
;MAXX:149.3
;MAXY:149.3
;MAXZ:3.96
;Generated with Cura_SteamEngine 5.4.0
M140 S50
M105
M190 S50
M104 S200
M105
M109 S200
M82 ;absolute extrusion mode
; Ender 3 Custom Start G-code
G92 E0 ; Reset Extruder
G28 ; Home all axes
G1 Z2.0 F3000 ; Move Z Axis up little to prevent scratching of Heat Bed
G1 X0.1 Y20 Z0.3 F5000.0 ; Move to start position
G1 X0.1 Y200.0 Z0.3 F1500.0 E15 ; Draw the first line
G1 X0.4 Y200.0 Z0.3 F5000.0 ; Move to side a little
G1 X0.4 Y20 Z0.3 F1500.0 E30 ; Draw the second line
G92 E0 ; Reset Extruder
G1 Z2.0 F3000 ; Move Z Axis up little to prevent scratching of Heat Bed
G1 X5 Y20 Z0.3 F5000.0 ; Move over to prevent blob squish
G92 E0
G92 E0
G1 F2700 E-5
;LAYER_COUNT:33
;LAYER:0
M107
;MESH:web.stl
G0 F6000 X100.399 Y104.966 Z0.12
;TYPE:WALL-INNER
G1 F2700 E0
G1 F600 X100.648 Y104.971 E0.00497
G1 F446.1 X101.001 Y105.015 E0.01452
G1 F356.1 X101.068 Y105.082 E0.0177
G1 F2700 E-4.9823
G0 F6000 X101.39 Y105.353
G0 X101.678 Y108.467
G0 X116.106 Y145.866
G0 X117.144 Y146.406
G0 X117.165 Y145.851
G1 F2700 E0.0177
G1 F600 X117.005 Y146.057 E0.02291
G1 X116.772 Y146.091 E0.02761
G1 X115.412 Y146.024 E0.05478
G1 X114.689 Y145.962 E0.06926
G1 X113.993 Y145.884 E0.08324
G1 X113.324 Y145.794 E0.09671
G1 X112.689 Y145.696 E0.10953
G1 X111.915 Y145.551 E0.12525
G1 X111.242 Y145.408 E0.13898
G1 X110.56 Y145.246 E0.15297
G1 X109.925 Y145.08 E0.16606
G1 X109.736 Y144.986 E0.17028
G1 X109.641 Y144.739 E0.17556
G1 X109.429 Y144.896 E0.18082
G1 X109.215 Y144.874 E0.18512
G1 X108.531 Y144.659 E0.19942
G1 X107.322 Y144.232 E0.22501
G1 X106.553 Y143.922 E0.24156
G1 X105.899 Y143.643 E0.25575
G1 X105.258 Y143.349 E0.26982
G1 X104.631 Y143.04 E0.28377
G1 X104.032 Y142.73 E0.29723
G1 X103.287 Y142.317 E0.31423
G1 X103.124 Y142.177 E0.31852
G1 X103.093 Y141.915 E0.32378
G1 X102.849 Y142.015 E0.32904
G1 X102.666 Y141.951 E0.33291
G1 X101.608 Y141.278 E0.35794
G1 X101.027 Y140.879 E0.372
G1 X100.469 Y140.478 E0.38571
G1 X99.906 Y140.048 E0.39985
G1 X99.342 Y139.596 E0.41427
G1 X99.203 Y139.429 E0.41861
G1 X99.216 Y139.164 E0.42391
G1 X98.958 Y139.222 E0.42918
G1 X98.781 Y139.122 E0.43324
G1 X98.285 Y138.684 E0.44644
G1 X97.288 Y137.736 E0.4739
G1 X96.779 Y137.213 E0.48846
G1 X96.301 Y136.699 E0.50247
G1 X95.835 Y136.173 E0.51649
G1 X95.384 Y135.636 E0.53049
G1 X94.946 Y135.088 E0.54449
G1 X94.519 Y134.526 E0.55857
G1 X94.222 Y134.112 E0.56874
G1 X94.175 Y133.978 E0.57158
G1 X94.256 Y133.725 E0.57688
G1 X93.991 Y133.716 E0.58217
G1 X93.83 Y133.551 E0.58677
G1 X93.331 Y132.792 E0.6049
G1 X92.962 Y132.194 E0.61892
G1 X92.609 Y131.588 E0.63291
G1 X92.196 Y130.83 E0.65014
G1 X92.127 Y130.611 E0.65472
G1 X92.242 Y130.373 E0.66
G1 X91.982 Y130.326 E0.66527
G1 X91.845 Y130.14 E0.66988
G1 X91.348 Y129.079 E0.69326
G1 X91.072 Y128.435 E0.70724
G1 X90.811 Y127.781 E0.7213
G1 X90.572 Y127.134 E0.73506
G1 X90.338 Y126.46 E0.7493
G1 X90.128 Y125.793 E0.76325
G1 X89.932 Y125.117 E0.7773
G1 X89.754 Y124.439 E0.79129
G1 X89.591 Y123.754 E0.80534
G1 X89.431 Y122.985 E0.82101
G1 X89.431 Y122.769 E0.82532
G1 X89.61 Y122.574 E0.83061
G1 X89.373 Y122.455 E0.8359
G1 X89.307 Y122.293 E0.83939
G1 X89.204 Y121.663 E0.85213
G1 X89.113 Y120.991 E0.86566
G1 X89.034 Y120.27 E0.88014
G1 X88.975 Y119.59 E0.89376
G1 X88.926 Y118.706 E0.91143
G1 X88.908 Y118.191 E0.92171
G1 X88.9 Y117.497 E0.93556
G1 X88.911 Y116.976 E0.94596
G1 X88.948 Y116.841 E0.94875
G1 X89.183 Y116.689 E0.95434
G1 X88.957 Y116.523 E0.95993
G1 X88.926 Y116.297 E0.96449
G1 X88.984 Y115.243 E0.98555
G1 X89.115 Y113.995 E1.01059
G1 X89.21 Y113.302 E1.02455
G1 X89.322 Y112.598 E1.03878
G1 X89.449 Y111.918 E1.05258
G1 X89.595 Y111.229 E1.06664
G1 X89.757 Y110.548 E1.08061
G1 X89.936 Y109.869 E1.09462
G1 X90.143 Y109.153 E1.10949
G1 X90.38 Y108.421 E1.12485
G1 X90.486 Y108.233 E1.12916
G1 X90.756 Y108.158 E1.13475
G1 X90.592 Y107.931 E1.14034
G1 X90.612 Y107.762 E1.14373
G1 X90.845 Y107.125 E1.15727
G1 X91.354 Y105.905 E1.18365
G1 X91.634 Y105.294 E1.19706
G1 X91.955 Y104.639 E1.21162
G1 X92.429 Y103.717 E1.23231
G1 X92.58 Y103.532 E1.23707
G1 X92.856 Y103.509 E1.2426
G1 X92.743 Y103.256 E1.24813
G1 X92.781 Y103.116 E1.25102
G1 X93.343 Y102.186 E1.27271
G1 X93.722 Y101.607 E1.28652
G1 X94.119 Y101.028 E1.30053
G1 X94.529 Y100.46 E1.31451
G1 X94.954 Y99.902 E1.32851
G1 X95.394 Y99.352 E1.34256
G1 X95.845 Y98.816 E1.35654
G1 X96.311 Y98.29 E1.37056
G1 X96.684 Y97.889 E1.38149
G1 X97.378 Y97.175 E1.40136
G1 X97.559 Y97.054 E1.40571
G1 X97.833 Y97.109 E1.41129
G1 X97.789 Y96.833 E1.41686
G1 X97.876 Y96.7 E1.42003
G1 X98.272 Y96.326 E1.4309
G1 X98.794 Y95.863 E1.44483
G1 X99.352 Y95.393 E1.45939
G1 X99.91 Y94.948 E1.47363
G1 X100.4 Y94.572 E1.48596
G1 X101.041 Y94.11 E1.50173
G1 X101.608 Y93.721 E1.51545
G1 X102.202 Y93.336 E1.52957
G1 X102.799 Y92.968 E1.54357
G1 X103.411 Y92.611 E1.55771
G1 X104.419 Y92.054 E1.58069
G1 X104.645 Y91.987 E1.58539
G1 X104.887 Y92.122 E1.59092
G1 X104.935 Y91.849 E1.59646
G1 X105.102 Y91.728 E1.60057
G1 X105.909 Y91.352 E1.61834
G1 X106.538 Y91.084 E1.63198
G1 X107.202 Y90.817 E1.64626
G1 X107.882 Y90.566 E1.66073
G1 X108.415 Y90.382 E1.67198
G1 X108.559 Y90.377 E1.67486
G1 X108.78 Y90.547 E1.68042
G1 X108.861 Y90.278 E1.68603
G1 X109.052 Y90.177 E1.69034
G1 X109.853 Y89.94 E1.70701
G1 X110.534 Y89.761 E1.72106
G1 X111.216 Y89.598 E1.73505
G1 X111.921 Y89.45 E1.74943
G1 X112.608 Y89.321 E1.76338
G1 X113.3 Y89.211 E1.77736
G1 X114.126 Y89.1 E1.79399
G1 X114.342 Y89.115 E1.79832
G1 X114.524 Y89.328 E1.80391
G1 X114.658 Y89.082 E1.8095
G1 X114.818 Y89.029 E1.81286
G1 X115.224 Y88.991 E1.821
G1 X116.251 Y88.929 E1.84153
G1 X116.808 Y88.909 E1.85265
G1 X117.506 Y88.899 E1.86658
G1 X118.202 Y88.908 E1.88047
G1 X118.718 Y88.927 E1.89078
G1 X119.588 Y88.976 E1.90817
G1 X120.294 Y89.037 E1.92231
G1 X121.006 Y89.116 E1.93661
G1 X121.68 Y89.207 E1.95018
G1 X122.473 Y89.334 E1.9662
G1 X122.604 Y89.399 E1.96912
G1 X122.719 Y89.654 E1.97471
G1 X122.917 Y89.458 E1.98027
G1 X123.145 Y89.462 E1.98482
G1 X123.741 Y89.588 E1.99697
G1 X124.424 Y89.749 E2.01098
G1 X125.111 Y89.931 E2.02516
G1 X125.803 Y90.131 E2.03953
G1 X126.467 Y90.341 E2.05343
G1 X127.142 Y90.576 E2.06769
G1 X127.776 Y90.81 E2.08118
G1 X128.374 Y91.046 E2.09401
G1 X128.56 Y91.168 E2.09845
G1 X128.618 Y91.441 E2.10402
G1 X128.854 Y91.293 E2.10958
G1 X129.063 Y91.341 E2.11386
G1 X129.742 Y91.651 E2.12875
G1 X130.364 Y91.956 E2.14258
G1 X130.958 Y92.261 E2.1559
G1 X131.571 Y92.601 E2.16989
G1 X132.304 Y93.029 E2.18683
G1 X132.464 Y93.174 E2.19114
G1 X132.478 Y93.453 E2.19671
G1 X132.735 Y93.343 E2.20229
G1 X132.896 Y93.401 E2.20571
G1 X133.39 Y93.721 E2.21745
G1 X133.971 Y94.119 E2.23151
G1 X134.524 Y94.516 E2.24509
G1 X135.4 Y95.196 E2.26722
G1 X135.545 Y95.364 E2.27165
G1 X135.52 Y95.644 E2.27726
G1 X135.791 Y95.567 E2.28288
G1 X135.98 Y95.674 E2.28722
G1 X136.691 Y96.293 E2.30603
G1 X137.21 Y96.773 E2.32014
G1 X137.712 Y97.265 E2.33417
G1 X138.206 Y97.77 E2.34826
G1 X138.7 Y98.3 E2.36272
G1 X139.432 Y99.144 E2.38502
G1 X139.494 Y99.282 E2.38804
G1 X139.418 Y99.551 E2.39362
G1 X139.696 Y99.529 E2.39918
G1 X139.863 Y99.672 E2.40357
G1 X140.465 Y100.451 E2.42321
G1 X140.885 Y101.034 E2.43755
G1 X141.282 Y101.613 E2.45156
G1 X141.668 Y102.208 E2.46572
G1 X142.033 Y102.798 E2.47956
G1 X142.387 Y103.405 E2.49359
G1 X142.731 Y104.029 E2.5078
G1 X143.048 Y104.644 E2.52161
G1 X143.357 Y105.277 E2.53567
G1 X143.775 Y106.208 E2.55604
G1 X143.824 Y106.425 E2.56047
G1 X143.675 Y106.661 E2.56604
G1 X143.947 Y106.72 E2.5716
G1 X144.065 Y106.907 E2.57601
G1 X144.428 Y107.866 E2.59647
G1 X144.659 Y108.531 E2.61052
G1 X144.87 Y109.2 E2.62452
G1 X145.064 Y109.868 E2.6384
G1 X145.244 Y110.553 E2.65254
G1 X145.407 Y111.236 E2.66655
G1 X145.551 Y111.917 E2.68044
G1 X145.655 Y112.475 E2.69177
G1 X145.639 Y112.614 E2.69456
G1 X145.438 Y112.809 E2.70015
G1 X145.692 Y112.928 E2.70575
G1 X145.764 Y113.131 E2.71004
G1 X145.885 Y113.987 E2.7273
G1 X145.965 Y114.721 E2.74203
G1 X146.025 Y115.41 E2.75583
G1 X146.074 Y116.294 E2.7735
G1 X146.092 Y116.802 E2.78365
G1 X146.101 Y117.503 E2.79764
G1 X146.092 Y118.207 E2.81169
G1 X146.072 Y118.739 E2.82231
G1 X146.016 Y119.758 E2.84268
G1 X145.885 Y121.006 E2.86772
G1 X145.791 Y121.698 E2.88165
G1 X145.68 Y122.396 E2.89576
G1 X145.511 Y123.278 E2.91368
G1 X145.441 Y123.408 E2.91663
G1 X145.202 Y123.519 E2.92189
G1 X145.373 Y123.72 E2.92715
G1 X145.368 Y123.92 E2.93114
G1 X145.25 Y124.422 E2.94144
G1 X145.064 Y125.132 E2.95608
G1 X144.868 Y125.806 E2.97009
G1 X144.657 Y126.476 E2.98411
G1 X144.425 Y127.146 E2.99826
G1 X144.184 Y127.796 E3.01209
G1 X143.923 Y128.447 E3.02609
G1 X143.646 Y129.094 E3.04013
G1 X143.353 Y129.734 E3.05418
G1 X143.045 Y130.361 E3.06812
G1 X142.699 Y131.028 E3.08312
G1 X142.598 Y131.132 E3.08601
G1 X142.338 Y131.171 E3.09126
G1 X142.444 Y131.412 E3.09651
G1 X142.393 Y131.582 E3.10005
G1 X142.045 Y132.181 E3.11388
G1 X141.661 Y132.803 E3.12846
G1 X141.278 Y133.393 E3.1425
G1 X140.881 Y133.972 E3.15651
G1 X140.518 Y134.47 E3.16881
G1 X140.382 Y134.589 E3.17242
G1 X140.116 Y134.59 E3.17772
G1 X140.189 Y134.845 E3.18302
G1 X140.092 Y135.039 E3.18735
G1 X139.607 Y135.646 E3.20285
G1 X139.155 Y136.184 E3.21687
G1 X138.685 Y136.715 E3.23102
G1 X137.733 Y137.718 E3.25862
G1 X137.219 Y138.217 E3.27292
G1 X136.716 Y138.686 E3.28664
G1 X135.956 Y139.35 E3.30678
G1 X135.818 Y139.412 E3.3098
G1 X135.56 Y139.351 E3.31509
G1 X135.572 Y139.615 E3.32036
G1 X135.427 Y139.785 E3.32482
G1 X134.563 Y140.455 E3.34664
G1 X133.959 Y140.89 E3.3615
G1 X133.392 Y141.279 E3.37522
G1 X132.799 Y141.663 E3.38932
G1 X132.2 Y142.032 E3.40336
G1 X131.593 Y142.386 E3.41738
G1 X130.977 Y142.725 E3.43141
G1 X130.368 Y143.041 E3.4451
G1 X129.725 Y143.356 E3.45939
G1 X129.086 Y143.649 E3.47342
G1 X128.395 Y143.945 E3.48842
G1 X128.251 Y143.96 E3.49131
G1 X128.024 Y143.824 E3.49659
G1 X127.954 Y144.08 E3.50189
G1 X127.77 Y144.194 E3.50621
G1 X127.151 Y144.422 E3.51937
G1 X126.487 Y144.653 E3.5334
G1 X125.788 Y144.872 E3.54802
G1 X125.162 Y145.055 E3.56104
G1 X124.171 Y145.31 E3.58146
G1 X124.017 Y145.304 E3.58453
G1 X123.815 Y145.135 E3.58979
G1 X123.706 Y145.376 E3.59507
G1 X123.5 Y145.462 E3.59952
G1 X122.409 Y145.675 E3.6217
G1 X121.695 Y145.79 E3.63614
G1 X121.016 Y145.883 E3.64981
G1 X120.298 Y145.962 E3.66423
G1 X119.613 Y146.022 E3.67795
G1 X118.921 Y146.065 E3.69179
G1 X118.192 Y146.091 E3.70634
G1 X117.519 Y146.1 E3.71978
G1 X117.322 Y146.061 E3.72378
G1 X117.165 Y145.851 E3.72902
G0 F6000 X117.144 Y146.406
G0 X116.735 Y147.291
G1 F601.5 X115.308 Y147.218 E3.75746
G1 F603 X114.557 Y147.154 E3.77242
G1 F601.5 X113.894 Y147.081 E3.7857
G1 F603 X113.141 Y146.979 E3.80079
G1 F604.5 X112.469 Y146.874 E3.81426
G1 F603 X111.666 Y146.724 E3.83048
G1 X110.966 Y146.575 E3.84469
G1 X110.28 Y146.412 E3.85869
G1 F600 X109.588 Y146.233 E3.87296
G1 F586.8 X109.28 Y146.119 E3.87966
G1 X108.878 Y146.026 E3.88808
G1 F600 X108.132 Y145.79 E3.90369
G1 F601.5 X106.927 Y145.365 E3.92913
G1 X105.981 Y144.983 E3.94944
G1 X105.4 Y144.734 E3.96202
G1 X104.729 Y144.425 E3.97673
G1 X104.079 Y144.106 E3.99114
G1 F600 X103.45 Y143.78 E4.00528
G1 F598.5 X102.683 Y143.355 E4.02282
G1 F591.1 X102.39 Y143.151 E4.03005
G1 X102.091 Y143.006 E4.03678
G1 F598.5 X100.973 Y142.298 E4.06326
G1 F600 X100.325 Y141.853 E4.07894
G1 X99.729 Y141.422 E4.09362
G1 F601.5 X99.155 Y140.984 E4.10799
G1 X98.574 Y140.519 E4.12281
G1 F588.2 X98.325 Y140.279 E4.12985
G1 F586.8 X98.021 Y140.051 E4.1376
G1 F600 X97.458 Y139.554 E4.15259
G1 F601.5 X96.458 Y138.603 E4.18006
G1 F600 X95.9 Y138.031 E4.19601
G1 F601.5 X95.403 Y137.495 E4.21056
G1 X94.918 Y136.946 E4.22514
G1 X94.448 Y136.386 E4.23969
G1 X94.004 Y135.832 E4.25382
G1 X93.544 Y135.225 E4.26899
G1 F598.5 X93.191 Y134.733 E4.2811
G1 F585.4 X93.04 Y134.487 E4.287
G1 F588.2 X92.847 Y134.24 E4.29338
G1 F600 X92.311 Y133.423 E4.31288
G1 F601.5 X91.924 Y132.797 E4.32753
G1 X91.556 Y132.162 E4.34214
G1 X91.128 Y131.376 E4.35996
G1 F586.8 X90.988 Y131.054 E4.36712
G1 F574.2 X90.98 Y131.016 E4.36793
G1 F586.8 X90.769 Y130.672 E4.37617
G1 F600 X90.263 Y129.594 E4.39993
G1 F598.5 X90.006 Y128.998 E4.41292
G1 F600 X89.686 Y128.197 E4.43013
G1 F601.5 X89.441 Y127.538 E4.44413
G1 X89.194 Y126.82 E4.45924
G1 X88.976 Y126.128 E4.47368
G1 F600 X88.771 Y125.422 E4.48835
G1 F601.5 X88.587 Y124.716 E4.50288
G1 F603 X88.416 Y123.998 E4.51753
G1 F600 X88.251 Y123.204 E4.53372
G1 F592.6 X88.206 Y122.807 E4.54179
G1 F591.1 X88.141 Y122.582 E4.54653
G1 F598.5 X88.016 Y121.824 E4.5619
G1 F603 X87.923 Y121.144 E4.57553
G1 F601.5 X87.843 Y120.42 E4.59003
G1 X87.778 Y119.657 E4.60527
G1 F603 X87.727 Y118.749 E4.62333
G1 F601.5 X87.709 Y118.205 E4.63417
G1 X87.7 Y117.483 E4.64854
G1 X87.706 Y117.046 E4.65724
G1 F589.7 X87.734 Y116.575 E4.66682
G1 F588.2 X87.726 Y116.262 E4.67319
G1 F603 X87.79 Y115.146 E4.69539
G1 X87.92 Y113.876 E4.72074
G1 F600 X88.025 Y113.114 E4.73609
G1 F601.5 X88.143 Y112.377 E4.75095
G1 X88.275 Y111.67 E4.76526
G1 X88.428 Y110.952 E4.77988
G1 F604.5 X88.598 Y110.243 E4.79432
G1 F603 X88.783 Y109.535 E4.80885
G1 F601.5 X89.002 Y108.784 E4.82442
G1 X89.245 Y108.031 E4.84017
G1 F586.8 X89.378 Y107.716 E4.84715
G1 F583.9 X89.452 Y107.449 E4.85283
G1 F598.5 X89.713 Y106.727 E4.86819
G1 F603 X90.009 Y105.999 E4.88379
G1 F601.5 X90.263 Y105.406 E4.89664
G1 X90.561 Y104.758 E4.91083
G1 F600 X90.887 Y104.09 E4.92567
G1 F604.5 X91.371 Y103.156 E4.9465
G1 F600 X91.509 Y102.928 E4.95182
G1 F585.4 X91.633 Y102.745 E4.95634
G1 F588.2 X91.78 Y102.452 E4.96302
G1 F600 X92.313 Y101.57 E4.98358
G1 F601.5 X92.732 Y100.929 E4.99882
G1 X93.146 Y100.327 E5.01337
G1 X93.566 Y99.745 E5.02766
G1 X94.016 Y99.154 E5.04244
G1 X94.476 Y98.579 E5.0571
G1 X94.946 Y98.02 E5.07164
G1 F600 X95.433 Y97.472 E5.08627
G1 X95.823 Y97.053 E5.09769
G1 X96.539 Y96.317 E5.11818
G1 F588.2 X96.804 Y96.093 E5.12525
G1 F583.9 X96.968 Y95.912 E5.13025
G1 F597 X97.497 Y95.41 E5.14488
G1 F601.5 X98.051 Y94.92 E5.1596
G1 F603 X98.605 Y94.455 E5.17397
G1 X99.179 Y93.997 E5.18855
G1 X99.699 Y93.599 E5.20155
G1 X100.362 Y93.121 E5.21778
G1 F601.5 X100.955 Y92.713 E5.23211
G1 F600 X101.573 Y92.314 E5.24679
G1 F601.5 X102.194 Y91.933 E5.26129
G1 X102.831 Y91.561 E5.27597
G1 X103.97 Y90.935 E5.30185
G1 F589.7 X104.272 Y90.832 E5.30832
G1 F578.3 X104.302 Y90.806 E5.30915
G1 F588.2 X104.575 Y90.65 E5.31555
G1 F600 X105.384 Y90.272 E5.33337
G1 X106.09 Y89.97 E5.34869
G1 F601.5 X106.784 Y89.693 E5.36357
G1 X107.49 Y89.432 E5.37855
G1 F598.5 X108.1 Y89.222 E5.39146
G1 F586.8 X108.398 Y89.146 E5.39773
G1 F588.2 X108.689 Y89.033 E5.40408
G1 F600 X109.493 Y88.794 E5.42082
G1 F601.5 X110.257 Y88.594 E5.43654
G1 X110.966 Y88.424 E5.45106
G1 F600 X111.69 Y88.271 E5.46583
G1 F601.5 X112.419 Y88.136 E5.48058
G1 X113.091 Y88.028 E5.49413
G1 F600 X113.994 Y87.907 E5.51231
G1 F588.2 X114.336 Y87.894 E5.51928
G1 F585.4 X114.603 Y87.847 E5.52483
G1 F600 X115.151 Y87.795 E5.53581
G1 F603 X116.205 Y87.73 E5.55678
G1 F601.5 X116.727 Y87.71 E5.56718
G1 X117.52 Y87.7 E5.58296
G1 X118.246 Y87.709 E5.59742
G1 X118.978 Y87.738 E5.612
G1 F603 X119.692 Y87.782 E5.6262
G1 F604.5 X120.426 Y87.844 E5.64079
G1 F601.5 X121.107 Y87.919 E5.65443
G1 X121.87 Y88.023 E5.66976
G1 F603 X122.622 Y88.143 E5.68488
G1 F592.6 X122.927 Y88.217 E5.69122
G1 F585.4 X122.963 Y88.234 E5.69204
G1 F594.1 X123.319 Y88.274 E5.69926
G1 F601.5 X124.141 Y88.449 E5.71599
G1 X125.403 Y88.765 E5.74188
G1 X126.163 Y88.986 E5.75764
G1 X126.861 Y89.207 E5.77221
G1 X128.177 Y89.677 E5.80003
G1 F603 X128.825 Y89.934 E5.81387
G1 F598.5 X129.159 Y90.107 E5.8214
G1 F597 X129.537 Y90.238 E5.82942
G1 F603 X130.224 Y90.552 E5.84442
G1 F601.5 X130.914 Y90.889 E5.85971
G1 F603 X131.515 Y91.199 E5.87313
G1 X132.208 Y91.584 E5.88888
G1 F601.5 X132.933 Y92.006 E5.90557
G1 F592.6 X133.188 Y92.187 E5.91189
G1 F588.2 X133.461 Y92.34 E5.91826
G1 F598.5 X134.069 Y92.731 E5.93272
G1 F600 X134.671 Y93.145 E5.94731
G1 F601.5 X135.25 Y93.561 E5.9615
G1 F603 X136.151 Y94.261 E5.98415
G1 F589.7 X136.412 Y94.499 E5.99132
