;FLAVOR:Marlin
;TIME:1118
;Filament used: 0.870245m
;Layer height: 0.28
;MINX:96.5
;MINY:90.5
;MINZ:0.28
;MAXX:138.5
;MAXY:144.5
;MAXZ:12.04
;Generated with Cura_SteamEngine 5.4.0
M140 S50
M105
M190 S50
M104 S200
M105
M109 S200
M82 ;absolute extrusion mode
; Ender 3 Custom Start G-code
G92 E0 ; Reset Extruder
G28 ; Home all axes
G1 Z2.0 F3000 ; Move Z Axis up little to prevent scratching of Heat Bed
G1 X0.1 Y20 Z0.3 F5000.0 ; Move to start position
G1 X0.1 Y200.0 Z0.3 F1500.0 E15 ; Draw the first line
G1 X0.4 Y200.0 Z0.3 F5000.0 ; Move to side a little
G1 X0.4 Y20 Z0.3 F1500.0 E30 ; Draw the second line
G92 E0 ; Reset Extruder
G1 Z2.0 F3000 ; Move Z Axis up little to prevent scratching of Heat Bed
G1 X5 Y20 Z0.3 F5000.0 ; Move over to prevent blob squish
G92 E0
G92 E0
G1 F2700 E-5
;LAYER_COUNT:43
;LAYER:0
M107
G0 F6000 X99.231 Y94.265 Z0.28
;TYPE:SKIRT
G1 F2700 E0
G1 F1200 X99.956 Y93.513 E0.04864
G1 X100.692 Y92.876 E0.09396
G1 X101.424 Y92.346 E0.13605
G1 X102.321 Y91.811 E0.18468
G1 X103.199 Y91.39 E0.23002
G1 X104.112 Y91.048 E0.27542
G1 X105.049 Y90.789 E0.32068
G1 X106.016 Y90.611 E0.36647
G1 X107.155 Y90.515 E0.41969
G1 X107.812 Y90.5 E0.45029
G1 X126.804 Y90.5 E1.33464
G1 X127.684 Y90.513 E1.37562
G1 X128.656 Y90.572 E1.42096
G1 X129.619 Y90.718 E1.46632
G1 X130.566 Y90.949 E1.51171
G1 X131.454 Y91.249 E1.55535
G1 X132.346 Y91.639 E1.60068
G1 X133.229 Y92.126 E1.64764
G1 X133.98 Y92.628 E1.6897
G1 X134.795 Y93.286 E1.73848
G1 X135.493 Y93.964 E1.78379
G1 X136.129 Y94.701 E1.82912
G1 X136.699 Y95.491 E1.87448
G1 X137.161 Y96.267 E1.91653
G1 X137.615 Y97.209 E1.96522
G1 X137.944 Y98.087 E2.00888
G1 X138.213 Y99.059 E2.05584
G1 X138.39 Y100.025 E2.10157
G1 X138.485 Y101.155 E2.15438
G1 X138.5 Y101.83 E2.18582
G1 X138.499 Y132.9 E3.63256
G1 X138.488 Y133.663 E3.6681
G1 X138.431 Y134.636 E3.71348
G1 X138.286 Y135.599 E3.75883
G1 X138.057 Y136.545 E3.80415
G1 X137.746 Y137.469 E3.84955
G1 X137.354 Y138.36 E3.89487
G1 X136.886 Y139.212 E3.94014
G1 X136.364 Y139.993 E3.98388
G1 X135.731 Y140.778 E4.03084
G1 X135.106 Y141.429 E4.07286
G1 X134.317 Y142.117 E4.1216
G1 X133.557 Y142.667 E4.16529
G1 X132.69 Y143.184 E4.21229
G1 X131.812 Y143.606 E4.25765
G1 X130.901 Y143.948 E4.30296
G1 X129.962 Y144.209 E4.34834
G1 X128.996 Y144.387 E4.39408
G1 X127.845 Y144.485 E4.44787
G1 X127.17 Y144.5 E4.47931
G1 X108.049 Y144.499 E5.36966
G1 X107.316 Y144.487 E5.4038
G1 X106.344 Y144.428 E5.44914
G1 X105.381 Y144.282 E5.4945
G1 X104.434 Y144.051 E5.53989
G1 X103.546 Y143.751 E5.58353
G1 X102.654 Y143.361 E5.62886
G1 X101.771 Y142.874 E5.67582
G1 X101.02 Y142.372 E5.71788
G1 X100.205 Y141.714 E5.76665
G1 X99.507 Y141.036 E5.81197
G1 X98.871 Y140.299 E5.85729
G1 X98.301 Y139.509 E5.90266
G1 X97.839 Y138.733 E5.94471
G1 X97.385 Y137.791 E5.9934
G1 X97.056 Y136.913 E6.03706
G1 X96.787 Y135.94 E6.08407
G1 X96.61 Y134.973 E6.12984
G1 X96.514 Y133.808 E6.18427
G1 X96.5 Y133.158 E6.21455
G1 X96.501 Y102.025 E7.66423
G1 X96.512 Y101.325 E7.69683
G1 X96.57 Y100.352 E7.74222
G1 X96.716 Y99.389 E7.78757
G1 X96.946 Y98.443 E7.8329
G1 X97.259 Y97.52 E7.87829
G1 X97.651 Y96.63 E7.92357
G1 X98.121 Y95.777 E7.96892
G1 X98.664 Y94.969 E8.01425
G1 X99.231 Y94.265 E8.05634
G0 F6000 X99.543 Y94.516
G1 F1200 X100.218 Y93.815 E8.10166
G1 X100.927 Y93.2 E8.14536
G1 X101.659 Y92.67 E8.18744
G1 X102.495 Y92.171 E8.23278
G1 X103.34 Y91.764 E8.27645
G1 X104.219 Y91.433 E8.32018
G1 X105.122 Y91.182 E8.36383
G1 X106.05 Y91.01 E8.40777
G1 X107.189 Y90.914 E8.461
G1 X107.821 Y90.9 E8.49043
G1 X126.798 Y90.9 E9.37408
G1 X127.66 Y90.912 E9.41422
G1 X128.597 Y90.968 E9.45793
G1 X129.525 Y91.107 E9.50163
G1 X130.438 Y91.328 E9.54537
G1 X131.294 Y91.616 E9.58742
G1 X132.186 Y92.006 E9.63275
G1 X133.007 Y92.459 E9.67642
G1 X133.758 Y92.961 E9.71848
G1 X134.517 Y93.573 E9.76388
G1 X135.191 Y94.226 E9.80758
G1 X135.805 Y94.935 E9.85125
G1 X136.355 Y95.696 E9.89497
G1 X136.817 Y96.472 E9.93702
G1 X137.24 Y97.349 E9.98236
G1 X137.569 Y98.227 E10.02602
G1 X137.82 Y99.132 E10.06975
G1 X137.991 Y100.059 E10.11365
G1 X138.086 Y101.189 E10.16645
G1 X138.1 Y101.83 E10.1963
G1 X138.099 Y132.895 E11.64282
G1 X138.089 Y133.64 E11.67751
G1 X138.035 Y134.577 E11.72122
G1 X137.897 Y135.506 E11.76495
G1 X137.678 Y136.418 E11.80862
G1 X137.38 Y137.308 E11.85233
G1 X137.003 Y138.168 E11.89605
G1 X136.553 Y138.99 E11.93969
G1 X136.031 Y139.771 E11.98343
G1 X135.442 Y140.501 E12.02711
G1 X134.817 Y141.152 E12.06913
G1 X134.082 Y141.793 E12.11454
G1 X133.322 Y142.343 E12.15822
G1 X132.516 Y142.824 E12.20193
G1 X131.671 Y143.232 E12.24562
G1 X130.793 Y143.563 E12.28931
G1 X129.889 Y143.816 E12.33303
G1 X128.962 Y143.988 E12.37693
G1 X127.811 Y144.086 E12.43072
G1 X127.17 Y144.1 E12.46057
G1 X108.055 Y144.099 E13.35065
G1 X107.34 Y144.088 E13.38394
G1 X106.403 Y144.032 E13.42765
G1 X105.475 Y143.893 E13.47135
G1 X104.562 Y143.672 E13.51509
G1 X103.706 Y143.384 E13.55714
G1 X102.814 Y142.994 E13.60247
G1 X101.993 Y142.541 E13.64614
G1 X101.242 Y142.039 E13.6882
G1 X100.483 Y141.427 E13.7336
G1 X99.809 Y140.774 E13.7773
G1 X99.195 Y140.065 E13.82097
G1 X98.645 Y139.304 E13.86469
G1 X98.183 Y138.528 E13.90674
G1 X97.76 Y137.651 E13.95208
G1 X97.431 Y136.773 E13.99574
G1 X97.18 Y135.868 E14.03947
G1 X97.009 Y134.94 E14.08341
G1 X96.913 Y133.775 E14.13784
G1 X96.9 Y133.158 E14.16658
G1 X96.901 Y102.031 E15.61598
G1 X96.911 Y101.348 E15.64779
G1 X96.966 Y100.411 E15.6915
G1 X97.105 Y99.483 E15.73519
G1 X97.325 Y98.571 E15.77887
G1 X97.625 Y97.681 E15.82261
G1 X98.002 Y96.822 E15.86629
G1 X98.453 Y96 E15.90995
G1 X98.976 Y95.22 E15.95368
G1 X99.543 Y94.516 E15.99577
G0 F6000 X99.855 Y94.767
G1 F1200 X100.481 Y94.117 E16.03779
G1 X101.162 Y93.524 E16.07984
G1 X101.894 Y92.994 E16.12192
G1 X102.669 Y92.531 E16.16395
G1 X103.482 Y92.138 E16.206
G1 X104.327 Y91.818 E16.24807
G1 X105.196 Y91.575 E16.29009
G1 X106.084 Y91.409 E16.33216
G1 X107.223 Y91.313 E16.38538
G1 X107.83 Y91.3 E16.41365
G1 X126.793 Y91.3 E17.29665
G1 X127.637 Y91.311 E17.33595
G1 X128.539 Y91.364 E17.37803
G1 X129.432 Y91.496 E17.42006
G1 X130.31 Y91.707 E17.46211
G1 X131.166 Y91.995 E17.50416
G1 X131.993 Y92.357 E17.5462
G1 X132.785 Y92.792 E17.58827
G1 X133.536 Y93.294 E17.63034
G1 X134.239 Y93.861 E17.67239
G1 X134.889 Y94.488 E17.71444
G1 X135.481 Y95.17 E17.7565
G1 X136.011 Y95.901 E17.79854
G1 X136.473 Y96.677 E17.84059
G1 X136.866 Y97.49 E17.88264
G1 X137.184 Y98.335 E17.92468
G1 X137.427 Y99.205 E17.96674
G1 X137.592 Y100.093 E18.0088
G1 X137.687 Y101.223 E18.0616
G1 X137.7 Y101.83 E18.08987
G1 X137.699 Y132.89 E19.53616
G1 X137.69 Y133.617 E19.57001
G1 X137.639 Y134.519 E19.61208
G1 X137.508 Y135.413 E19.65415
G1 X137.299 Y136.291 E19.69618
G1 X137.013 Y137.148 E19.73825
G1 X136.652 Y137.976 E19.78031
G1 X136.22 Y138.768 E19.82232
G1 X135.719 Y139.52 E19.86439
G1 X135.153 Y140.224 E19.90645
G1 X134.528 Y140.875 E19.94848
G1 X133.847 Y141.469 E19.99055
G1 X133.116 Y142 E20.03262
G1 X132.342 Y142.464 E20.07464
G1 X131.529 Y142.858 E20.11671
G1 X130.685 Y143.178 E20.15874
G1 X129.815 Y143.423 E20.20083
G1 X128.928 Y143.589 E20.24285
G1 X127.777 Y143.687 E20.29664
G1 X127.17 Y143.7 E20.32491
G1 X108.061 Y143.699 E21.2147
G1 X107.363 Y143.689 E21.24721
G1 X106.461 Y143.636 E21.28928
G1 X105.568 Y143.504 E21.33132
G1 X104.69 Y143.293 E21.37336
G1 X103.834 Y143.005 E21.41542
G1 X103.007 Y142.643 E21.45745
G1 X102.215 Y142.208 E21.49953
G1 X101.464 Y141.706 E21.54159
G1 X100.761 Y141.139 E21.58365
G1 X100.111 Y140.512 E21.6257
G1 X99.519 Y139.83 E21.66775
G1 X98.989 Y139.099 E21.7098
G1 X98.527 Y138.323 E21.75185
G1 X98.134 Y137.51 E21.7939
G1 X97.816 Y136.665 E21.83594
G1 X97.573 Y135.795 E21.878
G1 X97.408 Y134.907 E21.92006
G1 X97.313 Y133.766 E21.97337
G1 X97.3 Y133.158 E22.00169
G1 X97.301 Y102.036 E23.45086
G1 X97.31 Y101.371 E23.48183
G1 X97.362 Y100.469 E23.5239
G1 X97.494 Y99.576 E23.56593
G1 X97.704 Y98.698 E23.60797
G1 X97.991 Y97.841 E23.65005
G1 X98.353 Y97.014 E23.69209
G1 X98.786 Y96.222 E23.73412
G1 X99.288 Y95.471 E23.77618
G1 X99.855 Y94.767 E23.81827
G1 F2700 E18.81827
;MESH:body-top-joint-half.stl
G0 F6000 X106.835 Y101.914
G0 X107.914 Y101.914
G0 X109.472 Y131.528
G0 X116.7 Y131.7
;TYPE:WALL-INNER
G1 F2700 E23.81827
G1 F1200 X116.7 Y103.3 E25.14069
G1 X109.3 Y103.3 E25.48527
G1 X109.3 Y131.7 E26.80769
G1 X116.7 Y131.7 E27.15227
G0 F6000 X117.1 Y132.1
G1 F1200 X117.1 Y102.9 E28.51194
G1 X108.9 Y102.9 E28.89377
G1 X108.9 Y132.1 E30.25344
G1 X117.1 Y132.1 E30.63527
G0 F6000 X117.5 Y132.5
G1 F1200 X117.5 Y102.5 E32.03219
G1 X108.5 Y102.5 E32.45127
G1 X108.5 Y132.5 E33.8482
G1 X117.5 Y132.5 E34.26727
G0 F6000 X117.9 Y132.9
G1 F1200 X117.9 Y102.1 E35.70145
G1 X108.1 Y102.1 E36.15778
G1 X108.1 Y132.9 E37.59196
G1 X117.9 Y132.9 E38.04829
G0 F6000 X118.3 Y133.3
;TYPE:WALL-OUTER
G1 F1200 X118.3 Y101.7 E39.51972
G1 X107.7 Y101.7 E40.0133
G1 X107.7 Y133.3 E41.48472
G1 X118.3 Y133.3 E41.9783
G0 F6000 X118.03 Y133.03
G0 X116.6 Y131.34
G0 X116.34 Y131.34
;TYPE:SKIN
G1 F1200 X109.66 Y131.34 E42.28935
G1 X109.66 Y103.66 E43.57825
G1 X116.34 Y103.66 E43.8893
G1 X116.34 Y131.34 E45.1782
G0 F6000 X116.6 Y131.34
G0 X110.208 Y131.6
G0 X110.208 Y131.139
G1 F1200 X109.858 Y130.789 E45.20124
G0 F6000 X109.858 Y130.223
G1 F1200 X110.774 Y131.139 E45.26156
G0 F6000 X111.34 Y131.139
G1 F1200 X109.858 Y129.657 E45.35916
G0 F6000 X109.858 Y129.092
G1 F1200 X111.906 Y131.139 E45.49399
G0 F6000 X112.471 Y131.139
G1 F1200 X109.858 Y128.526 E45.66606
G0 F6000 X109.858 Y127.96
G1 F1200 X113.037 Y131.139 E45.8754
G0 F6000 X113.603 Y131.139
G1 F1200 X109.858 Y127.395 E46.12198
G0 F6000 X109.858 Y126.829
G1 F1200 X114.168 Y131.139 E46.4058
G0 F6000 X114.734 Y131.139
G1 F1200 X109.858 Y126.263 E46.7269
G0 F6000 X109.858 Y125.698
G1 F1200 X115.3 Y131.139 E47.08523
G0 F6000 X115.865 Y131.139
G1 F1200 X109.858 Y125.132 E47.4808
G0 F6000 X109.858 Y124.566
G1 F1200 X116.14 Y130.847 E47.89445
G0 F6000 X116.14 Y130.282
G1 F1200 X109.858 Y124.001 E48.30809
G0 F6000 X109.858 Y123.435
G1 F1200 X116.14 Y129.716 E48.72174
G0 F6000 X116.14 Y129.15
G1 F1200 X109.858 Y122.869 E49.13539
G0 F6000 X109.858 Y122.304
G1 F1200 X116.14 Y128.585 E49.54904
G0 F6000 X116.14 Y128.019
G1 F1200 X109.858 Y121.738 E49.96268
G0 F6000 X109.858 Y121.172
G1 F1200 X116.14 Y127.453 E50.37633
G0 F6000 X116.14 Y126.888
G1 F1200 X109.858 Y120.606 E50.79001
G0 F6000 X109.858 Y120.041
G1 F1200 X116.14 Y126.322 E51.20366
G0 F6000 X116.14 Y125.756
G1 F1200 X109.858 Y119.475 E51.61731
G0 F6000 X109.858 Y118.909
G1 F1200 X116.14 Y125.191 E52.03099
G0 F6000 X116.14 Y124.625
G1 F1200 X109.858 Y118.344 E52.44464
G0 F6000 X109.858 Y117.778
G1 F1200 X116.14 Y124.059 E52.85828
G0 F6000 X116.14 Y123.494
G1 F1200 X109.858 Y117.212 E53.27196
G0 F6000 X109.858 Y116.647
G1 F1200 X116.14 Y122.928 E53.68561
G0 F6000 X116.14 Y122.362
G1 F1200 X109.858 Y116.081 E54.09926
G0 F6000 X109.858 Y115.515
G1 F1200 X116.14 Y121.797 E54.51294
G0 F6000 X116.14 Y121.231
G1 F1200 X109.858 Y114.95 E54.92659
G0 F6000 X109.858 Y114.384
G1 F1200 X116.14 Y120.665 E55.34023
G0 F6000 X116.14 Y120.099
G1 F1200 X109.858 Y113.818 E55.75388
G0 F6000 X109.858 Y113.253
G1 F1200 X116.14 Y119.534 E56.16753
G0 F6000 X116.14 Y118.968
G1 F1200 X109.858 Y112.687 E56.58118
G0 F6000 X109.858 Y112.121
G1 F1200 X116.14 Y118.402 E56.99482
G0 F6000 X116.14 Y117.837
G1 F1200 X109.858 Y111.555 E57.4085
G0 F6000 X109.858 Y110.99
G1 F1200 X116.14 Y117.271 E57.82215
G0 F6000 X116.14 Y116.705
G1 F1200 X109.858 Y110.424 E58.2358
G0 F6000 X109.858 Y109.858
G1 F1200 X116.14 Y116.14 E58.64948
G0 F6000 X116.14 Y115.574
G1 F1200 X109.858 Y109.293 E59.06313
G0 F6000 X109.858 Y108.727
G1 F1200 X116.14 Y115.008 E59.47677
G0 F6000 X116.14 Y114.443
G1 F1200 X109.858 Y108.161 E59.89046
G0 F6000 X109.858 Y107.596
G1 F1200 X116.14 Y113.877 E60.3041
G0 F6000 X116.14 Y113.311
G1 F1200 X109.858 Y107.03 E60.71775
G0 F6000 X109.858 Y106.464
G1 F1200 X116.14 Y112.746 E61.13143
G0 F6000 X116.14 Y112.18
G1 F1200 X109.858 Y105.899 E61.54508
G0 F6000 X109.858 Y105.333
G1 F1200 X116.14 Y111.614 E61.95873
G0 F6000 X116.14 Y111.048
G1 F1200 X109.858 Y104.767 E62.37237
G0 F6000 X109.858 Y104.202
G1 F1200 X116.14 Y110.483 E62.78602
G0 F6000 X116.14 Y109.917
G1 F1200 X110.082 Y103.859 E63.18495
G0 F6000 X110.648 Y103.859
G1 F1200 X116.14 Y109.351 E63.54661
G0 F6000 X116.14 Y108.786
G1 F1200 X111.213 Y103.859 E63.87106
G0 F6000 X111.779 Y103.859
G1 F1200 X116.14 Y108.22 E64.15824
G0 F6000 X116.14 Y107.654
G1 F1200 X112.345 Y103.859 E64.40815
G0 F6000 X112.91 Y103.859
G1 F1200 X116.14 Y107.089 E64.62085
G0 F6000 X116.14 Y106.523
G1 F1200 X113.476 Y103.859 E64.79628
G0 F6000 X114.042 Y103.859
G1 F1200 X116.14 Y105.957 E64.93443
G0 F6000 X116.14 Y105.392
G1 F1200 X114.607 Y103.859 E65.03538
G0 F6000 X115.173 Y103.859
G1 F1200 X116.14 Y104.826 E65.09906
G0 F6000 X116.14 Y104.26
G1 F1200 X115.739 Y103.859 E65.12547
G0 F6000 X115.739 Y103.1
G1 F2700 E60.12547
G0 F6000 X116.528 Y103.472
G0 X118.08 Y131.7
G0 X119.92 Y131.7
G0 X121.3 Y131.7
;TYPE:WALL-INNER
G1 F2700 E65.12547
G1 F1200 X125.7 Y131.7 E65.33035
G1 X125.7 Y103.3 E66.65277
G1 X121.3 Y103.3 E66.85766
G1 X121.3 Y131.7 E68.18008
G0 F6000 X120.9 Y132.1
G1 F1200 X126.1 Y132.1 E68.42221
G1 X126.1 Y102.9 E69.78189
G1 X120.9 Y102.9 E70.02402
G1 X120.9 Y132.1 E71.3837
G0 F6000 X120.5 Y132.5
G1 F1200 X126.5 Y132.5 E71.66308
G1 X126.5 Y102.5 E73.06001
G1 X120.5 Y102.5 E73.33939
G1 X120.5 Y132.5 E74.73632
G0 F6000 X120.1 Y132.9
G1 F1200 X126.9 Y132.9 E75.05295
G1 X126.9 Y102.1 E76.48713
G1 X120.1 Y102.1 E76.80377
G1 X120.1 Y132.9 E78.23794
G0 F6000 X119.7 Y133.3
;TYPE:WALL-OUTER
G1 F1200 X127.3 Y133.3 E78.59183
G1 X127.3 Y101.7 E80.06326
G1 X119.7 Y101.7 E80.41715
G1 X119.7 Y133.3 E81.88858
G0 F6000 X119.97 Y133.03
G0 X121.4 Y131.34
G0 X121.66 Y131.34
;TYPE:SKIN
G1 F1200 X121.66 Y103.66 E83.17747
G1 X125.34 Y103.66 E83.34883
G1 X125.34 Y131.34 E84.63773
G1 X121.66 Y131.34 E84.80908
G0 F6000 X122.088 Y131.139
G1 F1200 X121.859 Y130.91 E84.82416
G0 F6000 X121.859 Y130.345
G1 F1200 X122.654 Y131.139 E84.87648
G0 F6000 X123.219 Y131.139
G1 F1200 X121.859 Y129.779 E84.96604
G0 F6000 X121.859 Y129.213
G1 F1200 X123.785 Y131.139 E85.09287
G0 F6000 X124.351 Y131.139
G1 F1200 X121.859 Y128.648 E85.25694
G0 F6000 X121.859 Y128.082
G1 F1200 X124.916 Y131.139 E85.45825
G0 F6000 X125.14 Y130.797
G1 F1200 X121.859 Y127.516 E85.67431
G0 F6000 X121.859 Y126.951
G1 F1200 X125.14 Y130.231 E85.89033
G0 F6000 X125.14 Y129.665
G1 F1200 X121.859 Y126.385 E86.10636
G0 F6000 X121.859 Y125.819
G1 F1200 X125.14 Y129.1 E86.32242
G0 F6000 X125.14 Y128.534
G1 F1200 X121.859 Y125.254 E86.53845
G0 F6000 X121.859 Y124.688
G1 F1200 X125.14 Y127.968 E86.75447
G0 F6000 X125.14 Y127.402
G1 F1200 X121.859 Y124.122 E86.9705
G0 F6000 X121.859 Y123.557
G1 F1200 X125.14 Y126.837 E87.18653
G0 F6000 X125.14 Y126.271
G1 F1200 X121.859 Y122.991 E87.40255
G0 F6000 X121.859 Y122.425
G1 F1200 X125.14 Y125.705 E87.61858
G0 F6000 X125.14 Y125.14
G1 F1200 X121.859 Y121.859 E87.83464
G0 F6000 X121.859 Y121.294
G1 F1200 X125.14 Y124.574 E88.05067
G0 F6000 X125.14 Y124.008
G1 F1200 X121.859 Y120.728 E88.26669
G0 F6000 X121.859 Y120.162
G1 F1200 X125.14 Y123.443 E88.48275
G0 F6000 X125.14 Y122.877
G1 F1200 X121.859 Y119.597 E88.69878
G0 F6000 X121.859 Y119.031
G1 F1200 X125.14 Y122.311 E88.9148
G0 F6000 X125.14 Y121.746
G1 F1200 X121.859 Y118.465 E89.13086
G0 F6000 X121.859 Y117.9
G1 F1200 X125.14 Y121.18 E89.34689
G0 F6000 X125.14 Y120.614
G1 F1200 X121.859 Y117.333 E89.56295
G0 F6000 X121.859 Y116.768
G1 F1200 X125.14 Y120.049 E89.77901
G0 F6000 X125.14 Y119.483
G1 F1200 X121.859 Y116.202 E89.99507
G0 F6000 X121.859 Y115.636
G1 F1200 X125.14 Y118.917 E90.21113
G0 F6000 X125.14 Y118.351
G1 F1200 X121.859 Y115.071 E90.42715
G0 F6000 X121.859 Y114.505
G1 F1200 X125.14 Y117.786 E90.64321
G0 F6000 X125.14 Y117.22
G1 F1200 X121.859 Y113.939 E90.85927
G0 F6000 X121.859 Y113.373
G1 F1200 X125.14 Y116.654 E91.07533
G0 F6000 X125.14 Y116.089
G1 F1200 X121.859 Y112.808 E91.29139
G0 F6000 X121.859 Y112.242
G1 F1200 X125.14 Y115.523 E91.50745
G0 F6000 X125.14 Y114.957
