;FLAVOR:Marlin
;TIME:4949
;Filament used: 3.97844m
;Layer height: 0.28
;MINX:7.203
;MINY:66
;MINZ:0.28
;MAXX:124.93
;MAXY:195.37
;MAXZ:7.84
;Generated with Creality Slicer 4.8.2-191
M140 S50
M105
M190 S50
M104 S200
M105
M109 S200
M82 ;absolute extrusion mode

G28 ;Home

G92 E0 ;Reset Extruder
G1 Z2.0 F3000 ;Move Z Axis up
G1 X10.1 Y20 Z0.28 F5000.0 ;Move to start position
G1 X10.1 Y200.0 Z0.28 F1500.0 E15 ;Draw the first line
G1 X10.4 Y200.0 Z0.28 F5000.0 ;Move to side a little
G1 X10.4 Y20 Z0.28 F1500.0 E30 ;Draw the second line
G92 E0 ;Reset Extruder
G1 Z2.0 F3000 ;Move Z Axis up

G92 E0
G92 E0
G1 F2700 E-5
;LAYER_COUNT:28
;LAYER:0
M107
G0 F6000 X16.106 Y66.213 Z0.28
;TYPE:SKIRT
G1 F2700 E0
G1 F1200 X17.033 Y66.072 E0.04366
G1 X17.904 Y66.013 E0.08431
G1 X18.225 Y66.004 E0.09926
G1 X18.533 Y66 E0.11361
G1 X101.496 Y66 E3.97671
G1 X102.352 Y66.011 E4.01657
G1 X103.288 Y66.065 E4.06023
G1 X104.216 Y66.197 E4.10388
G1 X105.13 Y66.409 E4.14757
G1 X106.022 Y66.698 E4.19123
G1 X106.887 Y67.061 E4.23491
G1 X107.717 Y67.497 E4.27857
G1 X108.508 Y68.002 E4.32226
G1 X109.252 Y68.573 E4.36593
G1 X109.945 Y69.205 E4.40961
G1 X110.582 Y69.893 E4.45327
G1 X111.157 Y70.634 E4.49694
G1 X111.668 Y71.42 E4.54059
G1 X112.11 Y72.248 E4.5843
G1 X112.479 Y73.11 E4.62796
G1 X112.774 Y74 E4.67162
G1 X112.992 Y74.912 E4.71528
G1 X113.153 Y76.057 E4.76912
G1 X113.179 Y76.377 E4.78407
G1 X113.348 Y78.711 E4.89304
G1 X113.599 Y81.202 E5.00962
G1 X113.924 Y83.712 E5.12747
G1 X114.316 Y86.193 E5.24443
G1 X114.781 Y88.67 E5.36178
G1 X115.319 Y91.15 E5.47995
G1 X115.906 Y93.536 E5.59436
G1 X116.595 Y96.02 E5.71439
G1 X117.326 Y98.395 E5.8301
G1 X118.143 Y100.806 E5.94864
G1 X119.013 Y103.153 E6.06519
G1 X119.953 Y105.484 E6.18223
G1 X120.956 Y107.782 E6.29898
G1 X122.033 Y110.072 E6.41682
G1 X123.177 Y112.336 E6.53493
G1 X123.666 Y113.271 E6.58407
G1 X124.065 Y114.12 E6.62775
G1 X124.39 Y115 E6.67143
G1 X124.658 Y115.991 E6.71923
G1 X124.822 Y116.914 E6.76288
G1 X124.915 Y118.037 E6.81535
G1 X124.925 Y118.36 E6.8304
G1 X124.93 Y118.7 E6.84623
G1 X124.93 Y149.891 E8.29862
G1 X124.923 Y151.721 E8.38383
G1 X124.93 Y152.646 E8.4269
G1 X124.929 Y183.77 E9.87617
G1 X124.92 Y184.497 E9.91002
G1 X124.869 Y185.434 E9.95372
G1 X124.737 Y186.362 E9.99736
G1 X124.528 Y187.276 E10.04102
G1 X124.241 Y188.169 E10.0847
G1 X123.879 Y189.035 E10.12841
G1 X123.445 Y189.866 E10.17206
G1 X122.941 Y190.657 E10.21573
G1 X122.372 Y191.402 E10.25938
G1 X121.741 Y192.097 E10.30309
G1 X121.054 Y192.735 E10.34675
G1 X120.315 Y193.312 E10.39041
G1 X119.529 Y193.824 E10.43409
G1 X118.703 Y194.267 E10.47773
G1 X117.841 Y194.639 E10.52145
G1 X116.952 Y194.935 E10.56508
G1 X116.04 Y195.155 E10.60876
G1 X115.113 Y195.296 E10.65242
G1 X114.229 Y195.357 E10.69369
G1 X113.908 Y195.366 E10.70864
G1 X113.6 Y195.37 E10.72298
G1 X30.495 Y195.369 E14.5927
G1 X29.797 Y195.36 E14.6252
G1 X28.861 Y195.308 E14.66885
G1 X27.932 Y195.176 E14.71255
G1 X27.018 Y194.966 E14.75622
G1 X26.125 Y194.679 E14.79989
G1 X25.26 Y194.316 E14.84357
G1 X24.429 Y193.882 E14.88723
G1 X23.638 Y193.378 E14.9309
G1 X22.893 Y192.808 E14.97458
G1 X22.199 Y192.177 E15.01826
G1 X21.562 Y191.49 E15.06188
G1 X20.985 Y190.75 E15.10558
G1 X20.473 Y189.964 E15.14925
G1 X20.03 Y189.137 E15.19294
G1 X19.659 Y188.276 E15.2366
G1 X19.363 Y187.386 E15.28027
G1 X19.144 Y186.474 E15.32394
G1 X18.977 Y185.275 E15.38031
G1 X18.951 Y184.951 E15.39545
G1 X18.785 Y182.659 E15.50245
G1 X18.533 Y180.163 E15.61927
G1 X18.21 Y177.666 E15.73651
G1 X17.816 Y175.172 E15.85408
G1 X17.347 Y172.673 E15.97247
G1 X16.821 Y170.247 E16.08806
G1 X16.227 Y167.834 E16.20378
G1 X15.544 Y165.372 E16.32275
G1 X14.793 Y162.931 E16.44167
G1 X14.005 Y160.605 E16.55602
G1 X13.117 Y158.209 E16.67501
G1 X12.175 Y155.875 E16.79221
G1 X11.17 Y153.572 E16.90921
G1 X10.107 Y151.312 E17.0255
G1 X8.94 Y149.002 E17.14601
G1 X8.465 Y148.094 E17.19373
G1 X8.066 Y147.245 E17.23741
G1 X7.741 Y146.365 E17.28109
G1 X7.492 Y145.461 E17.32475
G1 X7.321 Y144.539 E17.36842
G1 X7.218 Y143.333 E17.42478
G1 X7.208 Y143.005 E17.44006
G1 X7.203 Y142.67 E17.45566
G1 X7.203 Y111.479 E18.90804
G1 X7.21 Y109.649 E18.99326
G1 X7.203 Y108.724 E19.03633
G1 X7.204 Y77.525 E20.48909
G1 X7.213 Y76.86 E20.52006
G1 X7.266 Y75.924 E20.56371
G1 X7.398 Y74.995 E20.6074
G1 X7.609 Y74.081 E20.65108
G1 X7.897 Y73.189 E20.69473
G1 X8.26 Y72.324 E20.73841
G1 X8.695 Y71.493 E20.78208
G1 X9.199 Y70.703 E20.82572
G1 X9.769 Y69.958 E20.8694
G1 X10.401 Y69.264 E20.9131
G1 X11.089 Y68.627 E20.95676
G1 X11.829 Y68.051 E21.00043
G1 X12.615 Y67.539 E21.04411
G1 X13.442 Y67.097 E21.08777
G1 X14.304 Y66.727 E21.13145
G1 X15.194 Y66.431 E21.17513
G1 X16.106 Y66.213 E21.21879
G0 F6000 X16.448 Y66.557
G1 F1200 X17.362 Y66.443 E21.26168
G1 X17.915 Y66.413 E21.28747
G1 X18.236 Y66.404 E21.30242
G1 X18.533 Y66.4 E21.31625
G1 X101.496 Y66.4 E25.17935
G1 X102.346 Y66.411 E25.21894
G1 X103.265 Y66.464 E25.2618
G1 X104.176 Y66.597 E25.30467
G1 X105.072 Y66.808 E25.34753
G1 X105.946 Y67.096 E25.39038
G1 X106.793 Y67.459 E25.43329
G1 X107.604 Y67.894 E25.47615
G1 X108.374 Y68.398 E25.519
G1 X109.098 Y68.967 E25.56188
G1 X109.77 Y69.597 E25.60477
G1 X110.385 Y70.282 E25.64763
G1 X110.938 Y71.018 E25.6905
G1 X111.425 Y71.799 E25.73336
G1 X111.842 Y72.62 E25.77624
G1 X112.187 Y73.474 E25.81912
G1 X112.456 Y74.354 E25.86197
G1 X112.648 Y75.255 E25.90487
G1 X112.754 Y76.092 E25.94415
G1 X112.78 Y76.406 E25.95882
G1 X112.949 Y78.748 E26.06816
G1 X113.202 Y81.253 E26.1854
G1 X113.526 Y83.754 E26.30283
G1 X113.922 Y86.257 E26.42083
G1 X114.39 Y88.756 E26.53922
G1 X114.928 Y91.233 E26.65724
G1 X115.525 Y93.657 E26.77349
G1 X116.206 Y96.116 E26.8923
G1 X116.948 Y98.525 E27.00967
G1 X117.765 Y100.936 E27.12821
G1 X118.643 Y103.305 E27.24585
G1 X119.574 Y105.615 E27.36182
G1 X120.606 Y107.977 E27.48185
G1 X121.672 Y110.244 E27.5985
G1 X122.839 Y112.554 E27.71901
G1 X123.311 Y113.457 E27.76645
G1 X123.702 Y114.29 E27.8093
G1 X124.019 Y115.154 E27.85215
G1 X124.268 Y116.078 E27.89671
G1 X124.428 Y116.984 E27.93955
G1 X124.515 Y118.049 E27.98931
G1 X124.525 Y118.372 E28.00436
G1 X124.53 Y118.7 E28.01963
G1 X124.53 Y149.89 E29.47197
G1 X124.523 Y151.724 E29.55737
G1 X124.53 Y152.649 E29.60044
G1 X124.529 Y183.765 E31.04933
G1 X124.52 Y184.492 E31.08319
G1 X124.469 Y185.411 E31.12605
G1 X124.338 Y186.323 E31.16895
G1 X124.128 Y187.219 E31.2118
G1 X123.842 Y188.094 E31.25467
G1 X123.481 Y188.941 E31.29754
G1 X123.047 Y189.753 E31.34041
G1 X122.545 Y190.525 E31.38329
G1 X121.977 Y191.25 E31.42618
G1 X121.349 Y191.923 E31.46904
G1 X120.665 Y192.539 E31.5119
G1 X119.93 Y193.093 E31.55476
G1 X119.15 Y193.582 E31.59763
G1 X118.33 Y194.001 E31.6405
G1 X117.477 Y194.347 E31.68337
G1 X116.597 Y194.618 E31.72624
G1 X115.697 Y194.811 E31.7691
G1 X114.783 Y194.926 E31.812
G1 X114.218 Y194.957 E31.83835
G1 X113.897 Y194.966 E31.8533
G1 X113.6 Y194.97 E31.86713
G1 X30.5 Y194.969 E35.73661
G1 X29.802 Y194.96 E35.76912
G1 X28.883 Y194.908 E35.81198
G1 X27.972 Y194.777 E35.85484
G1 X27.076 Y194.567 E35.89769
G1 X26.201 Y194.28 E35.94057
G1 X25.354 Y193.918 E35.98346
G1 X24.542 Y193.484 E36.02633
G1 X23.771 Y192.982 E36.06917
G1 X23.046 Y192.414 E36.11206
G1 X22.373 Y191.785 E36.15495
G1 X21.758 Y191.101 E36.19778
G1 X21.204 Y190.366 E36.24064
G1 X20.716 Y189.585 E36.28352
G1 X20.297 Y188.765 E36.3264
G1 X19.951 Y187.912 E36.36926
G1 X19.681 Y187.032 E36.41212
G1 X19.488 Y186.131 E36.45503
G1 X19.376 Y185.241 E36.4968
G1 X19.35 Y184.922 E36.5117
G1 X19.184 Y182.622 E36.61908
G1 X18.93 Y180.112 E36.73655
G1 X18.608 Y177.624 E36.85337
G1 X18.209 Y175.102 E36.97226
G1 X17.744 Y172.62 E37.08985
G1 X17.205 Y170.138 E37.20811
G1 X16.608 Y167.713 E37.3244
G1 X15.924 Y165.244 E37.4437
G1 X15.192 Y162.864 E37.55965
G1 X14.371 Y160.443 E37.67868
G1 X13.487 Y158.057 E37.79717
G1 X12.554 Y155.744 E37.9133
G1 X11.526 Y153.391 E38.03287
G1 X10.461 Y151.126 E38.14941
G1 X9.323 Y148.873 E38.26694
G1 X8.819 Y147.909 E38.3176
G1 X8.428 Y147.075 E38.36049
G1 X8.112 Y146.211 E38.40333
G1 X7.871 Y145.322 E38.44622
G1 X7.708 Y144.416 E38.48908
G1 X7.618 Y143.321 E38.54024
G1 X7.608 Y142.993 E38.55552
G1 X7.603 Y142.67 E38.57056
G1 X7.603 Y111.48 E40.0229
G1 X7.61 Y109.646 E40.1083
G1 X7.603 Y108.721 E40.15137
G1 X7.604 Y77.531 E41.60371
G1 X7.613 Y76.866 E41.63468
G1 X7.665 Y75.946 E41.67758
G1 X7.797 Y75.035 E41.72045
G1 X8.008 Y74.139 E41.76331
G1 X8.295 Y73.264 E41.80619
G1 X8.658 Y72.418 E41.84906
G1 X9.092 Y71.606 E41.89193
G1 X9.595 Y70.835 E41.93479
G1 X10.164 Y70.111 E41.97767
G1 X10.792 Y69.439 E42.0205
G1 X11.477 Y68.823 E42.0634
G1 X12.213 Y68.27 E42.10626
G1 X12.994 Y67.782 E42.14915
G1 X13.814 Y67.364 E42.192
G1 X14.668 Y67.019 E42.23489
G1 X15.548 Y66.749 E42.27775
G1 X16.448 Y66.557 E42.3206
G0 F6000 X15.899 Y67.075
G1 F1200 X16.787 Y66.909 E42.36267
G1 X17.926 Y66.813 E42.41589
G1 X18.247 Y66.804 E42.43085
G1 X18.533 Y66.8 E42.44416
G1 X101.496 Y66.8 E46.30727
G1 X102.34 Y66.811 E46.34657
G1 X103.242 Y66.864 E46.38865
G1 X104.135 Y66.996 E46.43068
G1 X105.013 Y67.207 E46.47273
G1 X105.869 Y67.495 E46.51478
G1 X106.696 Y67.857 E46.55682
G1 X107.488 Y68.292 E46.59889
G1 X108.239 Y68.794 E46.64096
G1 X108.942 Y69.361 E46.68301
G1 X109.592 Y69.988 E46.72506
G1 X110.184 Y70.67 E46.76712
G1 X110.714 Y71.401 E46.80916
G1 X111.176 Y72.177 E46.85121
G1 X111.569 Y72.99 E46.89326
G1 X111.887 Y73.835 E46.9353
G1 X112.13 Y74.705 E46.97736
G1 X112.295 Y75.593 E47.01942
G1 X112.356 Y76.126 E47.0444
G1 X112.381 Y76.435 E47.05884
G1 X112.551 Y78.781 E47.16836
G1 X112.802 Y81.273 E47.28499
G1 X113.134 Y83.836 E47.40533
G1 X113.533 Y86.356 E47.52413
G1 X113.992 Y88.809 E47.64034
G1 X114.54 Y91.334 E47.76065
G1 X115.13 Y93.73 E47.87555
G1 X115.822 Y96.225 E47.99611
G1 X116.576 Y98.677 E48.11556
G1 X117.382 Y101.056 E48.23252
G1 X118.268 Y103.445 E48.35117
G1 X119.213 Y105.788 E48.46881
G1 X120.235 Y108.128 E48.58771
G1 X121.311 Y110.416 E48.70544
G1 X122.471 Y112.712 E48.82522
G1 X122.957 Y113.642 E48.87408
G1 X123.34 Y114.46 E48.91614
G1 X123.648 Y115.309 E48.9582
G1 X123.877 Y116.164 E48.99941
G1 X124.034 Y117.054 E49.04149
G1 X124.115 Y118.061 E49.08853
G1 X124.125 Y118.384 E49.10358
G1 X124.13 Y118.7 E49.1183
G1 X124.13 Y149.889 E50.57059
G1 X124.123 Y151.727 E50.65617
G1 X124.13 Y152.652 E50.69925
G1 X124.129 Y183.76 E52.14777
G1 X124.12 Y184.487 E52.18162
G1 X124.069 Y185.389 E52.22369
G1 X123.938 Y186.283 E52.26576
G1 X123.729 Y187.161 E52.30779
G1 X123.443 Y188.018 E52.34986
G1 X123.082 Y188.846 E52.39192
G1 X122.65 Y189.638 E52.43393
G1 X122.149 Y190.39 E52.476
G1 X121.583 Y191.094 E52.51806
G1 X120.958 Y191.745 E52.56008
G1 X120.277 Y192.339 E52.60216
G1 X119.546 Y192.87 E52.64423
G1 X118.772 Y193.334 E52.68625
G1 X117.959 Y193.728 E52.72832
G1 X117.115 Y194.048 E52.77035
G1 X116.245 Y194.293 E52.81244
G1 X115.358 Y194.459 E52.85446
G1 X114.207 Y194.557 E52.90825
G1 X113.886 Y194.566 E52.9232
G1 X113.6 Y194.57 E52.93652
G1 X30.505 Y194.569 E56.80577
G1 X29.807 Y194.56 E56.83828
G1 X28.906 Y194.509 E56.8803
G1 X28.012 Y194.377 E56.92238
G1 X27.134 Y194.168 E56.9644
G1 X26.277 Y193.881 E57.00649
G1 X25.45 Y193.52 E57.0485
G1 X24.657 Y193.087 E57.09058
G1 X23.906 Y192.586 E57.13261
G1 X23.202 Y192.02 E57.17467
G1 X22.551 Y191.394 E57.21673
G1 X21.958 Y190.713 E57.25878
G1 X21.428 Y189.982 E57.30082
G1 X20.964 Y189.207 E57.34288
G1 X20.57 Y188.394 E57.38495
G1 X20.25 Y187.55 E57.42698
G1 X20.006 Y186.68 E57.46905
G1 X19.84 Y185.792 E57.51112
G1 X19.774 Y185.208 E57.53848
G1 X19.749 Y184.893 E57.5532
G1 X19.582 Y182.589 E57.66076
G1 X19.33 Y180.092 E57.77762
G1 X19 Y177.542 E57.89735
G1 X18.604 Y175.037 E58.01545
G1 X18.136 Y172.54 E58.13374
G1 X17.591 Y170.029 E58.25339
G1 X17.003 Y167.64 E58.36795
G1 X16.309 Y165.134 E58.48903
G1 X15.564 Y162.713 E58.60698
G1 X14.753 Y160.323 E58.7245
G1 X13.862 Y157.917 E58.84397
G1 X12.915 Y155.571 E58.96177
G1 X11.897 Y153.24 E59.08021
G1 X10.822 Y150.954 E59.19784
G1 X9.662 Y148.658 E59.31762
G1 X9.174 Y147.724 E59.36669
G1 X8.791 Y146.905 E59.40879
G1 X8.482 Y146.057 E59.45082
G1 X8.25 Y145.184 E59.49288
G1 X8.096 Y144.294 E59.53494
G1 X8.018 Y143.309 E59.58095
G1 X8.008 Y142.981 E59.59623
G1 X8.003 Y142.67 E59.61071
G1 X8.003 Y111.481 E61.063
G1 X8.01 Y109.643 E61.14859
G1 X8.003 Y108.718 E61.19166
G1 X8.004 Y77.536 E62.64362
G1 X8.013 Y76.871 E62.67459
G1 X8.065 Y75.969 E62.71666
G1 X8.197 Y75.076 E62.7587
G1 X8.407 Y74.198 E62.80073
G1 X8.694 Y73.341 E62.84282
G1 X9.056 Y72.514 E62.88485
G1 X9.489 Y71.722 E62.92688
G1 X9.991 Y70.971 E62.96895
G1 X10.558 Y70.267 E63.01104
G1 X11.184 Y69.617 E63.05306
G1 X11.865 Y69.024 E63.09511
G1 X12.597 Y68.494 E63.13719
G1 X13.372 Y68.031 E63.17922
G1 X14.185 Y67.638 E63.22127
G1 X15.03 Y67.318 E63.26334
G1 X15.899 Y67.075 E63.30536
G1 F2700 E58.30536
;MESH:body.stl
G0 F6000 X17.55 Y109.653
G0 X18.617 Y110.335
G0 X18.617 Y111.414
G0 X24.221 Y112.982
G0 X25.775 Y126.428
G0 X40.631 Y127.572
G0 X40.803 Y141.6
;TYPE:WALL-INNER
G1 F2700 E63.30536
G1 F1200 X40.803 Y127.4 E63.96657
G1 X25.603 Y127.4 E64.67435
G1 X25.603 Y141.6 E65.33556
G1 X40.803 Y141.6 E66.04334
G0 F6000 X40.403 Y141.2
;TYPE:WALL-OUTER
G1 F1200 X40.403 Y127.8 E66.6673
G1 X26.003 Y127.8 E67.33782
G1 X26.003 Y141.2 E67.96178
G1 X40.403 Y141.2 E68.6323
G0 F6000 X40.703 Y141.2
G0 X40.803 Y126.6
;TYPE:WALL-INNER
G1 F1200 X40.803 Y112.4 E69.29352
G1 X25.603 Y112.4 E70.00129
G1 X25.603 Y126.6 E70.6625
G1 X40.803 Y126.6 E71.37028
G0 F6000 X40.403 Y126.2
;TYPE:WALL-OUTER
G1 F1200 X40.403 Y112.8 E71.99424
G1 X26.003 Y112.8 E72.66476
G1 X26.003 Y126.2 E73.28872
G1 X40.403 Y126.2 E73.95925
G0 F6000 X40.703 Y126.2
G0 X41.667 Y126.405
G0 X56.803 Y126.6
;TYPE:WALL-INNER
G1 F1200 X56.803 Y112.4 E74.62046
G1 X41.603 Y112.4 E75.32823
G1 X41.603 Y126.6 E75.98945
G1 X56.803 Y126.6 E76.69722
G0 F6000 X56.403 Y126.2
;TYPE:WALL-OUTER
G1 F1200 X56.403 Y112.8 E77.32118
G1 X42.003 Y112.8 E77.99171
G1 X42.003 Y126.2 E78.61567
G1 X56.403 Y126.2 E79.28619
G0 F6000 X56.703 Y126.2
G0 X56.803 Y141.6
;TYPE:WALL-INNER
G1 F1200 X56.803 Y127.4 E79.9474
G1 X41.603 Y127.4 E80.65518
G1 X41.603 Y141.6 E81.31639
G1 X56.803 Y141.6 E82.02417
G0 F6000 X56.403 Y141.2
;TYPE:WALL-OUTER
G1 F1200 X56.403 Y127.8 E82.64813
G1 X42.003 Y127.8 E83.31865
G1 X42.003 Y141.2 E83.94261
G1 X56.403 Y141.2 E84.61313
G1 F2700 E79.61313
G0 F6000 X56.703 Y141.2
G0 X25.775 Y141.428
G0 X24.403 Y141.2
;TYPE:WALL-INNER
G1 F2700 E84.61313
G1 F1200 X20.003 Y141.2 E84.81802
G1 X20.003 Y112.8 E86.14044
G1 X24.403 Y112.8 E86.34532
G1 X24.403 Y141.2 E87.66774
G0 F6000 X24.803 Y141.6
G1 F1200 X19.603 Y141.6 E87.90988
G1 X19.603 Y112.4 E89.26955
G1 X24.803 Y112.4 E89.51169
G1 X24.803 Y141.6 E90.87136
G1 F2700 E85.87136
G0 F6000 X56.631 Y141.428
G0 X62.403 Y141.2
G1 F2700 E90.87136
G1 F1200 X58.003 Y141.2 E91.07624
G1 X58.003 Y112.8 E92.39867
G1 X62.403 Y112.8 E92.60355
G1 X62.403 Y141.2 E93.92597
G0 F6000 X62.803 Y141.6
G1 F1200 X57.603 Y141.6 E94.16811
G1 X57.603 Y112.4 E95.52778
G1 X62.803 Y112.4 E95.76991
G1 X62.803 Y141.6 E97.12959
G0 F6000 X63.203 Y142
G1 F1200 X57.203 Y142 E97.40897
G1 X57.203 Y112 E98.8059
G1 X25.203 Y112
G1 X25.203 Y142 E100.20282
G1 X19.203 Y142 E100.48221
G1 X19.203 Y112 E101.87914
G1 X25.203 Y112 E102.15852
G1 X57.203 Y112 E103.64857
G1 X63.203 Y112 E103.92796
G1 X63.203 Y142 E105.32489
G0 F6000 X63.603 Y142.4
G1 F1200 X18.803 Y142.4 E107.41096
G1 X18.803 Y111.6 E108.84514
G1 X63.603 Y111.6 E110.93121
G1 X63.603 Y142.4 E112.36539
G0 F6000 X64.003 Y142.8
;TYPE:WALL-OUTER
G1 F1200 X18.403 Y142.8 E114.48872
G1 X18.403 Y111.2 E115.96015
G1 X64.003 Y111.2 E118.08347
G1 X64.003 Y142.8 E119.5549
G0 F6000 X63.733 Y142.53
G0 X62.293 Y140.81
G0 X62.013 Y140.81
;TYPE:SKIN
G1 F1200 X58.393 Y140.81 E119.72346
G1 X58.393 Y113.19 E121.00957
G1 X62.013 Y113.19 E121.17813
G1 X62.013 Y140.81 E122.46423
G0 F6000 X62.293 Y140.81
G0 X58.624 Y141.09
G0 X58.624 Y140.649
G1 F1200 X58.552 Y140.577 E122.46897
G0 F6000 X58.552 Y140.011
G1 F1200 X59.19 Y140.649 E122.51099
G0 F6000 X59.756 Y140.649
G1 F1200 X58.552 Y139.445 E122.59027
G0 F6000 X58.552 Y138.88
