;FLAVOR:Marlin
;TIME:6077
;Filament used: 1.0556m
;Layer height: 0.12
;MINX:74.508
;MINY:74.509
;MINZ:0.12
;MAXX:160.492
;MAXY:160.491
;MAXZ:3
;Generated with Cura_SteamEngine 5.4.0
M140 S50
M105
M190 S50
M104 S200
M105
M109 S200
M82 ;absolute extrusion mode
; Ender 3 Custom Start G-code
G92 E0 ; Reset Extruder
G28 ; Home all axes
G1 Z2.0 F3000 ; Move Z Axis up little to prevent scratching of Heat Bed
G1 X0.1 Y20 Z0.3 F5000.0 ; Move to start position
G1 X0.1 Y200.0 Z0.3 F1500.0 E15 ; Draw the first line
G1 X0.4 Y200.0 Z0.3 F5000.0 ; Move to side a little
G1 X0.4 Y20 Z0.3 F1500.0 E30 ; Draw the second line
G92 E0 ; Reset Extruder
G1 Z2.0 F3000 ; Move Z Axis up little to prevent scratching of Heat Bed
G1 X5 Y20 Z0.3 F5000.0 ; Move over to prevent blob squish
G92 E0
G92 E0
G1 F2700 E-5
;LAYER_COUNT:25
;LAYER:0
M107
G0 F6000 X86.708 Y87.496 Z0.12
;TYPE:SKIRT
G1 F2700 E0
G1 F1200 X87.549 Y86.658 E0.02369
G1 X88.395 Y85.855 E0.04697
G1 X89.128 Y85.197 E0.06663
G1 X89.998 Y84.452 E0.08948
G1 X90.73 Y83.855 E0.10833
G1 X91.39 Y83.342 E0.12502
G1 X92.243 Y82.706 E0.14625
G1 X93.097 Y82.103 E0.16711
G1 X94.047 Y81.466 E0.18994
G1 X95.038 Y80.84 E0.21333
G1 X96.016 Y80.259 E0.23603
G1 X96.735 Y79.853 E0.25251
G1 X97.792 Y79.289 E0.27642
G1 X98.537 Y78.913 E0.29307
G1 X99.811 Y78.313 E0.32117
G1 X100.707 Y77.92 E0.3407
G1 X101.468 Y77.607 E0.35712
G1 X102.664 Y77.147 E0.38269
G1 X103.598 Y76.817 E0.40246
G1 X104.726 Y76.448 E0.42614
G1 X105.666 Y76.167 E0.44572
G1 X106.759 Y75.87 E0.46833
G1 X107.726 Y75.631 E0.4882
G1 X108.78 Y75.399 E0.50974
G1 X109.722 Y75.217 E0.52889
G1 X110.898 Y75.016 E0.5527
G1 X111.858 Y74.878 E0.57205
G1 X112.955 Y74.748 E0.5941
G1 X114.029 Y74.646 E0.61562
G1 X114.977 Y74.579 E0.63459
G1 X115.903 Y74.536 E0.65309
G1 X117.046 Y74.509 E0.67591
G1 X117.988 Y74.509 E0.6947
G1 X118.984 Y74.53 E0.71459
G1 X120.279 Y74.595 E0.74046
G1 X121.301 Y74.674 E0.76092
G1 X122.193 Y74.762 E0.7788
G1 X123.433 Y74.917 E0.80374
G1 X124.416 Y75.066 E0.82358
G1 X125.574 Y75.272 E0.84706
G1 X126.575 Y75.474 E0.86743
G1 X127.596 Y75.707 E0.88833
G1 X128.566 Y75.955 E0.90831
G1 X129.714 Y76.277 E0.93211
G1 X130.586 Y76.546 E0.95032
G1 X131.704 Y76.921 E0.97385
G1 X132.36 Y77.156 E0.98776
G1 X133.402 Y77.555 E1.01002
G1 X134.57 Y78.039 E1.03525
G1 X135.308 Y78.368 E1.05138
G1 X136.553 Y78.958 E1.07887
G1 X137.207 Y79.287 E1.09348
G1 X138.361 Y79.905 E1.11961
G1 X139.28 Y80.431 E1.14074
G1 X140.183 Y80.977 E1.16179
G1 X141.054 Y81.532 E1.18241
G1 X141.955 Y82.138 E1.20407
G1 X142.829 Y82.759 E1.22547
G1 X143.669 Y83.387 E1.2464
G1 X144.483 Y84.027 E1.26706
G1 X145.095 Y84.529 E1.28286
G1 X146.144 Y85.437 E1.31055
G1 X146.876 Y86.105 E1.33032
G1 X147.661 Y86.859 E1.35204
G1 X148.176 Y87.375 E1.36659
G1 X149.123 Y88.37 E1.39401
G1 X149.748 Y89.064 E1.41264
G1 X150.316 Y89.723 E1.43001
G1 X151.173 Y90.769 E1.45699
G1 X151.646 Y91.375 E1.47233
G1 X152.255 Y92.19 E1.49264
G1 X153.052 Y93.323 E1.52028
G1 X153.585 Y94.125 E1.5395
G1 X154.2 Y95.103 E1.56255
G1 X154.713 Y95.965 E1.58257
G1 X155.206 Y96.842 E1.60265
G1 X155.745 Y97.856 E1.62556
G1 X156.191 Y98.751 E1.64552
G1 X156.642 Y99.713 E1.66672
G1 X157.087 Y100.722 E1.68873
G1 X157.355 Y101.373 E1.70278
G1 X157.859 Y102.681 E1.73075
G1 X158.194 Y103.629 E1.75082
G1 X158.536 Y104.674 E1.77276
G1 X158.821 Y105.62 E1.79247
G1 X159.104 Y106.655 E1.81389
G1 X159.319 Y107.517 E1.83162
G1 X159.581 Y108.686 E1.85552
G1 X159.749 Y109.528 E1.87266
G1 X159.922 Y110.512 E1.8926
G1 X160.094 Y111.643 E1.91543
G1 X160.242 Y112.853 E1.93975
G1 X160.347 Y113.954 E1.96182
G1 X160.424 Y115.028 E1.98331
G1 X160.47 Y116.045 E2.00363
G1 X160.492 Y117.075 E2.02419
G1 X160.489 Y118.191 E2.04646
G1 X160.459 Y119.241 E2.06742
G1 X160.407 Y120.244 E2.08746
G1 X160.321 Y121.353 E2.10966
G1 X160.218 Y122.37 E2.13006
G1 X160.116 Y123.198 E2.14671
G1 X159.926 Y124.473 E2.17243
G1 X159.79 Y125.244 E2.18806
G1 X159.57 Y126.363 E2.21082
G1 X159.314 Y127.508 E2.23423
G1 X159.041 Y128.582 E2.25634
G1 X158.748 Y129.626 E2.27798
G1 X158.444 Y130.617 E2.29867
G1 X158.074 Y131.725 E2.32198
G1 X157.87 Y132.292 E2.33401
G1 X157.348 Y133.645 E2.36295
G1 X157.077 Y134.3 E2.37709
G1 X156.53 Y135.534 E2.40403
G1 X156.188 Y136.257 E2.41999
G1 X155.735 Y137.161 E2.44017
G1 X155.212 Y138.148 E2.46246
G1 X154.588 Y139.249 E2.48772
G1 X154.18 Y139.929 E2.50354
G1 X153.453 Y141.077 E2.53066
G1 X152.866 Y141.948 E2.55162
G1 X152.238 Y142.834 E2.57329
G1 X151.65 Y143.623 E2.59293
G1 X151.006 Y144.442 E2.61372
G1 X150.315 Y145.278 E2.63536
G1 X149.74 Y145.945 E2.65294
G1 X148.967 Y146.796 E2.67588
G1 X148.292 Y147.504 E2.6954
G1 X147.451 Y148.342 E2.71909
G1 X146.608 Y149.142 E2.74229
G1 X146.066 Y149.633 E2.75688
G1 X145.212 Y150.37 E2.77939
G1 X144.228 Y151.176 E2.80478
G1 X143.452 Y151.778 E2.82438
G1 X142.544 Y152.447 E2.84688
G1 X141.892 Y152.905 E2.86278
G1 X140.976 Y153.519 E2.88479
G1 X139.955 Y154.164 E2.90889
G1 X139.198 Y154.617 E2.9265
G1 X138.121 Y155.227 E2.9512
G1 X137.282 Y155.674 E2.97017
G1 X136.301 Y156.165 E2.99206
G1 X135.242 Y156.662 E3.0154
G1 X134.297 Y157.078 E3.03601
G1 X133.541 Y157.39 E3.05233
G1 X132.562 Y157.77 E3.07329
G1 X131.38 Y158.191 E3.09833
G1 X130.292 Y158.546 E3.12117
G1 X129.339 Y158.831 E3.14102
G1 X128.254 Y159.126 E3.16345
G1 X127.311 Y159.36 E3.18284
G1 X126.209 Y159.603 E3.20536
G1 X125.226 Y159.793 E3.22534
G1 X124.154 Y159.976 E3.24705
G1 X123.121 Y160.125 E3.26787
G1 X122.117 Y160.245 E3.28805
G1 X120.967 Y160.355 E3.31111
G1 X120.223 Y160.409 E3.32599
G1 X118.901 Y160.471 E3.3524
G1 X117.951 Y160.491 E3.37137
G1 X117.001 Y160.491 E3.39032
G1 X115.802 Y160.459 E3.41426
G1 X114.735 Y160.405 E3.43558
G1 X113.685 Y160.324 E3.4566
G1 X112.544 Y160.208 E3.47948
G1 X111.537 Y160.078 E3.49975
G1 X110.573 Y159.932 E3.5192
G1 X109.389 Y159.722 E3.5432
G1 X108.629 Y159.569 E3.55867
G1 X107.515 Y159.32 E3.58145
G1 X106.319 Y159.015 E3.60608
G1 X105.329 Y158.736 E3.62661
G1 X104.413 Y158.453 E3.64574
G1 X103.32 Y158.088 E3.66874
G1 X102.419 Y157.762 E3.68786
G1 X101.337 Y157.34 E3.71104
G1 X100.418 Y156.955 E3.73092
G1 X99.45 Y156.522 E3.75208
G1 X98.439 Y156.039 E3.77444
G1 X97.599 Y155.612 E3.79325
G1 X96.588 Y155.065 E3.81618
G1 X95.702 Y154.56 E3.83654
G1 X95.044 Y154.164 E3.85186
G1 X93.905 Y153.443 E3.87876
G1 X93.048 Y152.865 E3.89939
G1 X92.182 Y152.25 E3.92059
G1 X91.342 Y151.62 E3.94154
G1 X90.685 Y151.107 E3.95818
G1 X89.906 Y150.471 E3.97825
G1 X89.03 Y149.717 E4.00131
G1 X88.362 Y149.114 E4.01927
G1 X87.546 Y148.342 E4.04169
G1 X86.633 Y147.427 E4.06748
G1 X85.876 Y146.629 E4.08943
G1 X85.242 Y145.925 E4.10834
G1 X84.514 Y145.075 E4.13067
G1 X83.983 Y144.426 E4.14741
G1 X83.358 Y143.633 E4.16756
G1 X82.741 Y142.804 E4.18818
G1 X82.096 Y141.894 E4.21044
G1 X81.538 Y141.063 E4.23041
G1 X80.936 Y140.119 E4.25276
G1 X80.412 Y139.249 E4.27302
G1 X79.872 Y138.3 E4.29481
G1 X79.302 Y137.233 E4.31895
G1 X78.793 Y136.216 E4.34165
G1 X78.351 Y135.273 E4.36243
G1 X77.911 Y134.272 E4.38425
G1 X77.641 Y133.616 E4.39841
G1 X77.13 Y132.29 E4.42677
G1 X76.819 Y131.412 E4.44536
G1 X76.475 Y130.366 E4.46733
G1 X76.266 Y129.68 E4.48164
G1 X75.881 Y128.284 E4.51054
G1 X75.68 Y127.474 E4.5272
G1 X75.429 Y126.352 E4.55014
G1 X75.205 Y125.217 E4.57323
G1 X75.034 Y124.22 E4.59341
G1 X74.869 Y123.077 E4.61646
G1 X74.76 Y122.159 E4.63491
G1 X74.645 Y120.959 E4.65897
G1 X74.579 Y120.017 E4.67781
G1 X74.529 Y118.917 E4.69978
G1 X74.508 Y117.911 E4.71986
G1 X74.509 Y116.982 E4.7384
G1 X74.537 Y115.888 E4.76024
G1 X74.598 Y114.686 E4.78426
G1 X74.657 Y113.901 E4.79997
G1 X74.789 Y112.571 E4.82664
G1 X74.914 Y111.59 E4.84638
G1 X75.08 Y110.494 E4.8685
G1 X75.257 Y109.506 E4.88853
G1 X75.431 Y108.635 E4.90625
G1 X75.685 Y107.496 E4.92954
G1 X75.969 Y106.381 E4.9525
G1 X76.185 Y105.602 E4.96864
G1 X76.471 Y104.652 E4.98844
G1 X76.815 Y103.599 E5.01054
G1 X77.231 Y102.438 E5.03515
G1 X77.657 Y101.343 E5.0586
G1 X77.923 Y100.7 E5.07249
G1 X78.473 Y99.46 E5.09956
G1 X78.917 Y98.529 E5.12014
G1 X79.419 Y97.54 E5.14228
G1 X79.759 Y96.904 E5.15667
G1 X80.436 Y95.711 E5.18404
G1 X80.966 Y94.836 E5.20446
G1 X81.547 Y93.923 E5.22605
G1 X82.116 Y93.078 E5.24638
G1 X82.757 Y92.172 E5.26853
G1 X83.218 Y91.554 E5.28392
G1 X83.989 Y90.565 E5.30894
G1 X84.696 Y89.708 E5.33111
G1 X85.266 Y89.048 E5.34852
G1 X86.033 Y88.204 E5.37127
G1 X86.708 Y87.496 E5.3908
G0 F6000 X86.991 Y87.779
G1 F1200 X87.824 Y86.948 E5.41428
G1 X88.662 Y86.153 E5.43733
G1 X89.388 Y85.501 E5.4568
G1 X90.251 Y84.762 E5.47947
G1 X90.976 Y84.171 E5.49814
G1 X91.629 Y83.663 E5.51465
G1 X92.474 Y83.033 E5.53568
G1 X93.32 Y82.435 E5.55636
G1 X94.261 Y81.804 E5.57897
G1 X95.242 Y81.184 E5.60213
G1 X96.212 Y80.607 E5.62465
G1 X96.923 Y80.206 E5.64094
G1 X97.972 Y79.646 E5.66467
G1 X98.708 Y79.275 E5.68112
G1 X99.972 Y78.679 E5.70901
G1 X100.859 Y78.29 E5.72834
G1 X101.612 Y77.98 E5.74459
G1 X102.797 Y77.524 E5.76992
G1 X103.722 Y77.197 E5.7895
G1 X104.841 Y76.831 E5.813
G1 X105.771 Y76.553 E5.83237
G1 X106.855 Y76.258 E5.85479
G1 X107.812 Y76.022 E5.87446
G1 X108.856 Y75.792 E5.89579
G1 X109.789 Y75.611 E5.91476
G1 X110.955 Y75.412 E5.93836
G1 X111.905 Y75.275 E5.95752
G1 X112.993 Y75.146 E5.97938
G1 X114.057 Y75.045 E6.00071
G1 X114.996 Y74.979 E6.0195
G1 X115.912 Y74.936 E6.0378
G1 X117.055 Y74.909 E6.06061
G1 X117.979 Y74.909 E6.07905
G1 X118.964 Y74.93 E6.09871
G1 X120.248 Y74.994 E6.12437
G1 X121.262 Y75.072 E6.14466
G1 X122.143 Y75.159 E6.16233
G1 X123.373 Y75.313 E6.18707
G1 X124.346 Y75.46 E6.20671
G1 X125.495 Y75.664 E6.22999
G1 X126.486 Y75.864 E6.25017
G1 X127.497 Y76.095 E6.27086
G1 X128.458 Y76.34 E6.29066
G1 X129.596 Y76.659 E6.31424
G1 X130.459 Y76.925 E6.33226
G1 X131.569 Y77.297 E6.35562
G1 X132.217 Y77.53 E6.36937
G1 X133.249 Y77.925 E6.39142
G1 X134.417 Y78.409 E6.41665
G1 X135.137 Y78.729 E6.43237
G1 X136.373 Y79.315 E6.45967
G1 X137.018 Y79.64 E6.47408
G1 X138.162 Y80.252 E6.49997
G1 X139.073 Y80.773 E6.52092
G1 X139.968 Y81.314 E6.54179
G1 X140.831 Y81.864 E6.56221
G1 X141.723 Y82.464 E6.58366
G1 X142.589 Y83.079 E6.60486
G1 X143.422 Y83.702 E6.62562
G1 X144.229 Y84.336 E6.6461
G1 X144.833 Y84.831 E6.66168
G1 X145.874 Y85.732 E6.68916
G1 X146.599 Y86.394 E6.70875
G1 X147.378 Y87.142 E6.7303
G1 X147.886 Y87.651 E6.74465
G1 X148.826 Y88.638 E6.77185
G1 X149.445 Y89.325 E6.79031
G1 X150.007 Y89.976 E6.80747
G1 X150.858 Y91.015 E6.83427
G1 X151.326 Y91.615 E6.84946
G1 X151.928 Y92.42 E6.86952
G1 X152.719 Y93.544 E6.89694
G1 X153.246 Y94.338 E6.91596
G1 X153.856 Y95.307 E6.93881
G1 X154.364 Y96.161 E6.95864
G1 X154.853 Y97.03 E6.97854
G1 X155.387 Y98.034 E7.00123
G1 X155.829 Y98.921 E7.02101
G1 X156.276 Y99.874 E7.04202
G1 X156.717 Y100.875 E7.06385
G1 X156.982 Y101.517 E7.07771
G1 X157.482 Y102.814 E7.10545
G1 X157.814 Y103.753 E7.12532
G1 X158.153 Y104.789 E7.14708
G1 X158.435 Y105.726 E7.1666
G1 X158.716 Y106.752 E7.18783
G1 X158.929 Y107.604 E7.20536
G1 X159.189 Y108.764 E7.22908
G1 X159.355 Y109.598 E7.24605
G1 X159.527 Y110.572 E7.26579
G1 X159.697 Y111.692 E7.2884
G1 X159.844 Y112.891 E7.3125
G1 X159.948 Y113.983 E7.33439
G1 X160.024 Y115.046 E7.35566
G1 X160.07 Y116.054 E7.3758
G1 X160.092 Y117.074 E7.39616
G1 X160.089 Y118.18 E7.41823
G1 X160.06 Y119.22 E7.43899
G1 X160.008 Y120.213 E7.45883
G1 X159.923 Y121.313 E7.48085
G1 X159.821 Y122.321 E7.50107
G1 X159.72 Y123.139 E7.51752
G1 X159.532 Y124.404 E7.54304
G1 X159.398 Y125.167 E7.5585
G1 X159.18 Y126.276 E7.58105
G1 X158.926 Y127.41 E7.60424
G1 X158.656 Y128.474 E7.62615
G1 X158.366 Y129.509 E7.6476
G1 X158.065 Y130.49 E7.66808
G1 X157.697 Y131.59 E7.69123
G1 X157.497 Y132.148 E7.70306
G1 X156.979 Y133.492 E7.7318
G1 X156.711 Y134.138 E7.74576
G1 X156.168 Y135.363 E7.7725
G1 X155.826 Y136.086 E7.78846
G1 X155.382 Y136.974 E7.80827
G1 X154.864 Y137.951 E7.83034
G1 X154.245 Y139.043 E7.85539
G1 X153.842 Y139.715 E7.87103
G1 X153.121 Y140.853 E7.89791
G1 X152.534 Y141.724 E7.91887
G1 X151.917 Y142.595 E7.94017
G1 X151.335 Y143.376 E7.95961
G1 X150.698 Y144.187 E7.98019
G1 X150.012 Y145.017 E8.00168
G1 X149.444 Y145.676 E8.01904
G1 X148.677 Y146.52 E8.0418
G1 X148.009 Y147.221 E8.06112
G1 X147.176 Y148.052 E8.0846
G1 X146.339 Y148.846 E8.10763
G1 X145.805 Y149.33 E8.12201
G1 X144.958 Y150.061 E8.14434
G1 X143.983 Y150.86 E8.16949
G1 X143.215 Y151.456 E8.18889
G1 X142.314 Y152.12 E8.21123
G1 X141.669 Y152.573 E8.22696
G1 X140.762 Y153.181 E8.24875
G1 X139.749 Y153.821 E8.27266
G1 X139.001 Y154.269 E8.29006
G1 X137.933 Y154.874 E8.31455
G1 X137.103 Y155.316 E8.33332
G1 X136.131 Y155.803 E8.35502
G1 X135.081 Y156.296 E8.37816
G1 X134.144 Y156.708 E8.39859
G1 X133.396 Y157.017 E8.41474
G1 X132.428 Y157.393 E8.43546
G1 X131.256 Y157.811 E8.4603
G1 X130.177 Y158.163 E8.48295
G1 X129.234 Y158.445 E8.50259
G1 X128.158 Y158.738 E8.52484
G1 X127.225 Y158.969 E8.54402
G1 X126.133 Y159.21 E8.56634
G1 X125.159 Y159.399 E8.58614
G1 X124.097 Y159.58 E8.60764
G1 X123.073 Y159.728 E8.62829
G1 X122.079 Y159.847 E8.64826
G1 X120.938 Y159.956 E8.67114
G1 X120.204 Y160.009 E8.68582
G1 X118.893 Y160.071 E8.71202
G1 X117.943 Y160.091 E8.73098
G1 X117.011 Y160.091 E8.74958
G1 X115.822 Y160.06 E8.77331
G1 X114.766 Y160.006 E8.79441
G1 X113.725 Y159.926 E8.81525
G1 X112.595 Y159.811 E8.83792
G1 X111.597 Y159.683 E8.858
G1 X110.643 Y159.538 E8.87725
G1 X109.468 Y159.33 E8.90107
G1 X108.716 Y159.179 E8.91637
G1 X107.614 Y158.932 E8.93891
G1 X106.427 Y158.63 E8.96335
G1 X105.447 Y158.354 E8.98367
G1 X104.54 Y158.074 E9.00261
G1 X103.456 Y157.712 E9.02542
G1 X102.564 Y157.389 E9.04435
G1 X101.491 Y156.971 E9.06733
G1 X100.581 Y156.59 E9.08702
G1 X99.622 Y156.161 E9.10798
G1 X98.62 Y155.683 E9.13014
G1 X97.789 Y155.26 E9.14875
G1 X96.786 Y154.718 E9.1715
G1 X95.908 Y154.217 E9.19167
G1 X95.258 Y153.826 E9.20681
G1 X94.129 Y153.111 E9.23348
G1 X93.28 Y152.539 E9.25391
G1 X92.422 Y151.93 E9.2749
G1 X91.588 Y151.305 E9.2957
G1 X90.938 Y150.797 E9.31217
G1 X90.167 Y150.168 E9.33202
G1 X89.298 Y149.42 E9.3549
G1 X88.637 Y148.824 E9.37267
G1 X87.829 Y148.059 E9.39487
G1 X86.923 Y147.152 E9.42045
G1 X86.173 Y146.361 E9.44221
G1 X85.546 Y145.665 E9.4609
G1 X84.823 Y144.821 E9.48308
G1 X84.297 Y144.179 E9.49964
G1 X83.679 Y143.394 E9.51958
G1 X83.067 Y142.573 E9.54001
G1 X82.428 Y141.671 E9.56207
G1 X81.875 Y140.848 E9.58186
G1 X81.279 Y139.912 E9.60401
G1 X80.76 Y139.051 E9.62407
G1 X80.225 Y138.112 E9.64563
G1 X79.66 Y137.054 E9.66957
G1 X79.155 Y136.046 E9.69207
G1 X78.717 Y135.112 E9.71266
G1 X78.281 Y134.12 E9.73428
G1 X78.014 Y133.472 E9.74827
G1 X77.507 Y132.157 E9.77639
G1 X77.199 Y131.287 E9.79481
G1 X76.858 Y130.249 E9.81661
G1 X76.652 Y129.574 E9.8307
G1 X76.269 Y128.187 E9.85941
G1 X76.07 Y127.387 E9.87586
G1 X75.821 Y126.275 E9.8986
G1 X75.599 Y125.149 E9.92151
G1 X75.43 Y124.163 E9.94147
G1 X75.266 Y123.03 E9.96432
G1 X75.158 Y122.121 E9.98258
G1 X75.044 Y120.931 E10.00644
G1 X74.979 Y119.999 E10.02508
G1 X74.929 Y118.909 E10.04686
G1 X74.908 Y117.911 E10.06678
G1 X74.909 Y116.992 E10.08512
G1 X74.936 Y115.908 E10.10676
G1 X74.997 Y114.716 E10.13058
G1 X75.055 Y113.941 E10.14609
G1 X75.186 Y112.622 E10.17254
G1 X75.31 Y111.65 E10.19209
G1 X75.474 Y110.564 E10.21401
G1 X75.649 Y109.584 E10.23388
G1 X75.821 Y108.722 E10.25142
G1 X76.073 Y107.594 E10.27448
G1 X76.354 Y106.488 E10.29726
G1 X76.568 Y105.717 E10.31322
G1 X76.851 Y104.776 E10.33283
G1 X77.192 Y103.734 E10.35471
G1 X77.604 Y102.583 E10.37911
G1 X78.026 Y101.496 E10.40238
G1 X78.289 Y100.862 E10.41608
G1 X78.834 Y99.632 E10.44292
G1 X79.274 Y98.71 E10.46331
G1 X79.772 Y97.728 E10.48528
G1 X80.107 Y97.101 E10.49947
G1 X80.778 Y95.918 E10.52661
G1 X81.303 Y95.051 E10.54684
G1 X81.879 Y94.146 E10.56825
G1 X82.442 Y93.309 E10.58838
G1 X83.078 Y92.411 E10.61034
G1 X83.533 Y91.8 E10.62554
G1 X84.298 Y90.819 E10.65037
G1 X84.999 Y89.969 E10.67235
G1 X85.562 Y89.317 E10.68954
G1 X86.323 Y88.48 E10.71212
G1 X86.991 Y87.779 E10.73144
G0 F6000 X87.274 Y88.062
G1 F1200 X88.099 Y87.238 E10.75471
G1 X88.929 Y86.451 E10.77754
G1 X89.648 Y85.805 E10.79683
G1 X90.504 Y85.072 E10.81932
G1 X91.222 Y84.487 E10.8378
G1 X91.868 Y83.984 E10.85414
