;FLAVOR:Marlin
;TIME:21898
;Filament used: 22.3935m
;Layer height: 0.28
;MINX:26.5
;MINY:9.5
;MINZ:0.28
;MAXX:208.5
;MAXY:225.5
;MAXZ:19.88
;Generated with Cura_SteamEngine 5.4.0
M140 S50
M105
M190 S50
M104 S200
M105
M109 S200
M82 ;absolute extrusion mode
; Ender 3 Custom Start G-code
G92 E0 ; Reset Extruder
G28 ; Home all axes
G1 Z2.0 F3000 ; Move Z Axis up little to prevent scratching of Heat Bed
G1 X0.1 Y20 Z0.3 F5000.0 ; Move to start position
G1 X0.1 Y200.0 Z0.3 F1500.0 E15 ; Draw the first line
G1 X0.4 Y200.0 Z0.3 F5000.0 ; Move to side a little
G1 X0.4 Y20 Z0.3 F1500.0 E30 ; Draw the second line
G92 E0 ; Reset Extruder
G1 Z2.0 F3000 ; Move Z Axis up little to prevent scratching of Heat Bed
G1 X5 Y20 Z0.3 F5000.0 ; Move over to prevent blob squish
G92 E0
G92 E0
G1 F2700 E-5
;LAYER_COUNT:71
;LAYER:0
M107
G0 F6000 X26.929 Y9.5 Z0.28
;TYPE:SKIRT
G1 F2700 E0
G1 F1200 X26.716 Y10.39 E0.04261
G1 X26.57 Y11.352 E0.08792
G1 X26.512 Y12.325 E0.13331
G1 X26.501 Y13.025 E0.16591
G1 X26.5 Y222.158 E9.90402
G1 X26.514 Y222.809 E9.93434
G1 X26.612 Y223.988 E9.98942
G1 X26.79 Y224.957 E10.0353
G1 X26.94 Y225.5 E10.06153
G1 F2700 E5.06153
G0 F6000 X27.34 Y9.5
G1 F2700 E10.06153
G1 F1200 X27.105 Y10.483 E10.10859
G1 X26.966 Y11.411 E10.15229
G1 X26.911 Y12.348 E10.19599
G1 X26.901 Y13.031 E10.2278
G1 X26.9 Y222.158 E19.96563
G1 X26.913 Y222.776 E19.99441
G1 X27.011 Y223.955 E20.0495
G1 X27.183 Y224.884 E20.09349
G1 X27.355 Y225.5 E20.12327
G1 F2700 E15.12327
G0 F6000 X27.77 Y9.5
G1 F2700 E20.12327
G1 F1200 X27.704 Y9.698 E20.13299
G1 X27.494 Y10.576 E20.17503
G1 X27.362 Y11.469 E20.21706
G1 X27.31 Y12.371 E20.25913
G1 X27.301 Y13.036 E20.2901
G1 X27.3 Y222.158 E30.0277
G1 X27.313 Y222.767 E30.05606
G1 X27.41 Y223.922 E30.11003
G1 X27.576 Y224.81 E30.1521
G1 X27.77 Y225.5 E30.18547
G1 F2700 E25.18547
G0 F6000 X208.07 Y225.5
G1 F2700 E30.18547
G1 F1200 X208.286 Y224.599 E30.22862
G1 X208.431 Y223.636 E30.27396
G1 X208.488 Y222.663 E30.31935
G1 X208.499 Y221.9 E30.35488
G1 X208.5 Y12.83 E40.09005
G1 X208.485 Y12.155 E40.12149
G1 X208.39 Y11.025 E40.1743
G1 X208.213 Y10.059 E40.22003
G1 X208.059 Y9.5 E40.24703
G0 F6000 X207.645 Y9.5
G1 F1200 X207.82 Y10.132 E40.27756
G1 X207.991 Y11.059 E40.32145
G1 X208.086 Y12.189 E40.37426
G1 X208.1 Y12.83 E40.40411
G1 X208.099 Y221.895 E50.13905
G1 X208.089 Y222.64 E50.17375
G1 X208.035 Y223.577 E50.21745
G1 X207.897 Y224.506 E50.26118
G1 X207.659 Y225.5 E50.30878
G1 F2700 E45.30878
G0 F6000 X207.23 Y9.5
G1 F2700 E50.30878
G1 F1200 X207.427 Y10.205 E50.34286
G1 X207.592 Y11.093 E50.38492
G1 X207.687 Y12.223 E50.43772
G1 X207.7 Y12.83 E50.46599
G1 X207.699 Y221.89 E60.2007
G1 X207.69 Y222.617 E60.23456
G1 X207.639 Y223.519 E60.27663
G1 X207.508 Y224.413 E60.3187
G1 X207.299 Y225.291 E60.36072
G1 X207.229 Y225.5 E60.37099
G1 F2700 E55.37099
;MESH:body-front-issue-22.stl
G0 F6000 X198.165 Y222.086
G0 X197.086 Y222.086
G0 X193.7 Y218.7
;TYPE:WALL-INNER
G1 F2700 E60.37099
G1 F1200 X193.7 Y16.3 E69.79558
G1 X41.3 Y16.3 E76.89196
G1 X41.3 Y218.7 E86.31655
G1 X193.7 Y218.7 E93.41294
G0 F6000 X194.1 Y219.1
G1 F1200 X194.1 Y15.9 E102.87478
G1 X40.9 Y15.9 E110.00841
G1 X40.9 Y219.1 E119.47026
G1 X194.1 Y219.1 E126.60389
G0 F6000 X194.5 Y219.5
G1 F1200 X194.5 Y15.5 E136.10298
G1 X40.5 Y15.5 E143.27387
G1 X40.5 Y219.5 E152.77296
G1 X194.5 Y219.5 E159.94385
G0 F6000 X194.9 Y219.9
G1 F1200 X194.9 Y15.1 E169.48019
G1 X40.1 Y15.1 E176.68833
G1 X40.1 Y219.9 E186.22468
G1 X194.9 Y219.9 E193.43281
G0 F6000 X195.3 Y220.3
G1 F1200 X195.3 Y14.7 E203.00641
G1 X39.7 Y14.7 E210.2518
G1 X39.7 Y220.3 E219.8254
G1 X195.3 Y220.3 E227.07078
G0 F6000 X195.7 Y220.7
G1 F1200 X195.7 Y14.3 E236.68163
G1 X39.3 Y14.3 E243.96427
G1 X39.3 Y220.7 E253.57512
G1 X195.7 Y220.7 E260.85776
G0 F6000 X196.1 Y221.1
G1 F1200 X196.1 Y13.9 E270.50586
G1 X38.9 Y13.9 E277.82575
G1 X38.9 Y221.1 E287.47385
G1 X196.1 Y221.1 E294.79374
G0 F6000 X196.5 Y221.5
G1 F1200 X196.5 Y13.5 E304.47909
G1 X38.5 Y13.5 E311.83623
G1 X38.5 Y221.5 E321.52159
G1 X196.5 Y221.5 E328.87873
G0 F6000 X196.9 Y221.9
G1 F1200 X196.9 Y13.1 E338.60133
G1 X38.1 Y13.1 E345.99572
G1 X38.1 Y221.9 E355.71833
G1 X196.9 Y221.9 E363.11272
G1 F2700 E358.11272
G0 F6000 X196.63 Y221.63
G0 X153.815 Y218.5
G0 X155.065 Y202.305
G0 X153.815 Y199.203
G1 F2700 E363.11272
G1 F1200 X153.358 Y198.654 E363.14598
G1 X152.977 Y197.942 E363.18358
G1 X152.815 Y197.412 E363.20939
G1 X152.752 Y197.114 E363.22357
G1 F1197 X152.701 Y196.753 E363.24059
G1 F1194 X152.701 Y181.637 E363.94797
G1 F1188.1 X152.701 Y166.521 E364.65888
G1 F1182.3 X152.701 Y151.405 E365.3733
G1 F1176.5 X152.701 Y136.289 E366.09124
G1 F1170.7 X152.701 Y121.173 E366.8127
G1 F1182.3 X152.832 Y120.489 E366.84562
G1 F1200 X152.925 Y120.153 E366.86185
G1 X153.298 Y119.44 E366.89932
G1 X153.827 Y118.791 E366.93831
G1 X154.475 Y118.249 E366.97764
G1 X155.267 Y117.9 E367.01794
G1 X155.664 Y117.782 E367.03723
G1 F1185.2 X156.242 Y117.701 E367.06475
G1 F1170.7 X183.833 Y117.7 E368.38162
G1 F1185.2 X184.208 Y117.757 E368.3995
G1 F1200 X184.79 Y117.929 E368.42776
G1 X185.096 Y118.054 E368.44315
G1 X185.553 Y118.291 E368.46712
G1 X186.157 Y118.775 E368.50316
G1 X186.614 Y119.31 E368.53593
G1 X187.014 Y120.027 E368.57416
G1 X187.184 Y120.587 E368.60141
G1 X187.248 Y120.886 E368.61565
G1 X187.298 Y121.286 E368.63442
G1 X187.298 Y196.677 E372.14494
G1 X187.272 Y196.988 E372.15947
G1 X187.168 Y197.511 E372.1843
G1 X187.08 Y197.833 E372.19984
G1 X186.708 Y198.554 E372.23762
G1 X186.239 Y199.142 E372.27264
G1 X185.632 Y199.667 E372.31001
G1 X185.366 Y199.829 E372.32452
G1 X184.602 Y200.15 E372.3631
G1 X184.355 Y200.215 E372.375
G1 X183.705 Y200.295 E372.40549
G1 X156.087 Y200.291 E373.6915
G1 X155.698 Y200.218 E373.70993
G1 X155.02 Y200.006 E373.74301
G1 X154.419 Y199.687 E373.77469
G1 X153.815 Y199.203 E373.81073
G0 F6000 X154.1 Y198.92
G1 F1200 X153.706 Y198.448 E373.83936
G1 X153.35 Y197.795 E373.87399
G1 X153.164 Y197.185 E373.90369
G1 X153.102 Y196.653 E373.92863
G1 X153.106 Y121.206 E377.44176
G1 X153.224 Y120.567 E377.47201
G1 X153.294 Y120.311 E377.48437
G1 X153.632 Y119.66 E377.51853
G1 X154.118 Y119.076 E377.55391
G1 X154.568 Y118.693 E377.58142
G1 X154.795 Y118.544 E377.59406
G1 X155.425 Y118.268 E377.62609
G1 X155.734 Y118.176 E377.6411
G1 X156.276 Y118.107 E377.66655
G1 X183.821 Y118.105 E378.94916
G1 X184.113 Y118.145 E378.96288
G1 X184.674 Y118.312 E378.99014
G1 X184.912 Y118.41 E379.00212
G1 X185.336 Y118.637 E379.02452
G1 X185.877 Y119.061 E379.05652
G1 X186.305 Y119.563 E379.08724
G1 X186.638 Y120.19 E379.1203
G1 X186.835 Y120.811 E379.15063
G1 X186.898 Y121.312 E379.17415
G1 X186.898 Y196.819 E382.69007
G1 X186.749 Y197.563 E382.7254
G1 X186.647 Y197.8 E382.73741
G1 X186.365 Y198.332 E382.76545
G1 X185.95 Y198.865 E382.79691
G1 X185.327 Y199.402 E382.8352
G1 X184.388 Y199.809 E382.88286
G1 X183.681 Y199.896 E382.91603
G1 X156.117 Y199.892 E384.19952
G1 X155.814 Y199.835 E384.21388
G1 X155.218 Y199.65 E384.24294
G1 X154.646 Y199.356 E384.27289
G1 X154.1 Y198.92 E384.30542
G0 F6000 X154.378 Y198.631
G1 F1200 X154.022 Y198.194 E384.33167
G1 X153.721 Y197.642 E384.36094
G1 F1203 X153.555 Y197.095 E384.38749
G1 X153.502 Y196.636 E384.40896
G1 F1200 X153.504 Y121.239 E387.91976
G1 X153.643 Y120.51 E387.95431
G1 X153.975 Y119.866 E387.98805
G1 X154.405 Y119.355 E388.01915
G1 X154.908 Y118.93 E388.04981
G1 X155.706 Y118.581 E388.09037
G1 X156.313 Y118.505 E388.11885
G1 X183.921 Y118.505 E389.4044
G1 X184.646 Y118.721 E389.43962
G1 X185.116 Y118.972 E389.46443
G1 X185.619 Y119.367 E389.49421
G1 X185.971 Y119.788 E389.51977
G1 X186.27 Y120.345 E389.5492
G1 X186.443 Y120.9 E389.57627
G1 X186.498 Y121.337 E389.59678
G1 X186.498 Y196.78 E393.10972
G1 X186.354 Y197.497 E393.14378
G1 X186.029 Y198.114 E393.17625
G1 X185.63 Y198.614 E393.20604
G1 X185.085 Y199.073 E393.23921
G1 X184.281 Y199.42 E393.27999
G1 X183.656 Y199.497 E393.30931
G1 X156.059 Y199.493 E394.59434
G1 X155.365 Y199.278 E394.62818
G1 X154.902 Y199.039 E394.65244
G1 X154.378 Y198.631 E394.68336
G0 F6000 X154.664 Y198.343
G1 F1200 X154.381 Y198.01 E394.70371
G1 X154.106 Y197.514 E394.73012
G1 X153.949 Y197.017 E394.75439
G1 X153.902 Y196.619 E394.77305
G1 X153.903 Y121.273 E398.28147
G1 X154.021 Y120.661 E398.3105
G1 X154.309 Y120.09 E398.34028
G1 X154.714 Y119.612 E398.36945
G1 X155.125 Y119.27 E398.39435
G1 X155.815 Y118.97 E398.42938
G1 X156.349 Y118.904 E398.45443
G1 X183.865 Y118.905 E399.73569
G1 X184.494 Y119.094 E399.76628
G1 X184.896 Y119.306 E399.78744
G1 X185.342 Y119.663 E399.81404
G1 X185.613 Y119.982 E399.83353
G1 X185.901 Y120.501 E399.86117
G1 X186.05 Y120.981 E399.88457
G1 X186.094 Y121.331 E399.901
G1 X186.098 Y196.743 E403.4125
G1 X185.969 Y197.358 E403.44176
G1 X185.694 Y197.896 E403.46989
G1 X185.344 Y198.335 E403.49603
G1 X184.868 Y198.736 E403.52502
G1 X184.183 Y199.03 E403.55973
G1 X183.668 Y199.094 E403.58389
G1 X156.124 Y199.094 E404.86646
G1 X155.512 Y198.906 E404.89627
G1 X155.114 Y198.701 E404.91711
G1 X154.664 Y198.343 E404.94389
G1 F2700 E399.94389
G0 F6000 X154.435 Y198.536
G0 X148.65 Y199.337
G0 X120.85 Y200.261
G1 F2700 E404.94389
G1 F1200 X120.112 Y200.046 E404.97968
G1 X119.76 Y199.899 E404.99744
G1 X119.016 Y199.392 E405.03937
G1 X118.742 Y199.123 E405.05725
G1 X118.342 Y198.622 E405.0871
G1 X117.977 Y197.944 E405.12295
G1 X117.816 Y197.413 E405.14879
G1 X117.752 Y197.114 E405.16303
G1 F1197 X117.701 Y196.753 E405.18005
G1 F1194 X117.701 Y181.637 E405.88743
G1 F1188.1 X117.701 Y166.521 E406.59833
G1 F1182.3 X117.701 Y151.405 E407.31276
G1 F1176.5 X117.701 Y136.289 E408.0307
G1 F1170.7 X117.701 Y121.173 E408.75216
G1 F1182.3 X117.832 Y120.489 E408.78507
G1 F1200 X117.923 Y120.158 E408.80106
G1 X118.372 Y119.287 E408.84669
G1 X119.11 Y118.515 E408.89642
G1 X119.399 Y118.332 E408.91235
G1 X119.923 Y118.048 E408.9401
G1 X120.175 Y117.937 E408.95292
G1 X120.703 Y117.784 E408.97852
G1 F1185.2 X121.229 Y117.701 E409.00363
G1 F1170.7 X148.833 Y117.7 E410.32112
G1 F1185.2 X149.208 Y117.757 E410.339
G1 F1200 X149.79 Y117.929 E410.36726
G1 X150.096 Y118.054 E410.38265
G1 X150.512 Y118.27 E410.40448
G1 X151.142 Y118.758 E410.44158
G1 X151.617 Y119.313 E410.4756
G1 X152.023 Y120.056 E410.51502
G1 X152.184 Y120.587 E410.54086
G1 F1197 X152.249 Y120.886 E410.55515
G1 F1179.4 X152.292 Y121.181 E410.56927
G1 F1170.7 X152.294 Y146.406 E411.77322
G1 F1176.5 X152.296 Y171.631 E412.97129
G1 F1182.3 X152.299 Y196.856 E414.16349
G1 F1194 X152.168 Y197.511 E414.19475
G1 F1200 X152.077 Y197.841 E414.21069
G1 X151.703 Y198.555 E414.24822
G1 X151.228 Y199.155 E414.28385
G1 X150.599 Y199.693 E414.3224
G1 X150.318 Y199.848 E414.33734
G1 X149.623 Y200.143 E414.3725
G1 X149.367 Y200.218 E414.38492
G1 X148.705 Y200.295 E414.41595
G1 X121.094 Y200.291 E415.70163
G1 X120.85 Y200.261 E415.71308
G0 F6000 X121.023 Y199.892
G1 F1200 X120.199 Y199.654 E415.75302
G1 X119.888 Y199.502 E415.76914
G1 X119.265 Y199.079 E415.8042
G1 X119.052 Y198.869 E415.81813
G1 X118.683 Y198.41 E415.84555
G1 X118.351 Y197.799 E415.87793
G1 X118.164 Y197.186 E415.90777
G1 X118.102 Y196.653 E415.93276
G1 X118.106 Y121.206 E419.44589
G1 X118.224 Y120.567 E419.47615
G1 X118.294 Y120.311 E419.4885
G1 X118.629 Y119.661 E419.52255
G1 X118.771 Y119.447 E419.53451
G1 X119.322 Y118.871 E419.57163
G1 X119.589 Y118.684 E419.58681
G1 X120.228 Y118.337 E419.62067
G1 X120.794 Y118.173 E419.64811
G1 X121.275 Y118.106 E419.67072
G1 X148.821 Y118.105 E420.95338
G1 X149.113 Y118.145 E420.9671
G1 X149.674 Y118.312 E420.99436
G1 X149.912 Y118.41 E421.00634
G1 X150.336 Y118.637 E421.02874
G1 X150.876 Y119.06 E421.06068
G1 X151.279 Y119.527 E421.0894
G1 X151.649 Y120.202 E421.12524
G1 X151.836 Y120.815 E421.15509
G1 X151.897 Y121.347 E421.18002
G1 F1203 X151.893 Y196.794 E424.68437
G1 X151.776 Y197.433 E424.71454
G1 F1200 X151.705 Y197.688 E424.72686
G1 X151.368 Y198.333 E424.76075
G1 X150.936 Y198.88 E424.79321
G1 X150.439 Y199.304 E424.82363
G1 X150.213 Y199.454 E424.83626
G1 X149.384 Y199.813 E424.87832
G1 X148.681 Y199.896 E424.91128
G1 X121.023 Y199.892 E426.19916
G0 F6000 X121.092 Y199.493
G1 F1200 X120.238 Y199.248 E426.24053
G1 X119.444 Y198.719 E426.28495
G1 X119.041 Y198.219 E426.31486
G1 X118.721 Y197.643 E426.34554
G1 F1203 X118.556 Y197.097 E426.37203
G1 X118.502 Y196.636 E426.39359
G1 F1200 X118.504 Y121.239 E429.90439
G1 X118.644 Y120.504 E429.93923
G1 X119.058 Y119.716 E429.98068
G1 X119.651 Y119.105 E430.02033
G1 X120.389 Y118.706 E430.05939
G1 X120.885 Y118.563 E430.08343
G1 X121.31 Y118.505 E430.1034
G1 X148.921 Y118.505 E431.38908
G1 X149.646 Y118.721 E431.42431
G1 X150.116 Y118.972 E431.44912
G1 X150.63 Y119.379 E431.47965
G1 X150.972 Y119.797 E431.5048
G1 X151.28 Y120.36 E431.53468
G1 X151.443 Y120.897 E431.56081
G1 X151.498 Y121.364 E431.58271
G1 X151.496 Y196.796 E435.09514
G1 X151.354 Y197.498 E435.12849
G1 X151.012 Y198.141 E435.1624
G1 X150.646 Y198.602 E435.18981
G1 X150.097 Y199.07 E435.2234
G1 X149.267 Y199.422 E435.26538
G1 X148.656 Y199.497 E435.29404
G1 X121.092 Y199.493 E436.57754
G0 F6000 X121.143 Y199.094
G1 F1200 X120.386 Y198.873 E436.61426
G1 X119.72 Y198.424 E436.65166
G1 X119.371 Y197.993 E436.67749
G1 X119.106 Y197.514 E436.70298
G1 X118.949 Y197.019 E436.72716
G1 X118.902 Y196.619 E436.74591
G1 X118.903 Y121.273 E440.25434
G1 X119.021 Y120.661 E440.28336
G1 X119.363 Y119.982 E440.31876
G1 X119.87 Y119.448 E440.35305
G1 X120.541 Y119.077 E440.38875
G1 X120.976 Y118.952 E440.40982
G1 X121.345 Y118.904 E440.42715
G1 X148.865 Y118.905 E441.7086
G1 X149.494 Y119.094 E441.73918
G1 X149.896 Y119.306 E441.76034
G1 X150.321 Y119.643 E441.7856
G1 X150.638 Y120.017 E441.80843
G1 X150.894 Y120.486 E441.83331
G1 X151.049 Y120.975 E441.85719
G1 X151.098 Y121.381 E441.87624
G1 F1203 X151.096 Y196.727 E445.37589
G1 X150.979 Y197.338 E445.40479
G1 X150.697 Y197.898 E445.43391
G1 X150.336 Y198.343 E445.46052
G1 F1200 X149.859 Y198.74 E445.48942
G1 X149.173 Y199.032 E445.52414
G1 X148.632 Y199.097 E445.54951
G1 X121.143 Y199.094 E446.82951
G0 F6000 X121.142 Y199.395
G0 X114.247 Y200.227
G1 F1200 X113.712 Y200.295 E446.85463
G1 X86.094 Y200.291 E448.14063
G1 X85.85 Y200.261 E448.15208
G1 X85.112 Y200.046 E448.18788
G1 X84.76 Y199.899 E448.20564
G1 X84.016 Y199.392 E448.24756
G1 X83.742 Y199.123 E448.26544
G1 X83.342 Y198.622 E448.29529
G1 X82.977 Y197.944 E448.33115
G1 X82.816 Y197.413 E448.35698
G1 X82.752 Y197.114 E448.37122
G1 F1197 X82.701 Y196.753 E448.38824
G1 F1194 X82.701 Y181.637 E449.09562
G1 F1188.1 X82.701 Y166.521 E449.80653
G1 F1182.3 X82.701 Y151.405 E450.52095
G1 F1176.5 X82.701 Y136.289 E451.23889
G1 F1170.7 X82.701 Y121.173 E451.96035
G1 F1182.3 X82.832 Y120.489 E451.99327
G1 F1200 X82.923 Y120.158 E452.00925
G1 X83.372 Y119.287 E452.05488
G1 X84.11 Y118.515 E452.10461
G1 X84.399 Y118.332 E452.12054
G1 X84.923 Y118.048 E452.14829
G1 X85.175 Y117.937 E452.16111
G1 X85.703 Y117.784 E452.18671
G1 F1185.2 X86.229 Y117.701 E452.21182
G1 F1167.9 X113.84 Y117.7 E453.53286
G1 F1182.3 X114.159 Y117.739 E453.54805
G1 F1200 X114.851 Y117.942 E453.58163
G1 X115.109 Y118.039 E453.59446
G1 X115.349 Y118.175 E453.60731
G1 X116.091 Y118.682 E453.64915
G1 X116.631 Y119.331 E453.68847
G1 X117.023 Y120.055 E453.7268
G1 X117.184 Y120.587 E453.75268
G1 F1197 X117.249 Y120.886 E453.76697
G1 F1179.4 X117.292 Y121.181 E453.78109
G1 F1170.7 X117.294 Y146.409 E454.98518
G1 F1176.5 X117.296 Y171.637 E456.1834
G1 F1182.3 X117.299 Y196.865 E457.37574
G1 F1194 X117.168 Y197.511 E457.40659
G1 F1200 X117.077 Y197.841 E457.42253
G1 X116.724 Y198.529 E457.45853
G1 X116.541 Y198.804 E457.47391
G1 X116.045 Y199.33 E457.50758
G1 X115.748 Y199.59 E457.52596
G1 X114.896 Y200.046 E457.57096
G1 X114.247 Y200.227 E457.60233
G0 F6000 X114.167 Y199.835
G1 F1200 X113.688 Y199.896 E457.62481
G1 X86.023 Y199.892 E458.91301
G1 X85.199 Y199.654 E458.95295
G1 X84.888 Y199.502 E458.96907
G1 X84.265 Y199.079 E459.00413
G1 X84.052 Y198.869 E459.01806
G1 X83.683 Y198.41 E459.04548
G1 X83.351 Y197.799 E459.07786
G1 X83.164 Y197.186 E459.10771
G1 X83.102 Y196.653 E459.13269
G1 X83.106 Y121.206 E462.64582
