;FLAVOR:Marlin
;TIME:12938
;Filament used: 1.26845m
;Layer height: 0.12
;MINX:26.561
;MINY:73.488
;MINZ:0.12
;MAXX:208.436
;MAXY:210.395
;MAXZ:2.04
;Generated with Cura_SteamEngine 5.4.0
M140 S50
M105
M190 S50
M104 S200
M105
M109 S200
M82 ;absolute extrusion mode
; Ender 3 Custom Start G-code
G92 E0 ; Reset Extruder
G28 ; Home all axes
G1 Z2.0 F3000 ; Move Z Axis up little to prevent scratching of Heat Bed
G1 X0.1 Y20 Z0.3 F5000.0 ; Move to start position
G1 X0.1 Y200.0 Z0.3 F1500.0 E15 ; Draw the first line
G1 X0.4 Y200.0 Z0.3 F5000.0 ; Move to side a little
G1 X0.4 Y20 Z0.3 F1500.0 E30 ; Draw the second line
G92 E0 ; Reset Extruder
G1 Z2.0 F3000 ; Move Z Axis up little to prevent scratching of Heat Bed
G1 X5 Y20 Z0.3 F5000.0 ; Move over to prevent blob squish
G92 E0
G92 E0
G1 F2700 E-5
;LAYER_COUNT:17
;LAYER:0
M107
G0 F6000 X34.834 Y105.143 Z0.12
;TYPE:SKIRT
G1 F2700 E0
G1 F1200 X35.763 Y104.855 E0.01941
G1 X36.714 Y104.649 E0.03883
G1 X37.61 Y104.534 E0.05686
G1 X38.376 Y104.494 E0.07216
G1 X39.234 Y104.48 E0.08929
G1 X112.002 Y104.479 E1.54145
G1 X114.586 Y104.442 E1.59302
G1 X117.154 Y104.333 E1.64432
G1 X119.628 Y104.158 E1.69381
G1 X122.1 Y103.913 E1.74338
G1 X124.663 Y103.585 E1.79495
G1 X127.126 Y103.198 E1.8447
G1 X129.583 Y102.741 E1.89458
G1 X132.047 Y102.213 E1.94486
G1 X134.458 Y101.619 E1.99442
G1 X136.967 Y100.931 E2.04634
G1 X139.295 Y100.217 E2.09493
G1 X141.74 Y99.392 E2.14642
G1 X144.078 Y98.53 E2.19615
G1 X146.401 Y97.597 E2.24611
G1 X148.735 Y96.582 E2.2969
G1 X150.998 Y95.521 E2.34678
G1 X153.241 Y94.391 E2.3969
G1 X155.486 Y93.18 E2.4478
G1 X157.625 Y91.945 E2.49709
G1 X159.806 Y90.602 E2.54821
G1 X161.9 Y89.231 E2.59816
G1 X163.962 Y87.794 E2.64831
G1 X165.986 Y86.3 E2.69851
G1 X168.009 Y84.714 E2.74981
G1 X170.058 Y83.041 E2.8026
G1 X170.89 Y82.396 E2.82361
G1 X171.802 Y81.723 E2.84623
G1 X172.619 Y81.151 E2.86613
G1 X173.38 Y80.644 E2.88438
G1 X174.188 Y80.128 E2.90351
G1 X175.406 Y79.398 E2.93185
G1 X176.381 Y78.851 E2.95416
G1 X177.29 Y78.368 E2.9747
G1 X178.245 Y77.891 E2.99601
G1 X179.243 Y77.423 E3.018
G1 X180.229 Y76.989 E3.0395
G1 X181.227 Y76.578 E3.06104
G1 X182.248 Y76.189 E3.08284
G1 X183.258 Y75.831 E3.10423
G1 X184.027 Y75.578 E3.12038
G1 X185.045 Y75.264 E3.14164
G1 X186.385 Y74.895 E3.16938
G1 X187.175 Y74.699 E3.18562
G1 X188.44 Y74.416 E3.21149
G1 X189.549 Y74.198 E3.23405
G1 X190.553 Y74.026 E3.25437
G1 X191.645 Y73.868 E3.27639
G1 X192.736 Y73.737 E3.29832
G1 X193.77 Y73.637 E3.31905
G1 X194.647 Y73.572 E3.3366
G1 X195.949 Y73.51 E3.36261
G1 X196.693 Y73.492 E3.37747
G1 X197.439 Y73.488 E3.39235
G1 X198.411 Y73.532 E3.41177
G1 X199.306 Y73.65 E3.42979
G1 X200.327 Y73.878 E3.45066
G1 X201.254 Y74.176 E3.47009
G1 X202.15 Y74.555 E3.48951
G1 X203.011 Y75.012 E3.50896
G1 X203.799 Y75.523 E3.5277
G1 X204.593 Y76.144 E3.54782
G1 X205.304 Y76.811 E3.56728
G1 X205.952 Y77.538 E3.58671
G1 X206.513 Y78.29 E3.60543
G1 X207.044 Y79.15 E3.6256
G1 X207.477 Y80.019 E3.64498
G1 X207.822 Y80.892 E3.66371
G1 X208.099 Y81.827 E3.68317
G1 X208.297 Y82.815 E3.70328
G1 X208.401 Y83.741 E3.72188
G1 X208.425 Y84.312 E3.73328
G1 X208.435 Y84.946 E3.74593
G1 X208.436 Y149.752 E5.03921
G1 X208.424 Y150.641 E5.05695
G1 X208.367 Y151.614 E5.0764
G1 X208.222 Y152.577 E5.09584
G1 X207.993 Y153.523 E5.11526
G1 X207.682 Y154.447 E5.13472
G1 X207.29 Y155.338 E5.15414
G1 X206.822 Y156.19 E5.17354
G1 X206.3 Y156.971 E5.19229
G1 X205.667 Y157.756 E5.21241
G1 X205.042 Y158.407 E5.23042
G1 X204.253 Y159.095 E5.25131
G1 X203.493 Y159.645 E5.27003
G1 X202.626 Y160.162 E5.29018
G1 X201.748 Y160.584 E5.30962
G1 X200.837 Y160.926 E5.32904
G1 X199.899 Y161.187 E5.34847
G1 X199.002 Y161.356 E5.36668
G1 X198.27 Y161.462 E5.38144
G1 X195.735 Y161.862 E5.43266
G1 X193.301 Y162.317 E5.48207
G1 X190.768 Y162.865 E5.53379
G1 X188.393 Y163.451 E5.58261
G1 X185.939 Y164.127 E5.6334
G1 X183.533 Y164.867 E5.68364
G1 X181.136 Y165.678 E5.73413
G1 X178.767 Y166.555 E5.78455
G1 X176.493 Y167.471 E5.83347
G1 X174.129 Y168.503 E5.88494
G1 X171.832 Y169.582 E5.93559
G1 X169.623 Y170.698 E5.98498
G1 X167.387 Y171.907 E6.03571
G1 X165.245 Y173.145 E6.08508
G1 X163.081 Y174.48 E6.13582
G1 X160.963 Y175.87 E6.18638
G1 X158.921 Y177.294 E6.23606
G1 X156.903 Y178.791 E6.2862
G1 X154.896 Y180.366 E6.33711
G1 X152.963 Y181.974 E6.38729
G1 X151.093 Y183.623 E6.43704
G1 X149.228 Y185.361 E6.48792
G1 X147.468 Y187.1 E6.53729
G1 X145.695 Y188.952 E6.58846
G1 X144.027 Y190.795 E6.63806
G1 X142.358 Y192.749 E6.68934
G1 X140.582 Y194.925 E6.7454
G1 X139.619 Y196.043 E6.77484
G1 X139.026 Y196.693 E6.7924
G1 X138.174 Y197.58 E6.81695
G1 X137.397 Y198.35 E6.83878
G1 X136.888 Y198.833 E6.85278
G1 X135.934 Y199.698 E6.87848
G1 X135.139 Y200.38 E6.89938
G1 X134.325 Y201.044 E6.92034
G1 X133.43 Y201.738 E6.94294
G1 X132.828 Y202.182 E6.95787
G1 X131.77 Y202.926 E6.98368
G1 X130.914 Y203.494 E7.00418
G1 X129.973 Y204.088 E7.02639
G1 X129.048 Y204.638 E7.04787
G1 X128.169 Y205.131 E7.06798
G1 X127.263 Y205.612 E7.08845
G1 X126.484 Y206.005 E7.10586
G1 X125.34 Y206.545 E7.13111
G1 X124.399 Y206.959 E7.15162
G1 X123.574 Y207.299 E7.16943
G1 X122.44 Y207.737 E7.19369
G1 X121.34 Y208.126 E7.21697
G1 X120.508 Y208.398 E7.23444
G1 X119.263 Y208.772 E7.26038
G1 X118.383 Y209.01 E7.27858
G1 X117.353 Y209.266 E7.29976
G1 X116.361 Y209.484 E7.32003
G1 X115.475 Y209.66 E7.33805
G1 X114.265 Y209.87 E7.36256
G1 X113.207 Y210.023 E7.38389
G1 X112.116 Y210.154 E7.40582
G1 X111.146 Y210.247 E7.42527
G1 X110.283 Y210.311 E7.44254
G1 X109.032 Y210.371 E7.46753
G1 X107.869 Y210.395 E7.49074
G1 X106.867 Y210.392 E7.51074
G1 X105.748 Y210.359 E7.53308
G1 X104.816 Y210.31 E7.55171
G1 X103.652 Y210.219 E7.57501
G1 X102.66 Y210.118 E7.5949
G1 X101.798 Y210.011 E7.61224
G1 X100.502 Y209.816 E7.63839
G1 X99.576 Y209.651 E7.65716
G1 X98.469 Y209.426 E7.67971
G1 X97.391 Y209.18 E7.70177
G1 X96.519 Y208.957 E7.71973
G1 X95.696 Y208.73 E7.73677
G1 X94.307 Y208.305 E7.76576
G1 X93.388 Y207.996 E7.78511
G1 X92.63 Y207.723 E7.80118
G1 X91.68 Y207.358 E7.82149
G1 X90.397 Y206.826 E7.84921
G1 X89.448 Y206.4 E7.86997
G1 X88.764 Y206.076 E7.88507
G1 X87.616 Y205.494 E7.91076
G1 X86.576 Y204.933 E7.93434
G1 X85.773 Y204.471 E7.95283
G1 X84.824 Y203.897 E7.97496
G1 X83.923 Y203.322 E7.99629
G1 X83.088 Y202.758 E8.0164
G1 X82.184 Y202.115 E8.03854
G1 X81.563 Y201.651 E8.05401
G1 X80.514 Y200.831 E8.08058
G1 X79.725 Y200.179 E8.10101
G1 X79.021 Y199.565 E8.11965
G1 X78.159 Y198.78 E8.14291
G1 X77.609 Y198.256 E8.15807
G1 X76.702 Y197.35 E8.18366
G1 X75.912 Y196.514 E8.20661
G1 X75.301 Y195.835 E8.22484
G1 X74.53 Y194.936 E8.24847
G1 X73.913 Y194.178 E8.26798
G1 X73.271 Y193.35 E8.28889
G1 X72.769 Y192.674 E8.30569
G1 X72.017 Y191.605 E8.33177
G1 X71.417 Y190.702 E8.35341
G1 X70.888 Y189.858 E8.37329
G1 X70.347 Y188.948 E8.39441
G1 X69.911 Y188.179 E8.41205
G1 X69.346 Y187.122 E8.43597
G1 X68.951 Y186.338 E8.45349
G1 X68.399 Y185.166 E8.47934
G1 X67.965 Y184.179 E8.50086
G1 X67.697 Y183.528 E8.51491
G1 X67.193 Y182.222 E8.54285
G1 X66.853 Y181.262 E8.56317
G1 X66.531 Y180.277 E8.58385
G1 X66.223 Y179.249 E8.60527
G1 X65.672 Y177.225 E8.64713
G1 X64.973 Y174.797 E8.69755
G1 X64.214 Y172.419 E8.74736
G1 X63.375 Y170.023 E8.79802
G1 X62.481 Y167.677 E8.84813
G1 X61.51 Y165.341 E8.89861
G1 X60.486 Y163.06 E8.94851
G1 X59.37 Y160.749 E8.99972
G1 X58.231 Y158.555 E9.04905
G1 X57.02 Y156.372 E9.09887
G1 X55.71 Y154.161 E9.15016
G1 X54.368 Y152.036 E9.20031
G1 X52.981 Y149.97 E9.24997
G1 X51.511 Y147.91 E9.30047
G1 X50.001 Y145.915 E9.3504
G1 X48.431 Y143.96 E9.40044
G1 X46.795 Y142.034 E9.45087
G1 X45.107 Y140.16 E9.5012
G1 X43.36 Y138.326 E9.55175
G1 X41.596 Y136.576 E9.60134
G1 X39.725 Y134.821 E9.65253
G1 X37.863 Y133.173 E9.70215
G1 X35.918 Y131.547 E9.75274
G1 X33.946 Y129.989 E9.8029
G1 X31.384 Y128.082 E9.86663
G1 X30.658 Y127.489 E9.88534
G1 X29.935 Y126.783 E9.90551
G1 X29.347 Y126.098 E9.92352
G1 X28.78 Y125.308 E9.94293
G1 X28.179 Y124.272 E9.96683
G1 X27.754 Y123.438 E9.98551
G1 X27.367 Y122.583 E10.00424
G1 X27.033 Y121.629 E10.02441
G1 X26.795 Y120.684 E10.04386
G1 X26.643 Y119.724 E10.06325
G1 X26.576 Y118.8 E10.08174
G1 X26.561 Y118.143 E10.09486
G1 X26.562 Y116.973 E10.1182
G1 X26.575 Y116.256 E10.13251
G1 X26.636 Y115.292 E10.15179
G1 X26.756 Y114.448 E10.1688
G1 X26.953 Y113.493 E10.18826
G1 X27.232 Y112.561 E10.20768
G1 X27.58 Y111.688 E10.22643
G1 X28.035 Y110.788 E10.24656
G1 X28.55 Y109.96 E10.26602
G1 X29.114 Y109.211 E10.28473
G1 X29.789 Y108.462 E10.30485
G1 X30.471 Y107.826 E10.32346
G1 X30.983 Y107.415 E10.33656
G1 X31.626 Y106.929 E10.35264
G1 X32.247 Y106.485 E10.36788
G1 X33.067 Y105.963 E10.38728
G1 X33.932 Y105.513 E10.40674
G1 X34.834 Y105.143 E10.42619
G0 F6000 X34.953 Y105.525
G1 F1200 X35.848 Y105.246 E10.4449
G1 X36.765 Y105.046 E10.46363
G1 X37.661 Y104.931 E10.48166
G1 X38.383 Y104.894 E10.49608
G1 X39.234 Y104.88 E10.51307
G1 X112.008 Y104.879 E11.96535
G1 X114.603 Y104.842 E12.01714
G1 X117.171 Y104.733 E12.06844
G1 X119.659 Y104.557 E12.11821
G1 X122.151 Y104.31 E12.16819
G1 X124.714 Y103.982 E12.21975
G1 X127.188 Y103.593 E12.26973
G1 X129.669 Y103.132 E12.32009
G1 X132.131 Y102.604 E12.37034
G1 X134.564 Y102.005 E12.42034
G1 X137.073 Y101.316 E12.47226
G1 X139.423 Y100.596 E12.52131
G1 X141.868 Y99.771 E12.57281
G1 X144.227 Y98.901 E12.62298
G1 X146.561 Y97.964 E12.67317
G1 X148.895 Y96.949 E12.72397
G1 X151.168 Y95.883 E12.77407
G1 X153.431 Y94.743 E12.82463
G1 X155.676 Y93.532 E12.87554
G1 X157.835 Y92.286 E12.92528
G1 X160.016 Y90.943 E12.9764
G1 X162.119 Y89.566 E13.02656
G1 X164.2 Y88.116 E13.07718
G1 X166.224 Y86.622 E13.12738
G1 X168.256 Y85.029 E13.17891
G1 X170.303 Y83.357 E13.23165
G1 X171.128 Y82.718 E13.25248
G1 X172.031 Y82.051 E13.27488
G1 X172.841 Y81.484 E13.29461
G1 X173.595 Y80.981 E13.3127
G1 X174.394 Y80.471 E13.33161
G1 X175.602 Y79.747 E13.35972
G1 X176.569 Y79.204 E13.38185
G1 X177.469 Y78.726 E13.40219
G1 X178.415 Y78.253 E13.42329
G1 X179.404 Y77.789 E13.44509
G1 X180.381 Y77.359 E13.4664
G1 X181.37 Y76.952 E13.48774
G1 X182.382 Y76.566 E13.50935
G1 X183.383 Y76.211 E13.53055
G1 X184.145 Y75.96 E13.54656
G1 X185.151 Y75.65 E13.56757
G1 X186.482 Y75.283 E13.59512
G1 X187.262 Y75.089 E13.61116
G1 X188.517 Y74.808 E13.63682
G1 X189.616 Y74.592 E13.65918
G1 X190.61 Y74.422 E13.6793
G1 X191.693 Y74.265 E13.70114
G1 X192.774 Y74.135 E13.72287
G1 X193.799 Y74.036 E13.74342
G1 X194.666 Y73.972 E13.76077
G1 X195.959 Y73.91 E13.7866
G1 X196.695 Y73.892 E13.80129
G1 X197.422 Y73.888 E13.8158
G1 X198.359 Y73.929 E13.83452
G1 X199.254 Y74.047 E13.85253
G1 X200.205 Y74.259 E13.87197
G1 X201.099 Y74.545 E13.89071
G1 X201.963 Y74.909 E13.90942
G1 X202.793 Y75.348 E13.92815
G1 X203.581 Y75.859 E13.9469
G1 X204.32 Y76.436 E13.96561
G1 X205.006 Y77.078 E13.98436
G1 X205.631 Y77.777 E14.00307
G1 X206.192 Y78.529 E14.02179
G1 X206.686 Y79.329 E14.04055
G1 X207.105 Y80.167 E14.05925
G1 X207.438 Y81.006 E14.07727
G1 X207.715 Y81.941 E14.09673
G1 X207.899 Y82.86 E14.11543
G1 X208.003 Y83.786 E14.13403
G1 X208.025 Y84.318 E14.14465
G1 X208.035 Y84.946 E14.15718
G1 X208.036 Y149.747 E15.45036
G1 X208.025 Y150.618 E15.46774
G1 X207.971 Y151.555 E15.48647
G1 X207.833 Y152.484 E15.50521
G1 X207.614 Y153.396 E15.52393
G1 X207.316 Y154.286 E15.54266
G1 X206.939 Y155.146 E15.5614
G1 X206.489 Y155.968 E15.5801
G1 X205.967 Y156.749 E15.59885
G1 X205.378 Y157.479 E15.61757
G1 X204.753 Y158.13 E15.63558
G1 X204.018 Y158.771 E15.65504
G1 X203.258 Y159.321 E15.67376
G1 X202.452 Y159.802 E15.69249
G1 X201.607 Y160.21 E15.71122
G1 X200.729 Y160.541 E15.72994
G1 X199.825 Y160.794 E15.74868
G1 X198.945 Y160.96 E15.76655
G1 X198.213 Y161.066 E15.78131
G1 X195.673 Y161.467 E15.83262
G1 X193.216 Y161.926 E15.8825
G1 X190.683 Y162.474 E15.93422
G1 X188.287 Y163.065 E15.98347
G1 X185.833 Y163.742 E16.03427
G1 X183.405 Y164.488 E16.08496
G1 X181.008 Y165.299 E16.13546
G1 X178.628 Y166.18 E16.1861
G1 X176.333 Y167.104 E16.23548
G1 X173.969 Y168.136 E16.28695
G1 X171.662 Y169.22 E16.33782
G1 X169.433 Y170.346 E16.38765
G1 X167.197 Y171.555 E16.43838
G1 X165.045 Y172.799 E16.48799
G1 X162.871 Y174.14 E16.53896
G1 X160.734 Y175.542 E16.58996
G1 X158.692 Y176.966 E16.63964
G1 X156.656 Y178.476 E16.69023
G1 X154.649 Y180.051 E16.74114
G1 X152.707 Y181.667 E16.79156
G1 X150.82 Y183.33 E16.84175
G1 X148.955 Y185.068 E16.89263
G1 X147.187 Y186.815 E16.94223
G1 X145.406 Y188.675 E16.99362
G1 X143.73 Y190.527 E17.04347
G1 X142.054 Y192.489 E17.09496
G1 X140.279 Y194.664 E17.15098
G1 X139.324 Y195.773 E17.18019
G1 X138.737 Y196.416 E17.19756
G1 X137.893 Y197.296 E17.2219
G1 X137.121 Y198.06 E17.24357
G1 X136.619 Y198.537 E17.25739
G1 X135.674 Y199.394 E17.28285
G1 X134.886 Y200.07 E17.30357
G1 X134.08 Y200.728 E17.32433
G1 X133.193 Y201.416 E17.34673
G1 X132.598 Y201.855 E17.36149
G1 X131.549 Y202.593 E17.38709
G1 X130.701 Y203.156 E17.4074
G1 X129.768 Y203.744 E17.42941
G1 X128.852 Y204.289 E17.45068
G1 X127.982 Y204.778 E17.47059
G1 X127.083 Y205.255 E17.4909
G1 X126.313 Y205.643 E17.50811
G1 X125.179 Y206.179 E17.53314
G1 X124.246 Y206.589 E17.55348
G1 X123.43 Y206.926 E17.5711
G1 X122.306 Y207.36 E17.59514
G1 X121.216 Y207.746 E17.61822
G1 X120.393 Y208.015 E17.6355
G1 X119.158 Y208.386 E17.66123
G1 X118.287 Y208.622 E17.67924
G1 X117.267 Y208.875 E17.70021
G1 X116.283 Y209.092 E17.72032
G1 X115.407 Y209.266 E17.73814
G1 X114.208 Y209.474 E17.76243
G1 X113.159 Y209.626 E17.78358
G1 X112.078 Y209.756 E17.80531
G1 X111.117 Y209.848 E17.82457
G1 X110.264 Y209.911 E17.84164
G1 X109.024 Y209.971 E17.86642
G1 X107.87 Y209.995 E17.88945
G1 X106.879 Y209.992 E17.90923
G1 X105.769 Y209.96 E17.93139
G1 X104.847 Y209.911 E17.94981
G1 X103.692 Y209.821 E17.97293
G1 X102.709 Y209.721 E17.99265
G1 X101.857 Y209.615 E18.00978
G1 X100.572 Y209.422 E18.03571
G1 X99.656 Y209.259 E18.05428
G1 X98.558 Y209.036 E18.07664
G1 X97.49 Y208.792 E18.0985
G1 X96.625 Y208.571 E18.11632
G1 X95.813 Y208.347 E18.13313
G1 X94.434 Y207.926 E18.1619
G1 X93.523 Y207.62 E18.18108
G1 X92.773 Y207.35 E18.19699
G1 X91.833 Y206.989 E18.21708
G1 X90.561 Y206.461 E18.24457
G1 X89.619 Y206.038 E18.26517
G1 X88.945 Y205.719 E18.28005
G1 X87.806 Y205.142 E18.30553
G1 X86.775 Y204.586 E18.32891
G1 X85.98 Y204.129 E18.34721
G1 X85.039 Y203.56 E18.36915
G1 X84.147 Y202.991 E18.39027
G1 X83.32 Y202.432 E18.41019
G1 X82.423 Y201.794 E18.43216
G1 X81.809 Y201.336 E18.44744
G1 X80.769 Y200.523 E18.47379
G1 X79.988 Y199.877 E18.49401
G1 X79.29 Y199.269 E18.51248
G1 X78.435 Y198.491 E18.53555
G1 X77.892 Y197.973 E18.55053
G1 X76.993 Y197.075 E18.57589
G1 X76.209 Y196.246 E18.59866
G1 X75.605 Y195.575 E18.61667
G1 X74.84 Y194.683 E18.64012
G1 X74.229 Y193.933 E18.65943
G1 X73.592 Y193.112 E18.68017
G1 X73.096 Y192.444 E18.69677
G1 X72.35 Y191.384 E18.72264
G1 X71.756 Y190.489 E18.74407
G1 X71.232 Y189.654 E18.76375
G1 X70.695 Y188.751 E18.78471
G1 X70.264 Y187.99 E18.80217
G1 X69.703 Y186.942 E18.82589
G1 X69.313 Y186.167 E18.8432
G1 X68.765 Y185.005 E18.86884
G1 X68.335 Y184.026 E18.89018
G1 X68.07 Y183.384 E18.90404
G1 X67.57 Y182.088 E18.93176
G1 X67.233 Y181.138 E18.95188
G1 X66.914 Y180.162 E18.97237
G1 X66.609 Y179.144 E18.99357
G1 X66.058 Y177.12 E19.03544
G1 X65.354 Y174.675 E19.08621
G1 X64.592 Y172.287 E19.13623
G1 X63.753 Y169.891 E19.18689
G1 X62.855 Y167.535 E19.23721
G1 X61.879 Y165.187 E19.28795
G1 X60.851 Y162.896 E19.33806
G1 X59.73 Y160.575 E19.3895
G1 X58.581 Y158.361 E19.43928
G1 X57.37 Y156.178 E19.4891
G1 X56.054 Y153.957 E19.54062
G1 X54.706 Y151.822 E19.59101
G1 X53.313 Y149.747 E19.64088
G1 X51.837 Y147.678 E19.6916
G1 X50.32 Y145.674 E19.74176
G1 X48.736 Y143.701 E19.79225
G1 X47.1 Y141.775 E19.84268
G1 X45.397 Y139.884 E19.89346
G1 X43.65 Y138.05 E19.94401
G1 X41.87 Y136.284 E19.99405
G1 X39.999 Y134.529 E20.04524
G1 X38.128 Y132.873 E20.0951
G1 X36.175 Y131.24 E20.14591
G1 X34.194 Y129.675 E20.19629
G1 X31.637 Y127.772 E20.2599
G1 X30.937 Y127.202 E20.27791
G1 X30.239 Y126.522 E20.29736
G1 X29.651 Y125.837 E20.31537
G1 X29.105 Y125.075 E20.33408
G1 X28.535 Y124.091 E20.35677
