;FLAVOR:Marlin
;TIME:23907
;Filament used: 24.0054m
;Layer height: 0.28
;MINX:26.5
;MINY:9.5
;MINZ:0.28
;MAXX:208.5
;MAXY:225.5
;MAXZ:19.88
;Generated with Cura_SteamEngine 5.4.0
M140 S50
M105
M190 S50
M104 S200
M105
M109 S200
M82 ;absolute extrusion mode
; Ender 3 Custom Start G-code
G92 E0 ; Reset Extruder
G28 ; Home all axes
G1 Z2.0 F3000 ; Move Z Axis up little to prevent scratching of Heat Bed
G1 X0.1 Y20 Z0.3 F5000.0 ; Move to start position
G1 X0.1 Y200.0 Z0.3 F1500.0 E15 ; Draw the first line
G1 X0.4 Y200.0 Z0.3 F5000.0 ; Move to side a little
G1 X0.4 Y20 Z0.3 F1500.0 E30 ; Draw the second line
G92 E0 ; Reset Extruder
G1 Z2.0 F3000 ; Move Z Axis up little to prevent scratching of Heat Bed
G1 X5 Y20 Z0.3 F5000.0 ; Move over to prevent blob squish
G92 E0
G92 E0
G1 F2700 E-5
;LAYER_COUNT:71
;LAYER:0
M107
G0 F6000 X26.929 Y9.5 Z0.28
;TYPE:SKIRT
G1 F2700 E0
G1 F1200 X26.716 Y10.39 E0.04261
G1 X26.57 Y11.352 E0.08792
G1 X26.512 Y12.325 E0.13331
G1 X26.501 Y13.025 E0.16591
G1 X26.5 Y222.158 E9.90402
G1 X26.514 Y222.809 E9.93434
G1 X26.612 Y223.988 E9.98942
G1 X26.79 Y224.957 E10.0353
G1 X26.94 Y225.5 E10.06153
G1 F2700 E5.06153
G0 F6000 X27.34 Y9.5
G1 F2700 E10.06153
G1 F1200 X27.105 Y10.483 E10.10859
G1 X26.966 Y11.411 E10.15229
G1 X26.911 Y12.348 E10.19599
G1 X26.901 Y13.031 E10.2278
G1 X26.9 Y222.158 E19.96563
G1 X26.913 Y222.776 E19.99441
G1 X27.011 Y223.955 E20.0495
G1 X27.183 Y224.884 E20.09349
G1 X27.355 Y225.5 E20.12327
G1 F2700 E15.12327
G0 F6000 X27.77 Y9.5
G1 F2700 E20.12327
G1 F1200 X27.704 Y9.698 E20.13299
G1 X27.494 Y10.576 E20.17503
G1 X27.362 Y11.469 E20.21706
G1 X27.31 Y12.371 E20.25913
G1 X27.301 Y13.036 E20.2901
G1 X27.3 Y222.158 E30.0277
G1 X27.313 Y222.767 E30.05606
G1 X27.41 Y223.922 E30.11003
G1 X27.576 Y224.81 E30.1521
G1 X27.77 Y225.5 E30.18547
G1 F2700 E25.18547
G0 F6000 X208.07 Y225.5
G1 F2700 E30.18547
G1 F1200 X208.286 Y224.599 E30.22862
G1 X208.431 Y223.636 E30.27396
G1 X208.488 Y222.663 E30.31935
G1 X208.499 Y221.9 E30.35488
G1 X208.5 Y12.83 E40.09005
G1 X208.485 Y12.155 E40.12149
G1 X208.39 Y11.025 E40.1743
G1 X208.213 Y10.059 E40.22003
G1 X208.059 Y9.5 E40.24703
G0 F6000 X207.645 Y9.5
G1 F1200 X207.82 Y10.132 E40.27756
G1 X207.991 Y11.059 E40.32145
G1 X208.086 Y12.189 E40.37426
G1 X208.1 Y12.83 E40.40411
G1 X208.099 Y221.895 E50.13905
G1 X208.089 Y222.64 E50.17375
G1 X208.035 Y223.577 E50.21745
G1 X207.897 Y224.506 E50.26118
G1 X207.659 Y225.5 E50.30878
G1 F2700 E45.30878
G0 F6000 X207.23 Y9.5
G1 F2700 E50.30878
G1 F1200 X207.427 Y10.205 E50.34286
G1 X207.592 Y11.093 E50.38492
G1 X207.687 Y12.223 E50.43772
G1 X207.7 Y12.83 E50.46599
G1 X207.699 Y221.89 E60.2007
G1 X207.69 Y222.617 E60.23456
G1 X207.639 Y223.519 E60.27663
G1 X207.508 Y224.413 E60.3187
G1 X207.299 Y225.291 E60.36072
G1 X207.229 Y225.5 E60.37099
G1 F2700 E55.37099
;MESH:body-front-#24.stl
G0 F6000 X183.5 Y202.481
G0 X155.672 Y199.328
G0 X153.388 Y198.619
;TYPE:WALL-INNER
G1 F2700 E60.37099
G1 F1200 X153.048 Y198.088 E60.40035
G1 X152.899 Y197.445 E60.43108
G1 X152.878 Y197.282 E60.43873
G1 F1197 X152.744 Y196.902 E60.45754
G1 F1188.1 X152.703 Y196.658 E60.46918
G1 F1185.2 X152.702 Y171.605 E61.65033
G1 F1191.1 X152.701 Y146.552 E62.82566
G1 F1197 X152.7 Y121.499 E63.99514
G1 F1200 X152.744 Y121.098 E64.01393
G1 X152.878 Y120.718 E64.03269
G1 X152.899 Y120.555 E64.04034
G1 X153.048 Y119.913 E64.07103
G1 X153.387 Y119.382 E64.10037
G1 X154.93 Y118.143 E64.19251
G1 X155.385 Y117.878 E64.21703
G1 F1121.5 X155.894 Y117.728 E64.24347
G1 F1106 X156.298 Y117.704 E64.26392
G1 F1173.6 X169.899 Y117.702 E64.91149
G1 F1191.1 X183.5 Y117.7 E65.54956
G1 F1200 X184.059 Y117.788 E65.57591
G1 X184.485 Y117.992 E65.5979
G1 X184.508 Y118.034 E65.60013
G1 X185.15 Y118.182 E65.63081
G1 X185.599 Y118.35 E65.65313
G1 X185.909 Y118.561 E65.67059
G1 X186.177 Y118.825 E65.68811
G1 X186.369 Y119.154 E65.70585
G1 X187.121 Y120.716 E65.78657
G1 X187.219 Y120.961 E65.79886
G1 X187.28 Y121.225 E65.81147
G1 X187.3 Y121.498 E65.82422
G1 X187.3 Y196.502 E69.31672
G1 X187.265 Y196.923 E69.33639
G1 X187.121 Y197.284 E69.35449
G1 X186.304 Y198.981 E69.44219
G1 X186.059 Y199.312 E69.46136
G1 X185.687 Y199.599 E69.48324
G1 X185.318 Y199.779 E69.50236
G1 X184.359 Y200 E69.54818
G1 X184.281 Y200.122 E69.55493
G1 X184.061 Y200.211 E69.56598
G1 X183.717 Y200.295 E69.58247
G1 X156.382 Y200.297 E70.8553
G1 X156.078 Y200.25 E70.86962
G1 X155.886 Y200.243 E70.87857
G1 X155.634 Y200.201 E70.89046
G1 X155.265 Y200.069 E70.90871
G1 X155.036 Y199.936 E70.92104
G1 X153.388 Y198.619 E71.01928
G0 F6000 X153.238 Y197.108
G1 F1200 X153.104 Y196.727 E71.03808
G1 X153.1 Y121.5 E74.54097
G1 X153.134 Y121.187 E74.55563
G1 X153.238 Y120.892 E74.57019
G1 X153.298 Y120.855 E74.57347
G1 X153.299 Y120.572 E74.58665
G1 X153.414 Y120.073 E74.6105
G1 X153.679 Y119.66 E74.63335
G1 X155.18 Y118.455 E74.72297
G1 X155.533 Y118.249 E74.74201
G1 X155.932 Y118.154 E74.7611
G1 X156.123 Y118.151 E74.77
G1 X156.378 Y118.104 E74.78207
G1 X183.5 Y118.1 E76.04499
G1 X183.935 Y118.168 E76.06549
G1 X184.266 Y118.327 E76.08259
G1 X184.305 Y118.398 E76.08636
G1 X185.061 Y118.572 E76.12248
G1 X185.41 Y118.703 E76.13984
G1 X185.743 Y118.929 E76.15858
G1 X185.966 Y119.247 E76.17667
G1 X186.822 Y121.014 E76.26809
G1 X186.9 Y121.35 E76.28415
G1 X186.9 Y196.651 E79.79048
G1 X186.821 Y196.986 E79.80651
G1 X185.908 Y198.878 E79.90433
G1 X185.598 Y199.176 E79.92435
G1 X185.358 Y199.324 E79.93748
G1 X185.06 Y199.428 E79.95218
G1 X184.193 Y199.628 E79.99361
G1 X184.108 Y199.762 E80.001
G1 X183.937 Y199.831 E80.00959
G1 X183.612 Y199.896 E80.02502
G1 X156.408 Y199.898 E81.29175
G1 X156.123 Y199.848 E81.30522
G1 X155.73 Y199.827 E81.32355
G1 X155.325 Y199.656 E81.34402
G1 X153.679 Y198.34 E81.44215
G1 X153.414 Y197.928 E81.46496
G1 X153.299 Y197.428 E81.48885
G1 X153.298 Y197.145 E81.50203
G1 X153.238 Y197.108 E81.50531
G0 F6000 X153.599 Y196.935
G1 F1200 X153.503 Y196.588 E81.52208
G1 X153.5 Y121.344 E85.02575
G1 X153.599 Y121.065 E85.03954
G1 X153.698 Y121.003 E85.04498
G1 X153.698 Y120.59 E85.06421
G1 X153.781 Y120.233 E85.08127
G1 X153.969 Y119.938 E85.09756
G1 X155.429 Y118.768 E85.18468
G1 X155.682 Y118.621 E85.19831
G1 X155.966 Y118.553 E85.2119
G1 X156.168 Y118.559 E85.22131
G1 X156.388 Y118.505 E85.23186
G1 X183.5 Y118.5 E86.49431
G1 X183.811 Y118.548 E86.50896
G1 X184.047 Y118.662 E86.52117
G1 X184.102 Y118.761 E86.52644
G1 X184.971 Y118.962 E86.56797
G1 X185.221 Y119.055 E86.5804
G1 X185.393 Y119.172 E86.59008
G1 X185.618 Y119.444 E86.60652
G1 X186.444 Y121.151 E86.69482
G1 X186.5 Y121.394 E86.70643
G1 X186.5 Y196.632 E90.20983
G1 X186.401 Y196.937 E90.22476
G1 X185.611 Y198.574 E90.3094
G1 X185.438 Y198.787 E90.32217
G1 X185.061 Y199.018 E90.34276
G1 X184.027 Y199.255 E90.39216
G1 X183.934 Y199.402 E90.40026
G1 X183.58 Y199.497 E90.41733
G1 X156.434 Y199.498 E91.68136
G1 X156.169 Y199.44 E91.69399
G1 X155.961 Y199.446 E91.70368
G1 X155.646 Y199.364 E91.71883
G1 X155.429 Y199.232 E91.73066
G1 X153.969 Y198.062 E91.81778
G1 X153.781 Y197.768 E91.83403
G1 X153.698 Y197.41 E91.85114
G1 X153.698 Y196.997 E91.87037
G1 X153.599 Y196.935 E91.87581
G0 F6000 X153.959 Y196.761
G1 F1200 X153.902 Y196.553 E91.88586
G1 X153.9 Y121.406 E95.38501
G1 X153.959 Y121.239 E95.39326
G1 X154.098 Y121.152 E95.4009
G1 X154.098 Y120.607 E95.42628
G1 X154.148 Y120.393 E95.43651
G1 X154.262 Y120.214 E95.44639
G1 X155.773 Y119.006 E95.53647
G1 X156.001 Y118.952 E95.54738
G1 X156.229 Y118.974 E95.55805
G1 X156.432 Y118.903 E95.56806
G1 X183.5 Y118.9 E96.82846
G1 X183.829 Y118.997 E96.84443
G1 X183.899 Y119.125 E96.85122
G1 X184.993 Y119.378 E96.90351
G1 X185.236 Y119.571 E96.91796
G1 X186.094 Y121.346 E97.00976
G1 X186.1 Y196.641 E100.51581
G1 X185.252 Y198.389 E100.60628
G1 X184.971 Y198.627 E100.62343
G1 X183.861 Y198.883 E100.67647
G1 X183.761 Y199.041 E100.68518
G1 X183.548 Y199.099 E100.69545
G1 X156.46 Y199.099 E101.95679
G1 X156.229 Y199.026 E101.96807
G1 X155.873 Y199.023 E101.98464
G1 X155.714 Y198.946 E101.99287
G1 X154.262 Y197.786 E102.07941
G1 X154.148 Y197.608 E102.08925
G1 X154.098 Y197.393 E102.09953
G1 X154.098 Y196.848 E102.12491
G1 X153.959 Y196.761 E102.13254
G1 F2700 E97.13254
G0 F6000 X153.6 Y196.761
G0 X150.325 Y198.789
G0 X149.328 Y199.328
G0 X120.634 Y200.201
G1 F2700 E102.13254
G1 F1200 X120.265 Y200.069 E102.15079
G1 X120.036 Y199.936 E102.16312
G1 X118.388 Y198.619 E102.26135
G1 X118.048 Y198.088 E102.29071
G1 X117.899 Y197.445 E102.32145
G1 X117.878 Y197.282 E102.3291
G1 F1197 X117.744 Y196.902 E102.34791
G1 F1188.1 X117.703 Y196.658 E102.35955
G1 F1185.2 X117.702 Y171.605 E103.5407
G1 F1191.1 X117.701 Y146.552 E104.71602
G1 F1197 X117.7 Y121.499 E105.88551
G1 F1200 X117.744 Y121.098 E105.9043
G1 X117.878 Y120.718 E105.92306
G1 X117.899 Y120.555 E105.93071
G1 X118.048 Y119.913 E105.9614
G1 X118.387 Y119.382 E105.99073
G1 X119.93 Y118.143 E106.08288
G1 X120.385 Y117.878 E106.1074
G1 F1121.5 X120.894 Y117.728 E106.13384
G1 F1106 X121.298 Y117.704 E106.15428
G1 F1173.6 X134.899 Y117.702 E106.80185
G1 F1191.1 X148.5 Y117.7 E107.43992
G1 F1200 X149.059 Y117.788 E107.46627
G1 X149.485 Y117.992 E107.48826
G1 X149.508 Y118.034 E107.49049
G1 X150.15 Y118.182 E107.52117
G1 X150.507 Y118.304 E107.53874
G1 X150.781 Y118.462 E107.55347
G1 X151.063 Y118.692 E107.57041
G1 X151.318 Y119.049 E107.59084
G1 X152.138 Y120.751 E107.67881
G1 X152.256 Y121.097 E107.69583
G1 X152.3 Y121.5 E107.71471
G1 X152.299 Y159.141 E109.46743
G1 F1194 X152.297 Y196.782 E111.22892
G1 F1197 X152.138 Y197.249 E111.25195
G1 F1200 X151.369 Y198.846 E111.33448
G1 X151.215 Y199.106 E111.34855
G1 X150.948 Y199.406 E111.36726
G1 X150.591 Y199.67 E111.38793
G1 X150.169 Y199.814 E111.40869
G1 X149.359 Y200 E111.44739
G1 X149.26 Y200.155 E111.45596
G1 X148.737 Y200.297 E111.48119
G1 X121.382 Y200.297 E112.75495
G1 X121.078 Y200.25 E112.76928
G1 X120.886 Y200.243 E112.77822
G1 X120.634 Y200.201 E112.79012
G0 F6000 X120.73 Y199.827
G1 F1200 X120.325 Y199.656 E112.81059
G1 X118.679 Y198.34 E112.90872
G1 X118.414 Y197.928 E112.93153
G1 X118.299 Y197.428 E112.95542
G1 X118.298 Y197.145 E112.9686
G1 X118.238 Y197.108 E112.97188
G1 X118.104 Y196.727 E112.99069
G1 X118.1 Y121.5 E116.49357
G1 X118.134 Y121.187 E116.50823
G1 X118.238 Y120.892 E116.5228
G1 X118.298 Y120.855 E116.52608
G1 X118.299 Y120.572 E116.53926
G1 X118.414 Y120.073 E116.5631
G1 X118.679 Y119.66 E116.58595
G1 X120.18 Y118.455 E116.67558
G1 X120.533 Y118.249 E116.69461
G1 X120.932 Y118.154 E116.71371
G1 X121.123 Y118.151 E116.7226
G1 X121.378 Y118.104 E116.73468
G1 X148.5 Y118.1 E117.99759
G1 X148.935 Y118.168 E118.01809
G1 X149.266 Y118.327 E118.03519
G1 X149.305 Y118.398 E118.03896
G1 X150.061 Y118.572 E118.07509
G1 X150.338 Y118.667 E118.08872
G1 X150.551 Y118.79 E118.10018
G1 X150.813 Y119.028 E118.11666
G1 X150.949 Y119.218 E118.12754
G1 X151.774 Y120.917 E118.21548
G1 X151.866 Y121.186 E118.22872
G1 X151.9 Y121.5 E118.24343
G1 X151.896 Y196.725 E121.74622
G1 X151.774 Y197.083 E121.76383
G1 X150.939 Y198.818 E121.85349
G1 X150.681 Y199.108 E121.87156
G1 X150.317 Y199.343 E121.89174
G1 X150.075 Y199.425 E121.90364
G1 X149.193 Y199.628 E121.94578
G1 X149.108 Y199.762 E121.95317
G1 X148.939 Y199.83 E121.96165
G1 X148.59 Y199.898 E121.97821
G1 X121.408 Y199.898 E123.24391
G1 X121.123 Y199.848 E123.25739
G1 X120.73 Y199.827 E123.27571
G0 F6000 X120.961 Y199.446
G1 F1200 X120.646 Y199.364 E123.29087
G1 X120.429 Y199.232 E123.3027
G1 X118.969 Y198.062 E123.38982
G1 X118.781 Y197.768 E123.40607
G1 X118.698 Y197.41 E123.42318
G1 X118.698 Y196.997 E123.44241
G1 X118.599 Y196.935 E123.44785
G1 X118.503 Y196.588 E123.46461
G1 X118.5 Y121.344 E126.96829
G1 X118.599 Y121.065 E126.98207
G1 X118.698 Y121.003 E126.98751
G1 X118.698 Y120.59 E127.00675
G1 X118.781 Y120.233 E127.02381
G1 X118.969 Y119.938 E127.0401
G1 X120.429 Y118.768 E127.12722
G1 X120.682 Y118.621 E127.14085
G1 X120.966 Y118.553 E127.15444
G1 X121.168 Y118.559 E127.16385
G1 X121.388 Y118.505 E127.1744
G1 X148.5 Y118.5 E128.43685
G1 X148.811 Y118.548 E128.4515
G1 X149.047 Y118.662 E128.46371
G1 X149.102 Y118.761 E128.46898
G1 X150.106 Y118.993 E128.51696
G1 X150.322 Y119.117 E128.52856
G1 X150.565 Y119.338 E128.54386
G1 X151.468 Y121.204 E128.64038
G1 X151.5 Y121.5 E128.65425
G1 X151.497 Y196.589 E132.1507
G1 X151.41 Y196.917 E132.16651
G1 X150.606 Y198.577 E132.25239
G1 X150.414 Y198.81 E132.26645
G1 X150.142 Y198.997 E132.28182
G1 X149.027 Y199.255 E132.33511
G1 X148.934 Y199.402 E132.34321
G1 X148.633 Y199.499 E132.35794
G1 X121.434 Y199.498 E133.62444
G1 X121.169 Y199.44 E133.63707
G1 X120.961 Y199.446 E133.64676
G0 F6000 X120.873 Y199.023
G1 F1200 X120.714 Y198.946 E133.65498
G1 X119.262 Y197.786 E133.74152
G1 X119.148 Y197.608 E133.75136
G1 X119.098 Y197.393 E133.76164
G1 X119.098 Y196.848 E133.78702
G1 X118.959 Y196.761 E133.79466
G1 X118.902 Y196.553 E133.8047
G1 X118.9 Y121.406 E137.30386
G1 X118.959 Y121.239 E137.3121
G1 X119.098 Y121.152 E137.31974
G1 X119.098 Y120.607 E137.34512
G1 X119.148 Y120.393 E137.35535
G1 X119.262 Y120.214 E137.36523
G1 X120.773 Y119.006 E137.45531
G1 X121.001 Y118.952 E137.46622
G1 X121.229 Y118.974 E137.47689
G1 X121.432 Y118.903 E137.4869
G1 X148.5 Y118.9 E138.7473
G1 X148.829 Y118.997 E138.76327
G1 X148.899 Y119.125 E138.77007
G1 X149.973 Y119.373 E138.82139
G1 X150.257 Y119.612 E138.83868
G1 X151.1 Y121.36 E138.92904
G1 X151.098 Y196.554 E142.43039
G1 X151.041 Y196.763 E142.44048
G1 X150.257 Y198.389 E142.52453
G1 X149.966 Y198.629 E142.5421
G1 X148.861 Y198.883 E142.59489
G1 X148.761 Y199.041 E142.6036
G1 X148.582 Y199.099 E142.61236
G1 X121.46 Y199.099 E143.87527
G1 X121.229 Y199.026 E143.88655
G1 X120.873 Y199.023 E143.90313
G0 F6000 X120.61 Y199.233
G0 X115.139 Y201.939
G1 F1200 X114.59 Y202.149 E143.9305
G1 X114.157 Y202.244 E143.95114
G1 X113.685 Y202.3 E143.97328
G1 X86.314 Y202.3 E145.24778
G1 X85.432 Y202.2 E145.28912
G1 X85.169 Y202.146 E145.30162
G1 X84.794 Y202.043 E145.31973
G1 X84.389 Y201.867 E145.34029
G1 X83.998 Y201.654 E145.36102
G1 X83.682 Y201.42 E145.37933
G1 X82.592 Y200.549 E145.4443
G1 X82.281 Y200.899 E145.4661
G1 X81.738 Y201.3 E145.49753
G1 X81.495 Y201.438 E145.51055
G1 X81.124 Y201.606 E145.52951
G1 X80.783 Y201.724 E145.54631
G1 X80.189 Y201.861 E145.5747
G1 X80.139 Y201.939 E145.57901
G1 X79.59 Y202.149 E145.60638
G1 X79.157 Y202.244 E145.62702
G1 X78.685 Y202.3 E145.64916
G1 X51.318 Y202.3 E146.92348
G1 X50.587 Y202.222 E146.95771
G1 X50.337 Y202.183 E146.96949
G1 X50.076 Y202.123 E146.98196
G1 X49.806 Y202.04 E146.99511
G1 X49.528 Y201.931 E147.00902
G1 X49.246 Y201.793 E147.02364
G1 X48.962 Y201.623 E147.03905
G1 X48.682 Y201.42 E147.05515
G1 X47.326 Y200.337 E147.13596
G1 X47.007 Y200.052 E147.15588
G1 X46.71 Y199.716 E147.17676
G1 X46.445 Y199.333 E147.19845
G1 X46.221 Y198.903 E147.22103
G1 X46.051 Y198.437 E147.24412
G1 X45.954 Y198.024 E147.26388
G1 X45.919 Y197.774 E147.27563
G1 X45.866 Y197.613 E147.28352
G1 X45.746 Y197.114 E147.30742
G1 X45.7 Y196.5 E147.33609
G1 X45.7 Y121.5 E150.82841
G1 X45.746 Y120.886 E150.85708
G1 X46.036 Y119.615 E150.91778
G1 X46.18 Y119.193 E150.93854
G1 X46.367 Y118.801 E150.95877
G1 X46.496 Y118.585 E150.97048
G1 X46.678 Y118.325 E150.98526
G1 X46.941 Y118.016 E151.00416
G1 X47.326 Y117.663 E151.02848
G1 X47.53 Y117.5 E151.04064
G1 X47.326 Y117.337 E151.0528
G1 X46.941 Y116.984 E151.07712
G1 X46.678 Y116.675 E151.09601
G1 X46.496 Y116.415 E151.11079
G1 X46.367 Y116.199 E151.12251
G1 X46.18 Y115.806 E151.14277
G1 X46.036 Y115.385 E151.16349
G1 X45.954 Y115.024 E151.18073
G1 X45.919 Y114.774 E151.19248
G1 X45.866 Y114.613 E151.20038
G1 X45.746 Y114.114 E151.22427
G1 X45.7 Y113.5 E151.25294
G1 X45.7 Y38.5 E154.74526
G1 X45.746 Y37.886 E154.77393
G1 X46.051 Y36.562 E154.83719
G1 X46.222 Y36.096 E154.86031
G1 X46.445 Y35.667 E154.88282
G1 X46.711 Y35.283 E154.90457
G1 X47.008 Y34.948 E154.92542
G1 X47.326 Y34.663 E154.9453
G1 X48.682 Y33.58 E155.02611
G1 X48.962 Y33.376 E155.04224
G1 X49.246 Y33.207 E155.05763
G1 X49.529 Y33.068 E155.07231
G1 X49.806 Y32.96 E155.08616
G1 X50.077 Y32.877 E155.09935
