;FLAVOR:Marlin
;TIME:16413
;Filament used: 16.5435m
;Layer height: 0.28
;MINX:62.5
;MINY:9.5
;MINZ:0.28
;MAXX:172.5
;MAXY:225.5
;MAXZ:5.88
;Generated with Cura_SteamEngine 5.4.0
M140 S50
M105
M190 S50
M104 S200
M105
M109 S200
M82 ;absolute extrusion mode
; Ender 3 Custom Start G-code
G92 E0 ; Reset Extruder
G28 ; Home all axes
G1 Z2.0 F3000 ; Move Z Axis up little to prevent scratching of Heat Bed
G1 X0.1 Y20 Z0.3 F5000.0 ; Move to start position
G1 X0.1 Y200.0 Z0.3 F1500.0 E15 ; Draw the first line
G1 X0.4 Y200.0 Z0.3 F5000.0 ; Move to side a little
G1 X0.4 Y20 Z0.3 F1500.0 E30 ; Draw the second line
G92 E0 ; Reset Extruder
G1 Z2.0 F3000 ; Move Z Axis up little to prevent scratching of Heat Bed
G1 X5 Y20 Z0.3 F5000.0 ; Move over to prevent blob squish
G92 E0
G92 E0
G1 F2700 E-5
;LAYER_COUNT:21
;LAYER:0
M107
G0 F6000 X62.929 Y9.5 Z0.28
;TYPE:SKIRT
G1 F2700 E0
G1 F1200 X62.716 Y10.39 E0.04261
G1 X62.57 Y11.352 E0.08792
G1 X62.512 Y12.325 E0.13331
G1 X62.501 Y13.025 E0.16591
G1 X62.5 Y222.158 E9.90402
G1 X62.514 Y222.809 E9.93434
G1 X62.612 Y223.988 E9.98942
G1 X62.79 Y224.957 E10.0353
G1 X62.94 Y225.5 E10.06153
G1 F2700 E5.06153
G0 F6000 X63.34 Y9.5
G1 F2700 E10.06153
G1 F1200 X63.105 Y10.483 E10.10859
G1 X62.966 Y11.411 E10.15229
G1 X62.911 Y12.348 E10.19599
G1 X62.901 Y13.031 E10.2278
G1 X62.9 Y222.158 E19.96563
G1 X62.913 Y222.776 E19.99441
G1 X63.011 Y223.955 E20.0495
G1 X63.183 Y224.884 E20.09349
G1 X63.355 Y225.5 E20.12327
G1 F2700 E15.12327
G0 F6000 X63.77 Y9.5
G1 F2700 E20.12327
G1 F1200 X63.704 Y9.698 E20.13299
G1 X63.494 Y10.576 E20.17503
G1 X63.362 Y11.469 E20.21706
G1 X63.31 Y12.371 E20.25913
G1 X63.301 Y13.036 E20.2901
G1 X63.3 Y222.158 E30.0277
G1 X63.313 Y222.767 E30.05606
G1 X63.41 Y223.922 E30.11003
G1 X63.576 Y224.81 E30.1521
G1 X63.77 Y225.5 E30.18547
G1 F2700 E25.18547
G0 F6000 X172.07 Y225.5
G1 F2700 E30.18547
G1 F1200 X172.286 Y224.599 E30.22862
G1 X172.431 Y223.636 E30.27396
G1 X172.488 Y222.663 E30.31935
G1 X172.499 Y221.9 E30.35488
G1 X172.5 Y12.83 E40.09005
G1 X172.485 Y12.155 E40.12149
G1 X172.39 Y11.025 E40.1743
G1 X172.213 Y10.059 E40.22003
G1 X172.059 Y9.5 E40.24703
G0 F6000 X171.645 Y9.5
G1 F1200 X171.82 Y10.132 E40.27756
G1 X171.991 Y11.059 E40.32145
G1 X172.086 Y12.189 E40.37426
G1 X172.1 Y12.83 E40.40411
G1 X172.099 Y221.895 E50.13905
G1 X172.089 Y222.64 E50.17375
G1 X172.035 Y223.577 E50.21745
G1 X171.897 Y224.506 E50.26118
G1 X171.659 Y225.5 E50.30878
G1 F2700 E45.30878
G0 F6000 X171.23 Y9.5
G1 F2700 E50.30878
G1 F1200 X171.427 Y10.205 E50.34286
G1 X171.592 Y11.093 E50.38492
G1 X171.687 Y12.223 E50.43772
G1 X171.7 Y12.83 E50.46599
G1 X171.699 Y221.89 E60.2007
G1 X171.69 Y222.617 E60.23456
G1 X171.639 Y223.519 E60.27663
G1 X171.508 Y224.413 E60.3187
G1 X171.299 Y225.291 E60.36072
G1 X171.229 Y225.5 E60.37099
G1 F2700 E55.37099
;MESH:body-side-#24.stl
G0 F6000 X139.637 Y215.944
G0 X137.5 Y216.3
;TYPE:WALL-INNER
G1 F2700 E60.37099
G1 F1200 X97.5 Y216.3 E62.23355
G1 X96.799 Y216.242 E62.26631
G1 X96.207 Y216.156 E62.29416
G1 X95.647 Y215.981 E62.32148
G1 X95.134 Y215.731 E62.34806
G1 X94.682 Y215.42 E62.3736
G1 X93.326 Y214.337 E62.45441
G1 X92.985 Y214.029 E62.47581
G1 X92.697 Y213.7 E62.49617
G1 X92.461 Y213.36 E62.51544
G1 X92.274 Y213.018 E62.53359
G1 X92.131 Y212.68 E62.55068
G1 X92.027 Y212.353 E62.56666
G1 X91.951 Y212.005 E62.58324
G1 X91.919 Y211.774 E62.5941
G1 X91.838 Y211.52 E62.60652
G1 X91.759 Y211.169 E62.62327
G1 X91.714 Y210.838 E62.63882
G1 X91.7 Y210.5 E62.65458
G1 X91.7 Y121.5 E66.79879
G1 X91.708 Y121.247 E66.81058
G1 X91.733 Y120.997 E66.82227
G1 X91.774 Y120.749 E66.83398
G1 X91.846 Y120.451 E66.84825
G1 X91.919 Y120.225 E66.85931
G1 X91.96 Y119.945 E66.87249
G1 X92.065 Y119.501 E66.89374
G1 X92.189 Y119.172 E66.91011
G1 X92.347 Y118.839 E66.92727
G1 X92.475 Y118.619 E66.93912
G1 X92.657 Y118.352 E66.95417
G1 X92.926 Y118.032 E66.97363
G1 X93.326 Y117.663 E66.99897
G1 X93.53 Y117.5 E67.01113
G1 X93.326 Y117.337 E67.02329
G1 X92.926 Y116.968 E67.04863
G1 X92.657 Y116.648 E67.0681
G1 X92.475 Y116.381 E67.08314
G1 X92.347 Y116.161 E67.095
G1 X92.189 Y115.828 E67.11216
G1 X92.065 Y115.499 E67.12853
G1 X91.96 Y115.055 E67.14978
G1 X91.919 Y114.774 E67.163
G1 X91.841 Y114.531 E67.17488
G1 X91.774 Y114.251 E67.18829
G1 X91.733 Y114.003 E67.19999
G1 X91.708 Y113.753 E67.21169
G1 X91.7 Y113.5 E67.22348
G1 X91.7 Y24.5 E71.36769
G1 X91.714 Y24.162 E71.38344
G1 X91.759 Y23.831 E71.399
G1 X91.838 Y23.48 E71.41575
G1 X91.919 Y23.225 E71.42821
G1 X91.957 Y22.961 E71.44063
G1 X92.027 Y22.647 E71.45561
G1 X92.131 Y22.32 E71.47159
G1 X92.274 Y21.982 E71.48868
G1 X92.462 Y21.639 E71.50689
G1 X92.697 Y21.3 E71.5261
G1 X92.986 Y20.971 E71.54649
G1 X93.326 Y20.663 E71.56785
G1 X94.682 Y19.58 E71.64866
G1 X95.134 Y19.269 E71.67421
G1 X95.647 Y19.019 E71.70078
G1 X96.28 Y18.821 E71.73166
G1 X96.908 Y18.746 E71.76111
G1 X97.5 Y18.7 E71.78876
G1 X137.5 Y18.7 E73.65133
G1 X138.157 Y18.756 E73.68203
G1 X138.664 Y18.882 E73.70636
G1 X139.195 Y19.098 E73.73305
G1 X139.226 Y19.147 E73.73575
G1 X139.597 Y19.232 E73.75347
G1 X140.119 Y19.393 E73.77891
G1 X140.6 Y19.619 E73.80366
G1 X141.03 Y19.898 E73.82753
G1 X141.403 Y20.218 E73.85041
G1 X141.715 Y20.563 E73.87207
G1 X141.97 Y20.922 E73.89257
G1 X142.17 Y21.285 E73.91187
G1 X142.923 Y22.846 E73.99257
G1 X143.07 Y23.195 E74.01021
G1 X143.176 Y23.533 E74.0267
G1 X143.246 Y23.856 E74.04209
G1 X143.285 Y24.161 E74.05641
G1 X143.3 Y24.498 E74.07212
G1 X143.3 Y113.502 E78.21652
G1 X143.291 Y113.778 E78.22937
G1 X143.261 Y114.052 E78.24221
G1 X143.212 Y114.321 E78.25494
G1 X143.144 Y114.584 E78.26759
G1 X143.022 Y114.946 E78.28538
G1 X142.096 Y116.869 E78.38476
G1 X141.882 Y117.212 E78.40359
G1 X141.659 Y117.5 E78.42055
G1 X141.882 Y117.788 E78.43751
G1 X142.096 Y118.131 E78.45633
G1 X143.022 Y120.053 E78.55567
G1 X143.144 Y120.415 E78.57346
G1 X143.212 Y120.678 E78.58611
G1 X143.261 Y120.948 E78.59889
G1 X143.291 Y121.221 E78.61168
G1 X143.3 Y121.498 E78.62458
G1 X143.3 Y210.502 E82.76898
G1 X143.285 Y210.839 E82.78469
G1 X143.246 Y211.145 E82.79905
G1 X143.176 Y211.468 E82.81444
G1 X143.07 Y211.805 E82.83089
G1 X142.923 Y212.154 E82.84853
G1 X142.17 Y213.715 E82.92923
G1 X141.97 Y214.078 E82.94853
G1 X141.715 Y214.437 E82.96903
G1 X141.402 Y214.783 E82.99076
G1 X141.029 Y215.102 E83.01361
G1 X140.6 Y215.382 E83.03747
G1 X140.119 Y215.608 E83.06221
G1 X139.597 Y215.768 E83.08763
G1 X139.226 Y215.852 E83.10535
G1 X139.195 Y215.902 E83.10809
G1 X138.664 Y216.119 E83.1348
G1 X138.157 Y216.244 E83.15911
G1 X137.5 Y216.3 E83.18982
G1 F2700 E78.18982
G0 F6000 X97.5 Y215.9
G1 F2700 E83.18982
G1 F1200 X96.826 Y215.843 E83.22131
G1 X96.297 Y215.766 E83.2462
G1 X95.795 Y215.609 E83.2707
G1 X95.336 Y215.385 E83.29448
G1 X94.931 Y215.107 E83.31735
G1 X93.576 Y214.024 E83.39812
G1 X93.271 Y213.749 E83.41725
G1 X93.013 Y213.455 E83.43546
G1 X92.802 Y213.15 E83.45273
G1 X92.634 Y212.844 E83.46898
G1 X92.507 Y212.542 E83.48424
G1 X92.414 Y212.249 E83.49855
G1 X92.345 Y211.938 E83.51339
G1 X92.312 Y211.684 E83.52531
G1 X92.224 Y211.413 E83.53858
G1 X92.152 Y211.098 E83.55363
G1 X92.113 Y210.802 E83.56753
G1 X92.1 Y210.5 E83.5816
G1 X92.1 Y121.345 E87.73303
G1 X92.141 Y120.931 E87.75241
G1 X92.236 Y120.543 E87.77101
G1 X92.312 Y120.315 E87.7822
G1 X92.355 Y120.008 E87.79663
G1 X92.43 Y119.691 E87.8118
G1 X92.513 Y119.44 E87.82411
G1 X92.618 Y119.19 E87.83674
G1 X92.814 Y118.831 E87.85578
G1 X92.977 Y118.592 E87.86925
G1 X93.218 Y118.306 E87.88667
G1 X93.576 Y117.975 E87.90937
G1 X94.171 Y117.5 E87.94482
G1 X93.576 Y117.025 E87.98027
G1 X93.218 Y116.694 E88.00298
G1 X92.977 Y116.408 E88.02039
G1 X92.814 Y116.169 E88.03386
G1 X92.618 Y115.81 E88.05291
G1 X92.513 Y115.56 E88.06554
G1 X92.43 Y115.309 E88.07785
G1 X92.346 Y114.942 E88.09538
G1 X92.312 Y114.684 E88.10749
G1 X92.217 Y114.389 E88.12192
G1 X92.129 Y113.95 E88.14277
G1 X92.1 Y113.655 E88.15658
G1 X92.1 Y24.5 E92.30801
G1 X92.113 Y24.198 E92.32208
G1 X92.152 Y23.901 E92.33603
G1 X92.232 Y23.558 E92.35243
G1 X92.312 Y23.315 E92.36434
G1 X92.351 Y23.032 E92.37764
G1 X92.414 Y22.751 E92.39105
G1 X92.507 Y22.458 E92.40537
G1 X92.635 Y22.156 E92.42064
G1 X92.803 Y21.849 E92.43694
G1 X93.013 Y21.545 E92.45414
G1 X93.271 Y21.251 E92.47236
G1 X93.576 Y20.976 E92.49148
G1 X94.931 Y19.893 E92.57225
G1 X95.336 Y19.615 E92.59512
G1 X95.795 Y19.391 E92.61891
G1 X96.363 Y19.213 E92.64662
G1 X96.97 Y19.141 E92.67508
G1 X97.5 Y19.1 E92.69984
G1 X137.5 Y19.1 E94.56241
G1 X138.088 Y19.15 E94.58988
G1 X138.542 Y19.263 E94.61167
G1 X139.017 Y19.456 E94.63554
G1 X139.056 Y19.518 E94.63895
G1 X139.508 Y19.622 E94.66055
G1 X139.975 Y19.766 E94.68331
G1 X140.405 Y19.968 E94.70543
G1 X140.79 Y20.218 E94.7268
G1 X141.123 Y20.504 E94.74724
G1 X141.403 Y20.813 E94.76666
G1 X141.631 Y21.134 E94.78499
G1 X141.81 Y21.459 E94.80227
G1 X142.563 Y23.02 E94.88297
G1 X142.695 Y23.332 E94.89875
G1 X142.789 Y23.634 E94.91347
G1 X142.852 Y23.923 E94.92725
G1 X142.887 Y24.196 E94.94006
G1 X142.9 Y24.498 E94.95414
G1 X142.9 Y113.676 E99.10664
G1 X142.865 Y113.994 E99.12154
G1 X142.76 Y114.471 E99.14428
G1 X142.601 Y114.899 E99.16554
G1 X141.744 Y116.678 E99.25749
G1 X141.552 Y116.986 E99.27439
G1 X141.315 Y117.293 E99.29245
G1 X141.104 Y117.5 E99.30621
G1 X141.315 Y117.707 E99.31998
G1 X141.552 Y118.014 E99.33804
G1 X141.744 Y118.322 E99.35494
G1 X142.601 Y120.101 E99.44688
G1 X142.76 Y120.529 E99.46814
G1 X142.865 Y121.006 E99.49089
G1 X142.9 Y121.324 E99.50578
G1 X142.9 Y210.502 E103.65829
G1 X142.887 Y210.804 E103.67236
G1 X142.852 Y211.077 E103.68518
G1 X142.789 Y211.366 E103.69895
G1 X142.695 Y211.668 E103.71368
G1 X142.563 Y211.98 E103.72945
G1 X141.81 Y213.541 E103.81015
G1 X141.631 Y213.866 E103.82743
G1 X141.403 Y214.187 E103.84576
G1 X141.123 Y214.496 E103.86518
G1 X140.789 Y214.782 E103.88566
G1 X140.405 Y215.033 E103.90702
G1 X139.974 Y215.235 E103.92918
G1 X139.508 Y215.378 E103.95188
G1 X139.056 Y215.481 E103.97347
G1 X139.017 Y215.544 E103.97692
G1 X138.541 Y215.738 E104.00085
G1 X138.03 Y215.859 E104.0253
G1 X137.5 Y215.9 E104.05006
G1 X97.5 Y215.9 E105.91262
G0 F6000 X97.5 Y215.5
G1 F1200 X96.853 Y215.444 E105.94286
G1 X96.386 Y215.376 E105.96484
G1 X95.943 Y215.237 E105.98646
G1 X95.538 Y215.04 E106.00743
G1 X95.181 Y214.795 E106.02759
G1 X93.825 Y213.712 E106.1084
G1 X93.556 Y213.469 E106.12528
G1 X93.329 Y213.209 E106.14135
G1 X93.143 Y212.941 E106.15654
G1 X92.995 Y212.67 E106.17092
G1 X92.882 Y212.404 E106.18438
G1 X92.8 Y212.145 E106.19703
G1 X92.742 Y211.885 E106.20943
G1 X92.706 Y211.595 E106.22304
G1 X92.609 Y211.305 E106.23728
G1 X92.546 Y211.028 E106.2505
G1 X92.511 Y210.767 E106.26277
G1 X92.5 Y210.5 E106.27521
G1 X92.506 Y121.3 E110.42873
G1 X92.558 Y120.907 E110.44719
G1 X92.626 Y120.635 E110.46025
G1 X92.706 Y120.405 E110.47159
G1 X92.748 Y120.081 E110.4868
G1 X92.815 Y119.802 E110.50016
G1 X92.928 Y119.48 E110.51605
G1 X93.09 Y119.136 E110.53376
G1 X93.297 Y118.832 E110.55088
G1 X93.509 Y118.579 E110.56625
G1 X93.825 Y118.288 E110.58626
G1 X94.812 Y117.5 E110.64507
G1 X93.825 Y116.712 E110.70387
G1 X93.509 Y116.421 E110.72388
G1 X93.297 Y116.168 E110.73925
G1 X93.09 Y115.864 E110.75637
G1 X92.928 Y115.52 E110.77408
G1 X92.815 Y115.198 E110.78997
G1 X92.748 Y114.919 E110.80333
G1 X92.706 Y114.594 E110.81859
G1 X92.603 Y114.284 E110.8338
G1 X92.506 Y113.797 E110.85692
G1 X92.5 Y24.5 E115.01496
G1 X92.511 Y24.233 E115.02741
G1 X92.546 Y23.972 E115.03967
G1 X92.621 Y23.652 E115.05497
G1 X92.706 Y23.405 E115.06714
G1 X92.744 Y23.103 E115.08131
G1 X92.8 Y22.854 E115.09319
G1 X92.882 Y22.596 E115.1058
G1 X92.995 Y22.33 E115.11926
G1 X93.143 Y22.059 E115.13364
G1 X93.329 Y21.791 E115.14883
G1 X93.557 Y21.531 E115.16493
G1 X93.825 Y21.288 E115.18177
G1 X95.181 Y20.205 E115.26258
G1 X95.538 Y19.96 E115.28274
G1 X95.943 Y19.763 E115.30371
G1 X96.443 Y19.606 E115.32812
G1 X97.033 Y19.536 E115.35578
G1 X97.5 Y19.5 E115.37759
G1 X137.5 Y19.5 E117.24016
G1 X138.019 Y19.544 E117.26441
G1 X138.419 Y19.644 E117.28361
G1 X138.838 Y19.814 E117.30467
G1 X138.886 Y19.889 E117.30881
G1 X139.418 Y20.012 E117.33424
G1 X139.831 Y20.139 E117.35436
G1 X140.21 Y20.317 E117.37386
G1 X140.55 Y20.538 E117.39274
G1 X140.844 Y20.79 E117.41077
G1 X141.091 Y21.063 E117.42791
G1 X141.292 Y21.346 E117.44408
G1 X141.45 Y21.633 E117.45933
G1 X142.203 Y23.194 E117.54003
G1 X142.319 Y23.469 E117.55393
G1 X142.402 Y23.736 E117.56695
G1 X142.484 Y24.109 E117.58473
G1 X142.5 Y24.498 E117.60286
G1 X142.5 Y113.663 E121.75476
G1 X142.456 Y114.021 E121.77155
G1 X142.377 Y114.357 E121.78762
G1 X142.236 Y114.735 E121.80641
G1 X141.392 Y116.488 E121.89701
G1 X141.222 Y116.76 E121.91194
G1 X141.013 Y117.031 E121.92788
G1 X140.683 Y117.356 E121.94944
G1 X140.471 Y117.5 E121.96138
G1 X140.683 Y117.644 E121.97331
G1 X141.013 Y117.969 E121.99488
G1 X141.222 Y118.24 E122.01081
G1 X141.392 Y118.512 E122.02575
G1 X142.236 Y120.265 E122.11634
G1 X142.377 Y120.643 E122.13513
G1 X142.469 Y121.063 E122.15515
G1 X142.5 Y121.343 E122.16827
G1 X142.5 Y210.502 E126.31989
G1 X142.484 Y210.893 E126.33811
G1 X142.402 Y211.264 E126.3558
G1 X142.319 Y211.531 E126.36882
G1 X142.203 Y211.806 E126.38272
G1 X141.45 Y213.367 E126.46342
G1 X141.291 Y213.654 E126.4787
G1 X141.091 Y213.937 E126.49483
G1 X140.843 Y214.21 E126.51201
G1 X140.549 Y214.462 E126.53004
G1 X140.21 Y214.683 E126.54888
G1 X139.83 Y214.862 E126.56844
G1 X139.418 Y214.988 E126.5885
G1 X138.886 Y215.11 E126.61392
G1 X138.838 Y215.186 E126.6181
G1 X138.419 Y215.357 E126.63918
G1 X137.968 Y215.464 E126.66076
G1 X137.5 Y215.5 E126.68261
G1 X97.5 Y215.5 E128.54518
G0 F6000 X97.5 Y215.1
G1 F1200 X96.879 Y215.045 E128.57421
G1 X96.475 Y214.986 E128.59322
G1 X96.091 Y214.866 E128.61196
G1 X95.74 Y214.695 E128.63014
G1 X95.431 Y214.482 E128.64761
G1 X94.075 Y213.399 E128.72842
G1 X93.842 Y213.188 E128.74306
G1 X93.645 Y212.964 E128.75695
G1 X93.483 Y212.731 E128.77016
G1 X93.355 Y212.497 E128.78258
G1 X93.206 Y212.145 E128.80038
G1 X93.115 Y211.676 E128.82263
G1 X93.102 Y211.504 E128.83066
G1 X92.958 Y211.091 E128.85102
G1 X92.9 Y210.655 E128.87151
G1 X92.905 Y121.327 E133.03099
G1 X92.967 Y120.866 E133.05265
G1 X93.101 Y120.495 E133.07102
G1 X93.14 Y120.162 E133.08663
G1 X93.199 Y119.913 E133.09855
G1 X93.297 Y119.633 E133.11236
G1 X93.405 Y119.405 E133.12411
G1 X93.617 Y119.072 E133.14249
G1 X93.801 Y118.853 E133.15581
G1 X94.075 Y118.601 E133.17314
G1 X95.462 Y117.5 E133.2556
G1 X94.075 Y116.399 E133.33806
G1 X93.801 Y116.147 E133.35539
G1 X93.617 Y115.928 E133.36871
G1 X93.405 Y115.595 E133.38709
G1 X93.297 Y115.367 E133.39884
G1 X93.199 Y115.087 E133.41265
G1 X93.14 Y114.838 E133.42457
G1 X93.101 Y114.504 E133.44023
G1 X92.952 Y114.07 E133.4616
G1 X92.905 Y113.673 E133.48021
G1 X92.9 Y24.345 E137.6397
G1 X92.94 Y24.042 E137.65393
G1 X92.997 Y23.792 E137.66587
G1 X93.102 Y23.495 E137.68054
G1 X93.138 Y23.173 E137.69562
G1 X93.257 Y22.734 E137.7168
G1 X93.355 Y22.503 E137.72849
G1 X93.484 Y22.269 E137.74093
G1 X93.645 Y22.036 E137.75412
G1 X93.842 Y21.811 E137.76804
G1 X94.075 Y21.601 E137.78265
G1 X95.431 Y20.518 E137.86345
G1 X95.74 Y20.305 E137.88093
G1 X96.091 Y20.134 E137.89911
G1 X96.475 Y20.014 E137.91784
G1 X97.095 Y19.931 E137.94697
G1 X97.5 Y19.9 E137.96589
G1 X137.5 Y19.9 E139.82845
G1 X137.949 Y19.938 E139.84943
G1 X138.297 Y20.024 E139.86613
G1 X138.66 Y20.172 E139.88438
G1 X138.716 Y20.261 E139.88928
G1 X139.329 Y20.402 E139.91857
G1 X139.686 Y20.512 E139.93596
G1 X140.015 Y20.666 E139.95288
G1 X140.309 Y20.857 E139.9692
G1 X140.564 Y21.077 E139.98488
G1 X140.778 Y21.313 E139.99972
G1 X140.953 Y21.558 E140.01374
G1 X141.089 Y21.807 E140.02695
G1 X141.842 Y23.368 E140.10765
G1 X141.996 Y23.732 E140.12605
G1 X142.1 Y24.324 E140.15404
G1 X142.094 Y113.691 E144.31534
G1 X142.062 Y113.952 E144.32759
G1 X141.993 Y114.243 E144.34151
G1 X141.843 Y114.632 E144.36093
G1 X140.963 Y116.442 E144.45464
G1 X140.711 Y116.769 E144.47386
G1 X140.425 Y117.05 E144.49253
G1 X139.977 Y117.355 E144.51777
G1 X139.589 Y117.5 E144.53706
G1 X139.977 Y117.645 E144.55635
G1 X140.425 Y117.95 E144.58158
