;FLAVOR:Marlin
;TIME:3523
;Filament used: 3.43591m
;Layer height: 0.28
;MINX:83
;MINY:91
;MINZ:0.28
;MAXX:137
;MAXY:129
;MAXZ:31.92
;Generated with Creality Slicer 4.8.2-191
M140 S50
M105
M190 S50
M104 S200
M105
M109 S200
M82 ;absolute extrusion mode

G28 ;Home

G92 E0 ;Reset Extruder
G1 Z2.0 F3000 ;Move Z Axis up
G1 X10.1 Y20 Z0.28 F5000.0 ;Move to start position
G1 X10.1 Y200.0 Z0.28 F1500.0 E15 ;Draw the first line
G1 X10.4 Y200.0 Z0.28 F5000.0 ;Move to side a little
G1 X10.4 Y20 Z0.28 F1500.0 E30 ;Draw the second line
G92 E0 ;Reset Extruder
G1 Z2.0 F3000 ;Move Z Axis up

G92 E0
G92 E0
G1 F2700 E-5
;LAYER_COUNT:114
;LAYER:0
M107
G0 F6000 X86.886 Y93.627 Z0.28
;TYPE:SKIRT
G1 F2700 E0
G1 F1200 X87.626 Y93.051 E0.04367
G1 X88.412 Y92.539 E0.08735
G1 X89.239 Y92.097 E0.13101
G1 X90.101 Y91.727 E0.17469
G1 X90.991 Y91.431 E0.21836
G1 X91.903 Y91.213 E0.26203
G1 X92.83 Y91.072 E0.30569
G1 X93.701 Y91.013 E0.34634
G1 X94.022 Y91.004 E0.36129
G1 X94.33 Y91 E0.37563
G1 X125.293 Y91 E1.8174
G1 X126.149 Y91.011 E1.85726
G1 X127.085 Y91.065 E1.90092
G1 X128.013 Y91.197 E1.94457
G1 X128.927 Y91.409 E1.98825
G1 X129.819 Y91.698 E2.03192
G1 X130.684 Y92.061 E2.0756
G1 X131.514 Y92.497 E2.11925
G1 X132.305 Y93.002 E2.16295
G1 X133.049 Y93.573 E2.20662
G1 X133.742 Y94.205 E2.2503
G1 X134.379 Y94.893 E2.29395
G1 X134.954 Y95.634 E2.33763
G1 X135.465 Y96.42 E2.38128
G1 X135.907 Y97.248 E2.42499
G1 X136.276 Y98.11 E2.46865
G1 X136.571 Y99 E2.51231
G1 X136.789 Y99.912 E2.55597
G1 X136.929 Y100.84 E2.59967
G1 X136.987 Y101.701 E2.63985
G1 X136.996 Y102.021 E2.65476
G1 X137 Y102.33 E2.66915
G1 X136.999 Y117.4 E3.37087
G1 X136.99 Y118.127 E3.40473
G1 X136.939 Y119.064 E3.44842
G1 X136.807 Y119.992 E3.49207
G1 X136.598 Y120.906 E3.53573
G1 X136.311 Y121.799 E3.5794
G1 X135.949 Y122.665 E3.62311
G1 X135.515 Y123.496 E3.66676
G1 X135.011 Y124.287 E3.71044
G1 X134.442 Y125.032 E3.75409
G1 X133.811 Y125.727 E3.7978
G1 X133.124 Y126.365 E3.84145
G1 X132.385 Y126.942 E3.88511
G1 X131.599 Y127.454 E3.92879
G1 X130.773 Y127.897 E3.97244
G1 X129.911 Y128.269 E4.01615
G1 X129.022 Y128.565 E4.05978
G1 X128.11 Y128.785 E4.10347
G1 X127.183 Y128.926 E4.14713
G1 X126.299 Y128.987 E4.18839
G1 X125.978 Y128.996 E4.20334
G1 X125.67 Y129 E4.21769
G1 X94.565 Y128.999 E5.66606
G1 X93.867 Y128.99 E5.69857
G1 X92.931 Y128.938 E5.74222
G1 X92.002 Y128.806 E5.78591
G1 X91.088 Y128.596 E5.82958
G1 X90.195 Y128.309 E5.87326
G1 X89.33 Y127.946 E5.91694
G1 X88.499 Y127.512 E5.96059
G1 X87.708 Y127.008 E6.00427
G1 X86.963 Y126.438 E6.04795
G1 X86.269 Y125.807 E6.09162
G1 X85.632 Y125.12 E6.13525
G1 X85.055 Y124.38 E6.17894
G1 X84.543 Y123.594 E6.22262
G1 X84.1 Y122.767 E6.26631
G1 X83.729 Y121.906 E6.30996
G1 X83.433 Y121.016 E6.35364
G1 X83.214 Y120.104 E6.39731
G1 X83.073 Y119.177 E6.44097
G1 X83.013 Y118.288 E6.48246
G1 X83.004 Y117.955 E6.49797
G1 X83 Y117.658 E6.5118
G1 X83.001 Y102.525 E7.21646
G1 X83.01 Y101.86 E7.24743
G1 X83.063 Y100.924 E7.29108
G1 X83.195 Y99.995 E7.33477
G1 X83.406 Y99.081 E7.37845
G1 X83.694 Y98.189 E7.4221
G1 X84.057 Y97.324 E7.46578
G1 X84.492 Y96.493 E7.50946
G1 X84.996 Y95.703 E7.55309
G1 X85.566 Y94.958 E7.59677
G1 X86.198 Y94.264 E7.64048
G1 X86.886 Y93.627 E7.68414
G0 F6000 X87.274 Y93.823
G1 F1200 X88.01 Y93.27 E7.727
G1 X88.791 Y92.782 E7.76988
G1 X89.611 Y92.364 E7.81274
G1 X90.465 Y92.019 E7.85563
G1 X91.345 Y91.749 E7.89849
G1 X92.245 Y91.557 E7.94134
G1 X93.159 Y91.443 E7.98423
G1 X93.712 Y91.413 E8.01002
G1 X94.033 Y91.404 E8.02497
G1 X94.33 Y91.4 E8.0388
G1 X125.293 Y91.4 E9.48057
G1 X126.143 Y91.411 E9.52015
G1 X127.062 Y91.464 E9.56302
G1 X127.973 Y91.597 E9.60589
G1 X128.869 Y91.808 E9.64875
G1 X129.743 Y92.096 E9.6916
G1 X130.59 Y92.459 E9.73451
G1 X131.401 Y92.894 E9.77736
G1 X132.171 Y93.398 E9.82021
G1 X132.895 Y93.967 E9.86309
G1 X133.567 Y94.597 E9.90598
G1 X134.182 Y95.282 E9.94885
G1 X134.735 Y96.018 E9.99172
G1 X135.222 Y96.799 E10.03457
G1 X135.639 Y97.62 E10.07745
G1 X135.984 Y98.474 E10.12034
G1 X136.253 Y99.354 E10.16319
G1 X136.445 Y100.255 E10.20608
G1 X136.558 Y101.168 E10.24892
G1 X136.587 Y101.712 E10.27429
G1 X136.596 Y102.032 E10.28919
G1 X136.6 Y102.33 E10.30307
G1 X136.599 Y117.395 E11.00456
G1 X136.59 Y118.122 E11.03842
G1 X136.539 Y119.041 E11.08127
G1 X136.408 Y119.953 E11.12418
G1 X136.198 Y120.849 E11.16703
G1 X135.912 Y121.724 E11.20989
G1 X135.551 Y122.571 E11.25277
G1 X135.117 Y123.383 E11.29564
G1 X134.615 Y124.155 E11.33852
G1 X134.047 Y124.88 E11.3814
G1 X133.419 Y125.553 E11.42427
G1 X132.735 Y126.169 E11.46713
G1 X132 Y126.723 E11.50999
G1 X131.22 Y127.212 E11.55285
G1 X130.4 Y127.631 E11.59573
G1 X129.547 Y127.977 E11.63859
G1 X128.667 Y128.248 E11.68147
G1 X127.767 Y128.441 E11.72433
G1 X126.853 Y128.556 E11.76723
G1 X126.288 Y128.587 E11.79357
G1 X125.967 Y128.596 E11.80853
G1 X125.67 Y128.6 E11.82236
G1 X94.57 Y128.599 E13.2705
G1 X93.872 Y128.59 E13.30301
G1 X92.953 Y128.538 E13.34587
G1 X92.042 Y128.407 E13.38873
G1 X91.146 Y128.197 E13.43158
G1 X90.271 Y127.91 E13.47446
G1 X89.424 Y127.548 E13.51735
G1 X88.612 Y127.114 E13.56022
G1 X87.841 Y126.612 E13.60306
G1 X87.116 Y126.044 E13.64595
G1 X86.443 Y125.415 E13.68884
G1 X85.828 Y124.731 E13.73167
G1 X85.274 Y123.996 E13.77453
G1 X84.786 Y123.215 E13.81741
G1 X84.367 Y122.395 E13.86029
G1 X84.021 Y121.542 E13.90315
G1 X83.751 Y120.662 E13.94601
G1 X83.558 Y119.761 E13.98892
G1 X83.444 Y118.848 E14.03176
G1 X83.413 Y118.277 E14.05839
G1 X83.404 Y117.944 E14.0739
G1 X83.4 Y117.658 E14.08722
G1 X83.401 Y102.531 E14.7916
G1 X83.41 Y101.866 E14.82257
G1 X83.462 Y100.946 E14.86547
G1 X83.594 Y100.035 E14.90834
G1 X83.805 Y99.139 E14.9512
G1 X84.092 Y98.264 E14.99408
G1 X84.455 Y97.418 E15.03694
G1 X84.889 Y96.606 E15.07982
G1 X85.392 Y95.835 E15.12268
G1 X85.961 Y95.111 E15.16556
G1 X86.589 Y94.439 E15.20839
G1 X87.274 Y93.823 E15.25128
G0 F6000 X87.662 Y94.024
G1 F1200 X88.394 Y93.494 E15.29337
G1 X89.169 Y93.031 E15.3354
G1 X89.982 Y92.638 E15.37745
G1 X90.827 Y92.318 E15.41952
G1 X91.696 Y92.075 E15.46154
G1 X92.584 Y91.909 E15.50361
G1 X93.723 Y91.813 E15.55683
G1 X94.044 Y91.804 E15.57178
G1 X94.33 Y91.8 E15.5851
G1 X125.293 Y91.8 E17.02687
G1 X126.137 Y91.811 E17.06617
G1 X127.039 Y91.864 E17.10825
G1 X127.932 Y91.996 E17.15028
G1 X128.81 Y92.207 E17.19233
G1 X129.666 Y92.495 E17.23438
G1 X130.493 Y92.857 E17.27642
G1 X131.285 Y93.292 E17.31849
G1 X132.036 Y93.794 E17.36056
G1 X132.739 Y94.361 E17.40261
G1 X133.389 Y94.988 E17.44466
G1 X133.981 Y95.67 E17.48672
G1 X134.511 Y96.401 E17.52876
G1 X134.973 Y97.177 E17.57081
G1 X135.366 Y97.99 E17.61286
G1 X135.684 Y98.835 E17.6549
G1 X135.927 Y99.705 E17.69696
G1 X136.092 Y100.593 E17.73902
G1 X136.187 Y101.723 E17.79182
G1 X136.196 Y102.043 E17.80673
G1 X136.2 Y102.33 E17.82009
G1 X136.199 Y117.39 E18.52135
G1 X136.19 Y118.117 E18.55521
G1 X136.139 Y119.019 E18.59727
G1 X136.008 Y119.913 E18.63935
G1 X135.799 Y120.791 E18.68137
G1 X135.513 Y121.648 E18.72344
G1 X135.152 Y122.476 E18.7655
G1 X134.72 Y123.268 E18.80751
G1 X134.219 Y124.02 E18.84959
G1 X133.653 Y124.724 E18.89165
G1 X133.028 Y125.375 E18.93367
G1 X132.347 Y125.969 E18.97575
G1 X131.616 Y126.5 E19.01782
G1 X130.842 Y126.964 E19.05984
G1 X130.029 Y127.358 E19.10191
G1 X129.185 Y127.678 E19.14394
G1 X128.315 Y127.923 E19.18602
G1 X127.428 Y128.089 E19.22804
G1 X126.277 Y128.187 E19.28183
G1 X125.956 Y128.196 E19.29679
G1 X125.67 Y128.2 E19.3101
G1 X94.575 Y128.199 E20.75802
G1 X93.877 Y128.19 E20.79052
G1 X92.976 Y128.139 E20.83254
G1 X92.082 Y128.007 E20.87462
G1 X91.204 Y127.798 E20.91665
G1 X90.347 Y127.511 E20.95873
G1 X89.52 Y127.15 E21.00075
G1 X88.727 Y126.717 E21.04282
G1 X87.976 Y126.216 E21.08486
G1 X87.272 Y125.65 E21.12692
G1 X86.621 Y125.024 E21.16897
G1 X86.028 Y124.343 E21.21102
G1 X85.498 Y123.612 E21.25307
G1 X85.034 Y122.837 E21.29513
G1 X84.64 Y122.024 E21.33719
G1 X84.32 Y121.18 E21.37922
G1 X84.076 Y120.31 E21.4213
G1 X83.91 Y119.422 E21.46336
G1 X83.813 Y118.267 E21.51733
G1 X83.804 Y117.934 E21.53285
G1 X83.8 Y117.658 E21.5457
G1 X83.801 Y102.536 E22.24984
G1 X83.81 Y101.871 E22.28081
G1 X83.862 Y100.969 E22.32288
G1 X83.994 Y100.076 E22.36492
G1 X84.204 Y99.198 E22.40695
G1 X84.491 Y98.341 E22.44904
G1 X84.853 Y97.514 E22.49107
G1 X85.286 Y96.722 E22.5331
G1 X85.788 Y95.971 E22.57517
G1 X86.355 Y95.267 E22.61726
G1 X86.981 Y94.617 E22.65928
G1 X87.662 Y94.024 E22.70132
G1 F2700 E17.70132
;MESH:diagnoseDegree360.stl
G0 F6000 X94.414 Y101.335
G0 X94.414 Y102.414
G0 X122.018 Y105.982
G0 X122.2 Y114.2
;TYPE:WALL-INNER
G1 F2700 E22.70132
G1 F1200 X97.8 Y114.2 E23.83749
G1 X97.8 Y105.8 E24.22863
G1 X122.2 Y105.8 E25.3648
G1 X122.2 Y114.2 E25.75594
G0 F6000 X122.6 Y114.6
G1 F1200 X97.4 Y114.6 E26.92935
G1 X97.4 Y105.4 E27.35774
G1 X122.6 Y105.4 E28.53116
G1 X122.6 Y114.6 E28.95955
G0 F6000 X123 Y115
G1 F1200 X97 Y115 E30.17022
G1 X97 Y105 E30.63586
G1 X123 Y105 E31.84653
G1 X123 Y115 E32.31217
G0 F6000 X123.4 Y115.4
G1 F1200 X96.6 Y115.4 E33.56009
G1 X96.6 Y104.6 E34.06299
G1 X123.4 Y104.6 E35.31091
G1 X123.4 Y115.4 E35.8138
G0 F6000 X123.8 Y115.8
G1 F1200 X96.2 Y115.8 E37.09897
G1 X96.2 Y104.2 E37.63912
G1 X123.8 Y104.2 E38.92429
G1 X123.8 Y115.8 E39.46443
G0 F6000 X124.2 Y116.2
G1 F1200 X95.8 Y116.2 E40.78686
G1 X95.8 Y103.8 E41.36425
G1 X124.2 Y103.8 E42.68667
G1 X124.2 Y116.2 E43.26407
G0 F6000 X124.6 Y116.6
G1 F1200 X95.4 Y116.6 E44.62375
G1 X95.4 Y103.4 E45.23839
G1 X124.6 Y103.4 E46.59807
G1 X124.6 Y116.6 E47.21271
G0 F6000 X125 Y117
G1 F1200 X95 Y117 E48.60964
G1 X95 Y103 E49.26154
G1 X125 Y103 E50.65846
G1 X125 Y117 E51.31036
G0 F6000 X125.4 Y117.4
G1 F1200 X94.6 Y117.4 E52.74454
G1 X94.6 Y102.6 E53.43369
G1 X125.4 Y102.6 E54.86787
G1 X125.4 Y117.4 E55.55702
G0 F6000 X125.8 Y117.8
;TYPE:WALL-OUTER
G1 F1200 X94.2 Y117.8 E57.02845
G1 X94.2 Y102.2 E57.75485
G1 X125.8 Y102.2 E59.22627
G1 X125.8 Y117.8 E59.95268
G0 F6000 X125.53 Y117.53
G0 X122.09 Y113.81
G0 X121.81 Y113.81
;TYPE:SKIN
G1 F1200 X98.19 Y113.81 E61.05252
G1 X98.19 Y106.19 E61.40734
G1 X121.81 Y106.19 E62.50719
G1 X121.81 Y113.81 E62.86201
G0 F6000 X122.09 Y113.81
G0 X122.09 Y106.941
G0 X121.649 Y106.941
G1 F1200 X121.058 Y106.35 E62.90093
G0 F6000 X120.492 Y106.35
G1 F1200 X121.649 Y107.507 E62.97712
G0 F6000 X121.649 Y108.072
G1 F1200 X119.926 Y106.35 E63.09054
G0 F6000 X119.361 Y106.35
G1 F1200 X121.649 Y108.638 E63.24121
G0 F6000 X121.649 Y109.204
G1 F1200 X118.795 Y106.35 E63.42915
G0 F6000 X118.229 Y106.35
G1 F1200 X121.649 Y109.769 E63.65433
G0 F6000 X121.649 Y110.335
G1 F1200 X117.663 Y106.35 E63.91679
G0 F6000 X117.098 Y106.35
G1 F1200 X121.649 Y110.901 E64.21648
G0 F6000 X121.649 Y111.466
G1 F1200 X116.532 Y106.35 E64.55341
G0 F6000 X115.966 Y106.35
G1 F1200 X121.649 Y112.032 E64.92761
G0 F6000 X121.649 Y112.598
G1 F1200 X115.401 Y106.35 E65.33905
G0 F6000 X114.835 Y106.35
G1 F1200 X121.649 Y113.163 E65.78773
G0 F6000 X121.569 Y113.649
G1 F1200 X114.269 Y106.35 E66.26842
G0 F6000 X113.704 Y106.35
G1 F1200 X121.003 Y113.649 E66.74907
G0 F6000 X120.437 Y113.649
G1 F1200 X113.138 Y106.35 E67.22972
G0 F6000 X112.572 Y106.35
G1 F1200 X119.872 Y113.649 E67.7104
G0 F6000 X119.306 Y113.649
G1 F1200 X112.007 Y106.35 E68.19106
G0 F6000 X111.441 Y106.35
G1 F1200 X118.74 Y113.649 E68.67171
G0 F6000 X118.175 Y113.649
G1 F1200 X110.875 Y106.35 E69.15239
G0 F6000 X110.31 Y106.35
G1 F1200 X117.609 Y113.649 E69.63304
G0 F6000 X117.043 Y113.649
G1 F1200 X109.743 Y106.349 E70.11376
G0 F6000 X109.177 Y106.349
G1 F1200 X116.478 Y113.649 E70.59451
G0 F6000 X115.912 Y113.649
G1 F1200 X108.612 Y106.349 E71.07523
G0 F6000 X108.046 Y106.349
G1 F1200 X115.346 Y113.649 E71.55595
G0 F6000 X114.781 Y113.649
G1 F1200 X107.48 Y106.349 E72.0367
G0 F6000 X106.915 Y106.349
G1 F1200 X114.215 Y113.649 E72.51741
G0 F6000 X113.649 Y113.649
G1 F1200 X106.349 Y106.349 E72.99813
G0 F6000 X105.783 Y106.349
G1 F1200 X113.084 Y113.649 E73.47888
G0 F6000 X112.518 Y113.649
G1 F1200 X105.218 Y106.349 E73.9596
G0 F6000 X104.652 Y106.349
G1 F1200 X111.952 Y113.649 E74.44032
G0 F6000 X111.386 Y113.649
G1 F1200 X104.086 Y106.349 E74.92103
G0 F6000 X103.521 Y106.349
G1 F1200 X110.821 Y113.649 E75.40175
G0 F6000 X110.255 Y113.649
G1 F1200 X102.955 Y106.349 E75.88247
G0 F6000 X102.389 Y106.349
G1 F1200 X109.689 Y113.649 E76.36319
G0 F6000 X109.123 Y113.649
G1 F1200 X101.824 Y106.349 E76.84387
G0 F6000 X101.258 Y106.349
G1 F1200 X108.557 Y113.649 E77.32456
G0 F6000 X107.992 Y113.649
G1 F1200 X100.692 Y106.349 E77.80527
G0 F6000 X100.127 Y106.349
G1 F1200 X107.426 Y113.649 E78.28596
G0 F6000 X106.86 Y113.649
G1 F1200 X99.561 Y106.349 E78.76664
G0 F6000 X98.995 Y106.349
G1 F1200 X106.295 Y113.649 E79.24736
G0 F6000 X105.729 Y113.649
G1 F1200 X98.429 Y106.349 E79.72808
G0 F6000 X98.35 Y106.835
G1 F1200 X105.163 Y113.649 E80.17676
G0 F6000 X104.598 Y113.649
G1 F1200 X98.35 Y107.401 E80.5882
G0 F6000 X98.35 Y107.966
G1 F1200 X104.032 Y113.649 E80.9624
G0 F6000 X103.466 Y113.649
G1 F1200 X98.35 Y108.532 E81.29933
G0 F6000 X98.35 Y109.098
G1 F1200 X102.901 Y113.649 E81.59902
G0 F6000 X102.335 Y113.649
G1 F1200 X98.35 Y109.663 E81.86148
G0 F6000 X98.35 Y110.229
G1 F1200 X101.769 Y113.649 E82.08666
G0 F6000 X101.203 Y113.649
G1 F1200 X98.35 Y110.795 E82.27456
G0 F6000 X98.35 Y111.36
G1 F1200 X100.638 Y113.649 E82.42526
G0 F6000 X100.072 Y113.649
G1 F1200 X98.35 Y111.926 E82.53869
G0 F6000 X98.35 Y112.492
G1 F1200 X99.506 Y113.649 E82.61485
G0 F6000 X98.941 Y113.649
G1 F1200 X98.35 Y113.057 E82.6538
G0 F6000 X97.61 Y113.057
G1 F2700 E77.6538
;MESH:NONMESH
G0 F300 X97.61 Y113.057 Z0.56
G0 F6000 X97.982 Y114.018
G0 X122.2 Y114.2
;TIME_ELAPSED:100.795428
;LAYER:1
M106 S85
;TYPE:WALL-INNER
;MESH:diagnoseDegree360.stl
G1 F2700 E82.6538
G1 F1350 X97.8 Y114.2 E83.78997
G1 X97.8 Y105.8 E84.18111
G1 X122.2 Y105.8 E85.31727
G1 X122.2 Y114.2 E85.70841
G0 F6600 X122.6 Y114.6
G1 F1350 X97.4 Y114.6 E86.88183
G1 X97.4 Y105.4 E87.31022
G1 X122.6 Y105.4 E88.48364
G1 X122.6 Y114.6 E88.91203
G0 F6600 X123 Y115
G1 F1350 X97 Y115 E90.1227
G1 X97 Y105 E90.58834
G1 X123 Y105 E91.79901
G1 X123 Y115 E92.26465
G0 F6600 X123.4 Y115.4
G1 F1350 X96.6 Y115.4 E93.51257
G1 X96.6 Y104.6 E94.01547
G1 X123.4 Y104.6 E95.26339
G1 X123.4 Y115.4 E95.76628
G0 F6600 X123.8 Y115.8
G1 F1350 X96.2 Y115.8 E97.05145
G1 X96.2 Y104.2 E97.5916
G1 X123.8 Y104.2 E98.87677
G1 X123.8 Y115.8 E99.41691
G0 F6600 X124.2 Y116.2
G1 F1350 X95.8 Y116.2 E100.73933
G1 X95.8 Y103.8 E101.31673
G1 X124.2 Y103.8 E102.63915
G1 X124.2 Y116.2 E103.21655
G0 F6600 X124.6 Y116.6
G1 F1350 X95.4 Y116.6 E104.57622
G1 X95.4 Y103.4 E105.19087
G1 X124.6 Y103.4 E106.55055
G1 X124.6 Y116.6 E107.16519
G0 F6600 X125 Y117
G1 F1350 X95 Y117 E108.56212
G1 X95 Y103 E109.21402
G1 X125 Y103 E110.61094
G1 X125 Y117 E111.26284
G0 F6600 X125.4 Y117.4
G1 F1350 X94.6 Y117.4 E112.69702
G1 X94.6 Y102.6 E113.38617
G1 X125.4 Y102.6 E114.82035
G1 X125.4 Y117.4 E115.5095
G0 F6600 X125.8 Y117.8
;TYPE:WALL-OUTER
G1 F1350 X94.2 Y117.8 E116.98092
G1 X94.2 Y102.2 E117.70732
G1 X125.8 Y102.2 E119.17875
G1 X125.8 Y117.8 E119.90515
G0 F6600 X125.53 Y117.53
G0 X122.09 Y113.81
G0 X121.81 Y113.81
;TYPE:SKIN
G1 F1350 X98.19 Y113.81 E121.005
G1 X98.19 Y106.19 E121.35982
G1 X121.81 Y106.19 E122.45967
G1 X121.81 Y113.81 E122.81449
G0 F6600 X121.649 Y113.11
G1 F1350 X121.109 Y113.65 E122.85005
G0 F6600 X120.543 Y113.65
G1 F1350 X121.649 Y112.544 E122.92288
G0 F6600 X121.649 Y111.978
G1 F1350 X119.977 Y113.65 E123.03298
G0 F6600 X119.411 Y113.65
G1 F1350 X121.649 Y111.413 E123.18032
G0 F6600 X121.649 Y110.847
G1 F1350 X118.846 Y113.65 E123.36491
G0 F6600 X118.28 Y113.65
G1 F1350 X121.649 Y110.281 E123.58676
G0 F6600 X121.649 Y109.716
G1 F1350 X117.714 Y113.65 E123.84585
G0 F6600 X117.149 Y113.65
G1 F1350 X121.649 Y109.15 E124.14219
G0 F6600 X121.649 Y108.584
G1 F1350 X116.583 Y113.65 E124.47579
G0 F6600 X116.017 Y113.65
G1 F1350 X121.649 Y108.019 E124.84664
G0 F6600 X121.649 Y107.453
G1 F1350 X115.452 Y113.65 E125.25472
G0 F6600 X114.886 Y113.65
G1 F1350 X121.649 Y106.887 E125.70007
G0 F6600 X121.621 Y106.349
G1 F1350 X114.32 Y113.65 E126.18086
G0 F6600 X113.755 Y113.65
