;FLAVOR:Marlin
;TIME:17321
;Filament used: 15.7052m
;Layer height: 0.28
;MINX:13
;MINY:35
;MINZ:0.28
;MAXX:207
;MAXY:185
;MAXZ:7.84
;Generated with Creality Slicer 4.8.2-191
M140 S50
M105
M190 S50
M104 S200
M105
M109 S200
M82 ;absolute extrusion mode

G28 ;Home

G92 E0 ;Reset Extruder
G1 Z2.0 F3000 ;Move Z Axis up
G1 X10.1 Y20 Z0.28 F5000.0 ;Move to start position
G1 X10.1 Y200.0 Z0.28 F1500.0 E15 ;Draw the first line
G1 X10.4 Y200.0 Z0.28 F5000.0 ;Move to side a little
G1 X10.4 Y20 Z0.28 F1500.0 E30 ;Draw the second line
G92 E0 ;Reset Extruder
G1 Z2.0 F3000 ;Move Z Axis up

G92 E0
G92 E0
G1 F2700 E-5
;LAYER_COUNT:28
;LAYER:0
M107
G0 F6000 X19.255 Y36.09 Z0.28
;TYPE:SKIRT
G1 F2700 E0
G1 F1200 X20.117 Y35.721 E0.04366
G1 X21.008 Y35.427 E0.08735
G1 X21.92 Y35.209 E0.13101
G1 X22.847 Y35.071 E0.17465
G1 X23.701 Y35.013 E0.21451
G1 X24.021 Y35.004 E0.22942
G1 X24.33 Y35 E0.24381
G1 X195.293 Y35 E8.20456
G1 X196.149 Y35.011 E8.24442
G1 X197.085 Y35.065 E8.28808
G1 X198.013 Y35.197 E8.33173
G1 X198.927 Y35.409 E8.37542
G1 X199.819 Y35.698 E8.41908
G1 X200.684 Y36.061 E8.46276
G1 X201.514 Y36.497 E8.50641
G1 X202.305 Y37.002 E8.55011
G1 X203.049 Y37.573 E8.59378
G1 X203.742 Y38.205 E8.63746
G1 X204.379 Y38.893 E8.68111
G1 X204.954 Y39.634 E8.72479
G1 X205.465 Y40.42 E8.76844
G1 X205.907 Y41.248 E8.81215
G1 X206.276 Y42.11 E8.85581
G1 X206.571 Y43 E8.89947
G1 X206.789 Y43.912 E8.94313
G1 X206.929 Y44.84 E8.98683
G1 X206.987 Y45.701 E9.02701
G1 X206.996 Y46.021 E9.04192
G1 X207 Y46.33 E9.05631
G1 X206.999 Y105.416 E11.8076
G1 X206.989 Y106.142 E11.84141
G1 X206.936 Y107.078 E11.88506
G1 X206.804 Y108.006 E11.92871
G1 X206.593 Y108.92 E11.97239
G1 X206.304 Y109.813 E12.0161
G1 X205.941 Y110.677 E12.05973
G1 X205.506 Y111.508 E12.10341
G1 X205.001 Y112.299 E12.14711
G1 X204.431 Y113.043 E12.19075
G1 X203.8 Y113.737 E12.23443
G1 X203.111 Y114.374 E12.27812
G1 X202.371 Y114.95 E12.32178
G1 X201.585 Y115.461 E12.36544
G1 X200.758 Y115.903 E12.4091
G1 X199.896 Y116.273 E12.45278
G1 X199.006 Y116.569 E12.49646
G1 X198.191 Y116.768 E12.53552
G1 X197.809 Y116.846 E12.55368
G1 X195.314 Y117.386 E12.67254
G1 X192.926 Y117.972 E12.78704
G1 X190.447 Y118.658 E12.90681
G1 X188.026 Y119.401 E13.02473
G1 X185.658 Y120.202 E13.14113
G1 X183.319 Y121.067 E13.25725
G1 X180.937 Y122.025 E13.3768
G1 X178.662 Y123.017 E13.49237
G1 X176.372 Y124.092 E13.61017
G1 X174.149 Y125.215 E13.72614
G1 X171.894 Y126.434 E13.8455
G1 X169.767 Y127.663 E13.95989
G1 X167.598 Y129 E14.07853
G1 X165.461 Y130.401 E14.19752
G1 X163.429 Y131.819 E14.31289
G1 X161.418 Y133.307 E14.42938
G1 X159.406 Y134.887 E14.5485
G1 X157.484 Y136.486 E14.66492
G1 X155.585 Y138.158 E14.78274
G1 X153.766 Y139.853 E14.89851
G1 X151.966 Y141.629 E15.01626
G1 X150.233 Y143.438 E15.13291
G1 X148.521 Y145.33 E15.25172
G1 X146.898 Y147.228 E15.36801
G1 X145.307 Y149.199 E15.48595
G1 X143.794 Y151.188 E15.60232
G1 X142.329 Y153.23 E15.71934
G1 X140.897 Y155.347 E15.83835
G1 X139.574 Y157.431 E15.9533
G1 X138.282 Y159.599 E16.07081
G1 X137.038 Y161.824 E16.18951
G1 X135.888 Y164.028 E16.30527
G1 X134.778 Y166.31 E16.42343
G1 X133.745 Y168.596 E16.54024
G1 X132.779 Y170.906 E16.65683
G1 X131.849 Y173.317 E16.77716
G1 X131.039 Y175.611 E16.89044
G1 X130.769 Y176.454 E16.93166
G1 X130.41 Y177.517 E16.98391
G1 X130.072 Y178.392 E17.02758
G1 X129.66 Y179.235 E17.07127
G1 X129.178 Y180.039 E17.11492
G1 X128.63 Y180.8 E17.15859
G1 X128.018 Y181.511 E17.20227
G1 X127.348 Y182.168 E17.24597
G1 X126.625 Y182.765 E17.28963
G1 X125.853 Y183.298 E17.33331
G1 X125.039 Y183.763 E17.37696
G1 X124.188 Y184.158 E17.42065
G1 X123.307 Y184.478 E17.46429
G1 X122.401 Y184.723 E17.508
G1 X121.478 Y184.889 E17.55167
G1 X120.334 Y184.985 E17.60512
G1 X120.013 Y184.995 E17.62008
G1 X119.67 Y185 E17.63605
G1 X24.565 Y184.999 E22.06454
G1 X23.867 Y184.99 E22.09704
G1 X22.931 Y184.938 E22.14069
G1 X22.002 Y184.806 E22.18439
G1 X21.088 Y184.596 E22.22805
G1 X20.195 Y184.309 E22.27173
G1 X19.33 Y183.946 E22.31541
G1 X18.499 Y183.512 E22.35907
G1 X17.708 Y183.008 E22.40274
G1 X16.963 Y182.438 E22.44642
G1 X16.269 Y181.807 E22.49009
G1 X15.632 Y181.12 E22.53372
G1 X15.055 Y180.38 E22.57741
G1 X14.543 Y179.594 E22.62109
G1 X14.1 Y178.767 E22.66478
G1 X13.729 Y177.906 E22.70843
G1 X13.433 Y177.016 E22.75211
G1 X13.214 Y176.104 E22.79578
G1 X13.073 Y175.177 E22.83944
G1 X13.013 Y174.288 E22.88093
G1 X13.004 Y173.955 E22.89644
G1 X13 Y173.658 E22.91028
G1 X13.001 Y114.55 E25.66259
G1 X13.019 Y113.347 E25.71861
G1 X13.076 Y111.302 E25.81387
G1 X13.076 Y108.749 E25.93275
G1 X13.046 Y107.405 E25.99535
G1 X13.005 Y106.009 E26.06038
G1 X13 Y105.688 E26.07533
G1 X13.001 Y46.509 E28.83095
G1 X13.011 Y45.844 E28.86192
G1 X13.065 Y44.907 E28.90563
G1 X13.199 Y43.979 E28.94929
G1 X13.411 Y43.065 E28.99297
G1 X13.7 Y42.173 E29.03664
G1 X14.065 Y41.309 E29.08031
G1 X14.501 Y40.479 E29.12397
G1 X15.007 Y39.689 E29.16765
G1 X15.578 Y38.945 E29.21132
G1 X16.21 Y38.252 E29.25499
G1 X16.899 Y37.616 E29.29866
G1 X17.64 Y37.041 E29.34233
G1 X18.427 Y36.531 E29.386
G1 X19.255 Y36.09 E29.42968
G0 F6000 X19.627 Y36.358
G1 F1200 X20.481 Y36.014 E29.47255
G1 X21.361 Y35.745 E29.5154
G1 X22.262 Y35.554 E29.55829
G1 X23.176 Y35.442 E29.60116
G1 X23.712 Y35.413 E29.62616
G1 X24.032 Y35.404 E29.64106
G1 X24.33 Y35.4 E29.65494
G1 X195.293 Y35.4 E37.6157
G1 X196.143 Y35.411 E37.65528
G1 X197.062 Y35.464 E37.69814
G1 X197.973 Y35.597 E37.74101
G1 X198.869 Y35.808 E37.78387
G1 X199.743 Y36.096 E37.82672
G1 X200.59 Y36.459 E37.86963
G1 X201.401 Y36.894 E37.91249
G1 X202.171 Y37.398 E37.95534
G1 X202.895 Y37.967 E37.99822
G1 X203.567 Y38.597 E38.04111
G1 X204.182 Y39.282 E38.08397
G1 X204.735 Y40.018 E38.12684
G1 X205.222 Y40.799 E38.1697
G1 X205.639 Y41.62 E38.21258
G1 X205.984 Y42.474 E38.25546
G1 X206.253 Y43.354 E38.29831
G1 X206.445 Y44.255 E38.34121
G1 X206.558 Y45.168 E38.38405
G1 X206.587 Y45.712 E38.40941
G1 X206.596 Y46.032 E38.42432
G1 X206.6 Y46.33 E38.4382
G1 X206.599 Y105.41 E41.18921
G1 X206.589 Y106.136 E41.22302
G1 X206.536 Y107.055 E41.26588
G1 X206.404 Y107.966 E41.30874
G1 X206.193 Y108.862 E41.35161
G1 X205.906 Y109.737 E41.39449
G1 X205.543 Y110.583 E41.43735
G1 X205.109 Y111.395 E41.48023
G1 X204.605 Y112.166 E41.52312
G1 X204.037 Y112.89 E41.56597
G1 X203.408 Y113.562 E41.60883
G1 X202.723 Y114.177 E41.65169
G1 X201.987 Y114.731 E41.69459
G1 X201.206 Y115.218 E41.73744
G1 X200.385 Y115.636 E41.78034
G1 X199.532 Y115.981 E41.82319
G1 X198.652 Y116.25 E41.86604
G1 X198.111 Y116.376 E41.8919
G1 X197.729 Y116.454 E41.91006
G1 X195.247 Y116.991 E42.0283
G1 X192.798 Y117.593 E42.14573
G1 X190.319 Y118.278 E42.26549
G1 X187.928 Y119.012 E42.38195
G1 X185.528 Y119.823 E42.49992
G1 X183.167 Y120.696 E42.61713
G1 X180.806 Y121.646 E42.73563
G1 X178.481 Y122.66 E42.85374
G1 X176.201 Y123.731 E42.97104
G1 X173.957 Y124.864 E43.08809
G1 X171.71 Y126.078 E43.20702
G1 X169.537 Y127.335 E43.32391
G1 X167.374 Y128.667 E43.44219
G1 X165.258 Y130.055 E43.56003
G1 X163.208 Y131.485 E43.67642
G1 X161.156 Y133.004 E43.7953
G1 X159.166 Y134.566 E43.91309
G1 X157.23 Y136.176 E44.03034
G1 X155.331 Y137.849 E44.14819
G1 X153.46 Y139.593 E44.26729
G1 X151.679 Y141.35 E44.38378
G1 X149.93 Y143.175 E44.50149
G1 X148.236 Y145.047 E44.61905
G1 X146.581 Y146.984 E44.73768
G1 X144.993 Y148.952 E44.85543
G1 X143.483 Y150.935 E44.97149
G1 X141.988 Y153.018 E45.09088
G1 X140.587 Y155.09 E45.20735
G1 X139.21 Y157.259 E45.32698
G1 X137.922 Y159.42 E45.44412
G1 X136.7 Y161.608 E45.56082
G1 X135.531 Y163.846 E45.67839
G1 X134.411 Y166.149 E45.79763
G1 X133.388 Y168.413 E45.91332
G1 X132.395 Y170.787 E46.03314
G1 X131.485 Y173.146 E46.15088
G1 X130.657 Y175.493 E46.26676
G1 X130.388 Y176.332 E46.30779
G1 X130.031 Y177.389 E46.35974
G1 X129.698 Y178.247 E46.40259
G1 X129.292 Y179.074 E46.44549
G1 X128.816 Y179.862 E46.48836
G1 X128.273 Y180.605 E46.53121
G1 X127.668 Y181.299 E46.57408
G1 X127.005 Y181.938 E46.61696
G1 X126.289 Y182.516 E46.65981
G1 X125.525 Y183.031 E46.70271
G1 X124.72 Y183.477 E46.74556
G1 X123.879 Y183.851 E46.78842
G1 X123.009 Y184.151 E46.83127
G1 X122.115 Y184.375 E46.87419
G1 X121.206 Y184.52 E46.91705
G1 X120.321 Y184.585 E46.95837
G1 X120 Y184.595 E46.97333
G1 X119.67 Y184.6 E46.98869
G1 X24.57 Y184.599 E51.41695
G1 X23.872 Y184.59 E51.44945
G1 X22.953 Y184.538 E51.49231
G1 X22.042 Y184.407 E51.53517
G1 X21.146 Y184.197 E51.57802
G1 X20.271 Y183.91 E51.6209
G1 X19.424 Y183.548 E51.66379
G1 X18.612 Y183.114 E51.70666
G1 X17.841 Y182.612 E51.7495
G1 X17.116 Y182.044 E51.79239
G1 X16.443 Y181.415 E51.83528
G1 X15.828 Y180.731 E51.87811
G1 X15.274 Y179.996 E51.92097
G1 X14.786 Y179.215 E51.96385
G1 X14.367 Y178.395 E52.00673
G1 X14.021 Y177.542 E52.0496
G1 X13.751 Y176.662 E52.09246
G1 X13.558 Y175.761 E52.13536
G1 X13.444 Y174.848 E52.17821
G1 X13.413 Y174.277 E52.20483
G1 X13.404 Y173.944 E52.22035
G1 X13.4 Y173.658 E52.23366
G1 X13.401 Y114.556 E54.9857
G1 X13.419 Y113.359 E55.04144
G1 X13.476 Y111.314 E55.13671
G1 X13.476 Y108.74 E55.25656
G1 X13.446 Y107.396 E55.31916
G1 X13.405 Y105.998 E55.38428
G1 X13.4 Y105.688 E55.39872
G1 X13.401 Y46.515 E58.15406
G1 X13.411 Y45.85 E58.18503
G1 X13.465 Y44.931 E58.2279
G1 X13.598 Y44.02 E58.27077
G1 X13.81 Y43.124 E58.31364
G1 X14.099 Y42.249 E58.35655
G1 X14.463 Y41.404 E58.39939
G1 X14.898 Y40.593 E58.44225
G1 X15.403 Y39.822 E58.48516
G1 X15.972 Y39.099 E58.528
G1 X16.602 Y38.427 E58.5709
G1 X17.288 Y37.813 E58.61376
G1 X18.024 Y37.261 E58.6566
G1 X18.806 Y36.774 E58.6995
G1 X19.627 Y36.358 E58.74236
G0 F6000 X19.997 Y36.632
G1 F1200 X20.842 Y36.313 E58.78441
G1 X21.712 Y36.071 E58.82646
G1 X22.6 Y35.907 E58.86851
G1 X23.723 Y35.813 E58.92099
G1 X24.043 Y35.804 E58.93589
G1 X24.33 Y35.8 E58.94926
G1 X195.293 Y35.8 E66.91001
G1 X196.137 Y35.811 E66.94931
G1 X197.039 Y35.864 E66.99139
G1 X197.932 Y35.996 E67.03342
G1 X198.81 Y36.207 E67.07547
G1 X199.666 Y36.495 E67.11752
G1 X200.493 Y36.857 E67.15956
G1 X201.285 Y37.292 E67.20163
G1 X202.036 Y37.794 E67.2437
G1 X202.739 Y38.361 E67.28575
G1 X203.389 Y38.988 E67.32781
G1 X203.981 Y39.67 E67.36986
G1 X204.511 Y40.401 E67.4119
G1 X204.973 Y41.177 E67.45395
G1 X205.366 Y41.99 E67.496
G1 X205.684 Y42.835 E67.53804
G1 X205.927 Y43.705 E67.5801
G1 X206.092 Y44.593 E67.62216
G1 X206.187 Y45.723 E67.67496
G1 X206.196 Y46.043 E67.68987
G1 X206.2 Y46.33 E67.70324
G1 X206.199 Y105.404 E70.45397
G1 X206.189 Y106.13 E70.48778
G1 X206.137 Y107.032 E70.52985
G1 X206.005 Y107.925 E70.57188
G1 X205.794 Y108.804 E70.61397
G1 X205.507 Y109.66 E70.65601
G1 X205.145 Y110.487 E70.69805
G1 X204.711 Y111.279 E70.7401
G1 X204.209 Y112.03 E70.78217
G1 X203.643 Y112.734 E70.82423
G1 X203.016 Y113.384 E70.86628
G1 X202.335 Y113.977 E70.90833
G1 X201.603 Y114.506 E70.95038
G1 X200.828 Y114.97 E70.99244
G1 X200.015 Y115.362 E71.03447
G1 X199.17 Y115.682 E71.07654
G1 X198.031 Y115.984 E71.13141
G1 X197.649 Y116.062 E71.14957
G1 X195.139 Y116.605 E71.26915
G1 X192.692 Y117.206 E71.38648
G1 X190.242 Y117.883 E71.50483
G1 X187.788 Y118.637 E71.62437
G1 X185.409 Y119.441 E71.74131
G1 X182.985 Y120.338 E71.86166
G1 X180.676 Y121.267 E71.97755
G1 X178.317 Y122.295 E72.09737
G1 X176.029 Y123.369 E72.21507
G1 X173.766 Y124.512 E72.33312
G1 X171.526 Y125.723 E72.45169
G1 X169.332 Y126.991 E72.56969
G1 X167.141 Y128.342 E72.68954
G1 X165.039 Y129.72 E72.80658
G1 X162.963 Y131.168 E72.92444
G1 X160.917 Y132.683 E73.04298
G1 X158.93 Y134.242 E73.16059
G1 X156.955 Y135.885 E73.28021
G1 X155.057 Y137.556 E73.39796
G1 X153.189 Y139.298 E73.5169
G1 X151.41 Y141.054 E73.63329
G1 X149.628 Y142.913 E73.7532
G1 X147.936 Y144.782 E73.8706
G1 X146.267 Y146.735 E73.99022
G1 X144.692 Y148.686 E74.10697
G1 X143.143 Y150.722 E74.2261
G1 X141.676 Y152.766 E74.34325
G1 X140.235 Y154.898 E74.46307
G1 X138.888 Y157.019 E74.58007
G1 X137.573 Y159.226 E74.6997
G1 X136.354 Y161.407 E74.81604
G1 X135.161 Y163.693 E74.93611
G1 X134.059 Y165.959 E75.05344
G1 X133.013 Y168.272 E75.17164
G1 X132.029 Y170.625 E75.2904
G1 X131.106 Y173.017 E75.40979
G1 X130.278 Y175.364 E75.52568
G1 X130.007 Y176.21 E75.56704
G1 X129.652 Y177.261 E75.6187
G1 X129.325 Y178.103 E75.66076
G1 X128.925 Y178.912 E75.70278
G1 X128.454 Y179.683 E75.74485
G1 X127.918 Y180.409 E75.78687
G1 X127.319 Y181.085 E75.82893
G1 X126.662 Y181.706 E75.87102
G1 X125.954 Y182.266 E75.91306
G1 X125.198 Y182.761 E75.95513
G1 X124.402 Y183.187 E75.99717
G1 X123.572 Y183.541 E76.03919
G1 X122.713 Y183.82 E76.08125
G1 X121.833 Y184.022 E76.12329
G1 X120.938 Y184.146 E76.16536
G1 X120.309 Y184.185 E76.19471
G1 X119.988 Y184.195 E76.20966
G1 X119.67 Y184.2 E76.22447
G1 X24.575 Y184.199 E80.65249
G1 X23.877 Y184.19 E80.685
G1 X22.976 Y184.139 E80.72702
G1 X22.082 Y184.007 E80.7691
G1 X21.204 Y183.798 E80.81112
G1 X20.347 Y183.511 E80.85321
G1 X19.52 Y183.15 E80.89522
G1 X18.727 Y182.717 E80.9373
G1 X17.976 Y182.216 E80.97933
G1 X17.272 Y181.65 E81.02139
G1 X16.621 Y181.024 E81.06345
G1 X16.028 Y180.343 E81.1055
G1 X15.498 Y179.612 E81.14754
G1 X15.034 Y178.837 E81.1896
G1 X14.64 Y178.024 E81.23167
G1 X14.32 Y177.18 E81.2737
G1 X14.076 Y176.31 E81.31577
G1 X13.91 Y175.422 E81.35784
G1 X13.813 Y174.267 E81.41181
G1 X13.804 Y173.934 E81.42732
G1 X13.8 Y173.658 E81.44017
G1 X13.801 Y114.562 E84.19193
G1 X13.819 Y113.37 E84.24744
G1 X13.876 Y111.325 E84.3427
G1 X13.876 Y108.731 E84.46349
G1 X13.847 Y107.457 E84.52283
G1 X13.804 Y105.986 E84.59135
G1 X13.8 Y105.688 E84.60523
G1 X13.801 Y46.521 E87.36029
G1 X13.811 Y45.856 E87.39126
G1 X13.865 Y44.954 E87.43334
G1 X13.998 Y44.061 E87.47538
G1 X14.209 Y43.183 E87.51743
G1 X14.498 Y42.327 E87.5595
G1 X14.861 Y41.5 E87.60155
G1 X15.295 Y40.709 E87.64356
G1 X15.798 Y39.958 E87.68565
G1 X16.366 Y39.256 E87.7277
G1 X16.993 Y38.606 E87.76975
G1 X17.675 Y38.014 E87.81181
G1 X18.407 Y37.485 E87.85386
G1 X19.183 Y37.023 E87.89591
G1 X19.997 Y36.632 E87.93796
G1 F2700 E82.93796
;MESH:body_assemble_quater.stl
G0 F6000 X23.347 Y106.653
G0 X83.251 Y106.654
G0 X101.327 Y126.665
G0 X101.327 Y125.23
G0 X108.428 Y125.572
G0 X108.6 Y134.6
;TYPE:WALL-INNER
G1 F2700 E87.93796
G1 F1200 X108.6 Y125.4 E88.36635
G1 X99.4 Y125.4 E88.79474
G1 X99.4 Y134.6 E89.22313
G1 X108.6 Y134.6 E89.65152
G0 F6000 X108.2 Y134.2
;TYPE:WALL-OUTER
G1 F1200 X108.2 Y125.8 E90.04266
G1 X99.8 Y125.8 E90.4338
G1 X99.8 Y134.2 E90.82494
G1 X108.2 Y134.2 E91.21608
G1 F2700 E86.21608
G0 F6000 X108.5 Y134.2
G0 X99.21 Y134.6
G0 X96.79 Y134.6
G0 X96.6 Y134.6
;TYPE:WALL-INNER
G1 F2700 E91.21608
G1 F1200 X96.6 Y125.4 E91.64447
G1 X87.4 Y125.4 E92.07286
G1 X87.4 Y134.6 E92.50125
G1 X96.6 Y134.6 E92.92964
G0 F6000 X96.2 Y134.2
;TYPE:WALL-OUTER
G1 F1200 X96.2 Y125.8 E93.32078
G1 X87.8 Y125.8 E93.71192
G1 X87.8 Y134.2 E94.10306
G1 X96.2 Y134.2 E94.4942
G1 F2700 E89.4942
G0 F6000 X96.5 Y134.2
G0 X87.21 Y134.6
G0 X84.79 Y134.6
G0 X84.6 Y134.6
;TYPE:WALL-INNER
G1 F2700 E94.4942
G1 F1200 X84.6 Y125.4 E94.92259
G1 X75.4 Y125.4 E95.35098
G1 X75.4 Y134.6 E95.77937
G1 X84.6 Y134.6 E96.20776
G0 F6000 X84.2 Y134.2
;TYPE:WALL-OUTER
G1 F1200 X84.2 Y125.8 E96.5989
G1 X75.8 Y125.8 E96.99004
G1 X75.8 Y134.2 E97.38118
G1 X84.2 Y134.2 E97.77232
G1 F2700 E92.77232
G0 F6000 X84.5 Y134.2
G0 X75.21 Y134.6
G0 X76.653 Y133.347
G0 X67.347 Y133.347
G0 X68.79 Y134.6
G0 X68.6 Y134.6
;TYPE:WALL-INNER
G1 F2700 E97.77232
G1 F1200 X68.6 Y125.4 E98.20071
G1 X59.4 Y125.4 E98.6291
G1 X59.4 Y134.6 E99.05749
G1 X68.6 Y134.6 E99.48588
G0 F6000 X68.2 Y134.2
;TYPE:WALL-OUTER
G1 F1200 X68.2 Y125.8 E99.87702
G1 X59.8 Y125.8 E100.26816
G1 X59.8 Y134.2 E100.6593
G1 X68.2 Y134.2 E101.05044
G1 F2700 E96.05044
G0 F6000 X68.5 Y134.2
G0 X59.21 Y134.6
G0 X56.79 Y134.6
G0 X56.6 Y134.6
;TYPE:WALL-INNER
G1 F2700 E101.05044
G1 F1200 X56.6 Y125.4 E101.47883
G1 X47.4 Y125.4 E101.90722
G1 X47.4 Y134.6 E102.33561
G1 X56.6 Y134.6 E102.764
G0 F6000 X56.2 Y134.2
;TYPE:WALL-OUTER
G1 F1200 X56.2 Y125.8 E103.15514
G1 X47.8 Y125.8 E103.54628
G1 X47.8 Y134.2 E103.93742
G1 X56.2 Y134.2 E104.32856
G1 F2700 E99.32856
G0 F6000 X56.5 Y134.2
G0 X47.21 Y134.6
G0 X44.79 Y134.6
G0 X44.6 Y134.6
;TYPE:WALL-INNER
G1 F2700 E104.32856
