;FLAVOR:Marlin
;TIME:13737
;Filament used: 13.2361m
;Layer height: 0.28
;MINX:19
;MINY:55
;MINZ:0.28
;MAXX:201
;MAXY:165
;MAXZ:15.96
;Generated with Creality Slicer 4.8.2-191
M140 S50
M105
M190 S50
M104 S200
M105
M109 S200
M82 ;absolute extrusion mode

G28 ;Home

G92 E0 ;Reset Extruder
G1 Z2.0 F3000 ;Move Z Axis up
G1 X10.1 Y20 Z0.28 F5000.0 ;Move to start position
G1 X10.1 Y200.0 Z0.28 F1500.0 E15 ;Draw the first line
G1 X10.4 Y200.0 Z0.28 F5000.0 ;Move to side a little
G1 X10.4 Y20 Z0.28 F1500.0 E30 ;Draw the second line
G92 E0 ;Reset Extruder
G1 Z2.0 F3000 ;Move Z Axis up

G92 E0
G92 E0
G1 F2700 E-5
;LAYER_COUNT:57
;LAYER:0
M107
G0 F6000 X28.123 Y56.216 Z0.28
;TYPE:SKIRT
G1 F2700 E0
G1 F1200 X28.996 Y55.873 E0.04368
G1 X29.895 Y55.605 E0.08736
G1 X30.437 Y55.482 E0.11324
G1 X31.049 Y55.36 E0.14229
G1 X31.343 Y55.306 E0.15621
G1 X32.155 Y55.167 E0.19457
G1 X33.085 Y55.048 E0.23823
G1 X33.701 Y55.013 E0.26696
G1 X34.02 Y55.004 E0.28182
G1 X34.33 Y55 E0.29626
G1 X185.293 Y55 E7.32573
G1 X186.155 Y55.011 E7.36587
G1 X186.652 Y55.029 E7.38903
G1 X187.123 Y55.057 E7.411
G1 X188.056 Y55.153 E7.45467
G1 X188.977 Y55.328 E7.49832
G1 X190.208 Y55.693 E7.55811
G1 X191.131 Y56.027 E7.60382
G1 X191.524 Y56.176 E7.62339
G1 X192.317 Y56.49 E7.6631
G1 X193.173 Y56.872 E7.70675
G1 X193.994 Y57.326 E7.75043
G1 X194.773 Y57.849 E7.79413
G1 X195.504 Y58.436 E7.83778
G1 X196.378 Y59.29 E7.89468
G1 X196.971 Y59.94 E7.93565
G1 X197.405 Y60.431 E7.96616
G1 X197.858 Y60.956 E7.99845
G1 X198.44 Y61.691 E8.04211
G1 X198.957 Y62.474 E8.0858
G1 X199.406 Y63.298 E8.12949
G1 X199.783 Y64.156 E8.17313
G1 X200.169 Y65.348 E8.23147
G1 X200.407 Y66.259 E8.27532
G1 X200.545 Y66.821 E8.30226
G1 X200.705 Y67.51 E8.3352
G1 X200.878 Y68.432 E8.37888
G1 X200.986 Y69.692 E8.43777
G1 X200.996 Y70.051 E8.45449
G1 X201 Y70.357 E8.46874
G1 X200.999 Y149.427 E12.15057
G1 X200.989 Y150.147 E12.1841
G1 X200.936 Y151.083 E12.22775
G1 X200.76 Y152.232 E12.28188
G1 X200.691 Y152.564 E12.29767
G1 X200.597 Y152.977 E12.31739
G1 X200.346 Y153.983 E12.36567
G1 X200.176 Y154.633 E12.39696
G1 X199.9 Y155.53 E12.44066
G1 X199.549 Y156.399 E12.4843
G1 X199.125 Y157.236 E12.52799
G1 X198.632 Y158.033 E12.57163
G1 X197.881 Y159.015 E12.62919
G1 X197.262 Y159.734 E12.67337
G1 X196.845 Y160.202 E12.70256
G1 X196.409 Y160.68 E12.73268
G1 X195.773 Y161.323 E12.7748
G1 X195.06 Y161.933 E12.81849
G1 X194.299 Y162.48 E12.86213
G1 X193.493 Y162.96 E12.90581
G1 X192.321 Y163.507 E12.96603
G1 X191.454 Y163.849 E13.00943
G1 X190.941 Y164.043 E13.03497
G1 X190.24 Y164.298 E13.06971
G1 X189.346 Y164.581 E13.11337
G1 X188.431 Y164.787 E13.15704
G1 X187.548 Y164.909 E13.19855
G1 X187.069 Y164.949 E13.22093
G1 X186.758 Y164.968 E13.23544
G1 X186.403 Y164.983 E13.25198
G1 X185.986 Y164.995 E13.27141
G1 X185.67 Y165 E13.28613
G1 X34.55 Y164.999 E20.32291
G1 X33.848 Y164.989 E20.3556
G1 X32.912 Y164.936 E20.39925
G1 X31.998 Y164.805 E20.44225
G1 X30.967 Y164.622 E20.491
G1 X30.485 Y164.528 E20.51387
G1 X29.573 Y164.309 E20.55754
G1 X28.683 Y164.014 E20.6012
G1 X27.822 Y163.643 E20.64486
G1 X26.995 Y163.201 E20.68852
G1 X26.483 Y162.879 E20.71669
G1 X25.668 Y162.333 E20.76237
G1 X25.234 Y162.032 E20.78696
G1 X24.657 Y161.623 E20.81989
G1 X23.915 Y161.049 E20.86357
G1 X23.226 Y160.413 E20.90724
G1 X22.593 Y159.721 E20.95091
G1 X22.021 Y158.978 E20.99457
G1 X21.358 Y157.911 E21.05306
G1 X20.882 Y157.034 E21.09953
G1 X20.618 Y156.527 E21.12614
G1 X20.306 Y155.909 E21.15838
G1 X19.92 Y155.055 E21.20202
G1 X19.607 Y154.171 E21.24568
G1 X19.371 Y153.263 E21.28937
G1 X19.22 Y152.39 E21.33062
G1 X19.137 Y151.745 E21.36091
G1 X19.078 Y151.222 E21.38541
G1 X19.013 Y150.293 E21.42878
G1 X19.004 Y149.967 E21.44396
G1 X19 Y149.663 E21.45812
G1 X19.001 Y70.549 E25.142
G1 X19.011 Y69.852 E25.17446
G1 X19.058 Y68.988 E25.21475
G1 X19.079 Y68.763 E25.22527
G1 X19.12 Y68.391 E25.2427
G1 X19.212 Y67.671 E25.2765
G1 X19.454 Y66.385 E25.33743
G1 X19.72 Y65.486 E25.38108
G1 X20.062 Y64.612 E25.42479
G1 X20.305 Y64.097 E25.4513
G1 X20.688 Y63.338 E25.49089
G1 X21.008 Y62.729 E25.52292
G1 X21.344 Y62.11 E25.55572
G1 X21.827 Y61.306 E25.59939
G1 X22.376 Y60.545 E25.64309
G1 X22.987 Y59.835 E25.6867
G1 X23.657 Y59.178 E25.7304
G1 X24.621 Y58.405 E25.78794
G1 X25.393 Y57.856 E25.83205
G1 X25.902 Y57.507 E25.86078
G1 X26.482 Y57.12 E25.89325
G1 X27.283 Y56.633 E25.9369
G1 X28.123 Y56.216 E25.98057
G0 F6000 X28.317 Y56.568
G1 F1200 X29.175 Y56.234 E26.02344
G1 X30.058 Y55.976 E26.06628
G1 X30.515 Y55.875 E26.08807
G1 X31.127 Y55.753 E26.11713
G1 X31.41 Y55.7 E26.13054
G1 X32.222 Y55.561 E26.1689
G1 X33.136 Y55.445 E26.2118
G1 X33.712 Y55.413 E26.23866
G1 X34.031 Y55.404 E26.25352
G1 X34.33 Y55.4 E26.26744
G1 X185.293 Y55.4 E33.29691
G1 X186.149 Y55.411 E33.33677
G1 X186.628 Y55.429 E33.35909
G1 X187.099 Y55.457 E33.38106
G1 X188.015 Y55.551 E33.42394
G1 X188.919 Y55.725 E33.46681
G1 X190.072 Y56.069 E33.52284
G1 X190.989 Y56.401 E33.56825
G1 X191.531 Y56.608 E33.59526
G1 X192.169 Y56.861 E33.62722
G1 X193.01 Y57.238 E33.67014
G1 X193.814 Y57.685 E33.71297
G1 X194.577 Y58.201 E33.75586
G1 X195.292 Y58.781 E33.79873
G1 X196.083 Y59.56 E33.85043
G1 X196.672 Y60.206 E33.89113
G1 X197.102 Y60.692 E33.92135
G1 X197.555 Y61.217 E33.95364
G1 X198.126 Y61.94 E33.99654
G1 X198.632 Y62.709 E34.0394
G1 X199.069 Y63.519 E34.08226
G1 X199.434 Y64.364 E34.12512
G1 X199.782 Y65.45 E34.17822
G1 X200.019 Y66.354 E34.22174
G1 X200.155 Y66.911 E34.24843
G1 X200.315 Y67.6 E34.28137
G1 X200.484 Y68.505 E34.32424
G1 X200.586 Y69.703 E34.38023
G1 X200.596 Y70.062 E34.39695
G1 X200.6 Y70.357 E34.41069
G1 X200.599 Y149.421 E38.09224
G1 X200.589 Y150.141 E38.12577
G1 X200.536 Y151.06 E38.16863
G1 X200.368 Y152.151 E38.22003
G1 X200.299 Y152.483 E38.23582
G1 X200.209 Y152.88 E38.25478
G1 X199.959 Y153.882 E38.30286
G1 X199.789 Y154.532 E38.33415
G1 X199.518 Y155.412 E38.37702
G1 X199.171 Y156.265 E38.4199
G1 X198.752 Y157.084 E38.46274
G1 X198.263 Y157.864 E38.50561
G1 X197.577 Y158.754 E38.55793
G1 X196.962 Y159.468 E38.60181
G1 X196.549 Y159.932 E38.63074
G1 X196.113 Y160.41 E38.66086
G1 X195.5 Y161.03 E38.70146
G1 X194.8 Y161.629 E38.74436
G1 X194.051 Y162.164 E38.78722
G1 X193.258 Y162.632 E38.8301
G1 X192.173 Y163.135 E38.88578
G1 X191.312 Y163.476 E38.92891
G1 X190.805 Y163.667 E38.95413
G1 X190.104 Y163.922 E38.98887
G1 X189.226 Y164.199 E39.03174
G1 X188.327 Y164.399 E39.07462
G1 X187.509 Y164.511 E39.11307
G1 X187.044 Y164.549 E39.13479
G1 X186.733 Y164.568 E39.1493
G1 X186.392 Y164.584 E39.1652
G1 X185.975 Y164.596 E39.18462
G1 X185.67 Y164.6 E39.19882
G1 X34.556 Y164.599 E46.23532
G1 X33.854 Y164.589 E46.26802
G1 X32.935 Y164.536 E46.31088
G1 X32.071 Y164.412 E46.35152
G1 X31.044 Y164.229 E46.4001
G1 X30.562 Y164.135 E46.42296
G1 X29.667 Y163.92 E46.46583
G1 X28.794 Y163.628 E46.50869
G1 X27.949 Y163.261 E46.55159
G1 X27.14 Y162.822 E46.59445
G1 X26.705 Y162.547 E46.61841
G1 X26.04 Y162.103 E46.65564
G1 X25.465 Y161.706 E46.68818
G1 X24.888 Y161.297 E46.72111
G1 X24.161 Y160.732 E46.76399
G1 X23.485 Y160.107 E46.80685
G1 X22.867 Y159.425 E46.84971
G1 X22.309 Y158.692 E46.89261
G1 X21.709 Y157.719 E46.94583
G1 X21.237 Y156.849 E46.99192
G1 X20.976 Y156.347 E47.01827
G1 X20.664 Y155.729 E47.05051
G1 X20.285 Y154.89 E47.09337
G1 X19.98 Y154.021 E47.13626
G1 X19.752 Y153.129 E47.17913
G1 X19.617 Y152.337 E47.21654
G1 X19.535 Y151.7 E47.24645
G1 X19.476 Y151.177 E47.27095
G1 X19.413 Y150.282 E47.31273
G1 X19.404 Y149.956 E47.32792
G1 X19.4 Y149.663 E47.34156
G1 X19.401 Y70.555 E51.02516
G1 X19.411 Y69.858 E51.05762
G1 X19.456 Y69.025 E51.09646
G1 X19.477 Y68.8 E51.10699
G1 X19.516 Y68.441 E51.1238
G1 X19.608 Y67.721 E51.1576
G1 X19.842 Y66.482 E51.21631
G1 X20.104 Y65.599 E51.2592
G1 X20.442 Y64.743 E51.30205
G1 X20.663 Y64.278 E51.32603
G1 X21.131 Y63.353 E51.3743
G1 X21.36 Y62.92 E51.39711
G1 X21.696 Y62.301 E51.4299
G1 X22.17 Y61.512 E51.47276
G1 X22.711 Y60.767 E51.51563
G1 X23.314 Y60.071 E51.55851
G1 X23.975 Y59.431 E51.60136
G1 X24.853 Y58.731 E51.65364
G1 X25.62 Y58.185 E51.69748
G1 X26.124 Y57.84 E51.72592
G1 X26.704 Y57.453 E51.75839
G1 X27.491 Y56.975 E51.80127
G1 X28.317 Y56.568 E51.84414
G0 F6000 X28.509 Y56.921
G1 F1200 X29.352 Y56.596 E51.88621
G1 X30.593 Y56.267 E51.946
G1 X31.205 Y56.145 E51.97505
G1 X31.478 Y56.094 E51.98799
G1 X32.29 Y55.955 E52.02635
G1 X33.186 Y55.842 E52.0684
G1 X33.723 Y55.813 E52.09344
G1 X34.042 Y55.804 E52.1083
G1 X34.33 Y55.8 E52.12171
G1 X185.293 Y55.8 E59.15118
G1 X186.143 Y55.811 E59.19076
G1 X186.604 Y55.828 E59.21224
G1 X187.075 Y55.856 E59.23421
G1 X187.974 Y55.949 E59.2763
G1 X188.86 Y56.122 E59.31833
G1 X189.937 Y56.445 E59.37069
G1 X190.847 Y56.775 E59.41576
G1 X191.384 Y56.98 E59.44253
G1 X192.022 Y57.233 E59.47449
G1 X192.846 Y57.603 E59.51655
G1 X193.634 Y58.044 E59.5586
G1 X194.38 Y58.553 E59.60065
G1 X195.078 Y59.127 E59.64273
G1 X195.788 Y59.83 E59.68925
G1 X196.373 Y60.472 E59.7297
G1 X196.8 Y60.954 E59.75968
G1 X197.253 Y61.479 E59.79197
G1 X197.812 Y62.188 E59.83401
G1 X198.306 Y62.944 E59.87606
G1 X198.731 Y63.74 E59.91808
G1 X199.085 Y64.571 E59.96014
G1 X199.396 Y65.551 E60.00801
G1 X199.594 Y66.305 E60.04431
G1 X199.766 Y67.002 E60.07774
G1 X199.926 Y67.691 E60.11068
G1 X200.091 Y68.579 E60.15274
G1 X200.186 Y69.714 E60.20577
G1 X200.196 Y70.073 E60.22249
G1 X200.2 Y70.357 E60.23572
G1 X200.199 Y149.416 E63.91704
G1 X200.189 Y150.136 E63.95057
G1 X200.137 Y151.037 E63.99259
G1 X199.977 Y152.07 E64.04127
G1 X199.908 Y152.402 E64.05706
G1 X199.82 Y152.784 E64.07531
G1 X199.572 Y153.781 E64.12315
G1 X199.402 Y154.431 E64.15443
G1 X199.135 Y155.294 E64.1965
G1 X198.793 Y156.129 E64.23851
G1 X198.378 Y156.932 E64.2806
G1 X197.894 Y157.694 E64.32264
G1 X197.274 Y158.494 E64.36977
G1 X196.771 Y159.08 E64.40573
G1 X196.254 Y159.663 E64.44201
G1 X195.818 Y160.141 E64.47214
G1 X195.227 Y160.738 E64.51125
G1 X194.54 Y161.324 E64.5533
G1 X193.804 Y161.847 E64.59534
G1 X193.024 Y162.304 E64.63744
G1 X192.026 Y162.763 E64.68859
G1 X191.169 Y163.102 E64.7315
G1 X190.668 Y163.291 E64.75643
G1 X189.967 Y163.546 E64.79117
G1 X189.105 Y163.817 E64.83324
G1 X188.223 Y164.011 E64.87529
G1 X187.47 Y164.113 E64.91068
G1 X187.02 Y164.15 E64.9317
G1 X186.709 Y164.169 E64.94621
G1 X186.38 Y164.184 E64.96155
G1 X185.963 Y164.196 E64.98097
G1 X185.67 Y164.2 E64.99462
G1 X34.562 Y164.199 E72.03084
G1 X33.86 Y164.189 E72.06353
G1 X32.958 Y164.136 E72.1056
G1 X32.144 Y164.019 E72.1439
G1 X31.121 Y163.836 E72.19229
G1 X30.639 Y163.742 E72.21515
G1 X29.761 Y163.53 E72.25721
G1 X28.905 Y163.242 E72.29927
G1 X28.078 Y162.878 E72.34134
G1 X26.927 Y162.214 E72.40321
G1 X26.262 Y161.77 E72.44045
G1 X25.696 Y161.379 E72.47248
G1 X25.119 Y160.97 E72.50541
G1 X24.406 Y160.416 E72.54746
G1 X23.745 Y159.801 E72.5895
G1 X23.141 Y159.13 E72.63154
G1 X22.599 Y158.407 E72.67361
G1 X22.061 Y157.528 E72.7216
G1 X21.591 Y156.663 E72.76744
G1 X21.333 Y156.167 E72.79347
G1 X21.021 Y155.549 E72.82571
G1 X20.65 Y154.725 E72.86779
G1 X20.353 Y153.872 E72.90984
G1 X20.133 Y152.997 E72.95186
G1 X20.013 Y152.285 E72.98548
G1 X19.955 Y151.845 E73.00614
G1 X19.873 Y151.132 E73.03956
G1 X19.813 Y150.27 E73.0798
G1 X19.804 Y149.944 E73.09498
G1 X19.8 Y149.663 E73.10807
G1 X19.801 Y70.561 E76.79139
G1 X19.811 Y69.864 E76.82385
G1 X19.854 Y69.062 E76.86125
G1 X19.875 Y68.837 E76.87177
G1 X19.913 Y68.492 E76.88793
G1 X20.005 Y67.772 E76.92173
G1 X20.231 Y66.579 E76.97827
G1 X20.488 Y65.714 E77.02029
G1 X20.821 Y64.874 E77.06236
G1 X21.02 Y64.458 E77.08383
G1 X21.485 Y63.54 E77.13175
G1 X21.712 Y63.111 E77.15435
G1 X22.048 Y62.492 E77.18715
G1 X22.513 Y61.718 E77.22919
G1 X23.045 Y60.988 E77.27125
G1 X23.64 Y60.309 E77.31329
G1 X24.292 Y59.684 E77.35535
G1 X25.086 Y59.056 E77.40249
G1 X25.708 Y58.612 E77.43807
G1 X26.346 Y58.172 E77.47416
G1 X26.926 Y57.785 E77.50663
G1 X27.698 Y57.318 E77.54864
G1 X28.509 Y56.921 E77.59068
G1 F2700 E72.59068
;MESH:landscape.stl
G0 F6000 X78.591 Y92.359
G0 X78.655 Y83.316
G0 X80.337 Y82.965
G0 X80.408 Y93.644
G0 X94.592 Y103.681
G0 X94.655 Y83.316
G0 X96.337 Y82.965
G0 X96.407 Y104.966
G0 X110.591 Y115.003
G0 X110.653 Y140.597
G0 X112.337 Y141.035
G0 X112.407 Y116.288
G0 X124.254 Y124.672
G0 X122.924 Y125.269
G0 X124.64 Y127.671
G0 X126.252 Y129.477
G0 X128.014 Y130.6
;TYPE:WALL-INNER
G1 F2700 E77.59068
G1 F1200 X129.986 Y130.6 E77.68251
G1 X131.849 Y129.605 E77.78086
G1 X133.493 Y127.764 E77.89579
G1 X134.902 Y125.191 E78.03238
G1 X136.049 Y121.989 E78.19076
G1 X136.899 Y118.286 E78.36767
G1 X137.423 Y114.232 E78.55801
G1 X137.6 Y110 E78.75524
G1 X137.423 Y105.768 E78.95248
G1 X136.899 Y101.714 E79.14282
G1 X136.049 Y98.011 E79.31973
G1 X134.902 Y94.809 E79.4781
G1 X133.493 Y92.236 E79.6147
G1 X131.849 Y90.395 E79.72963
G1 X129.986 Y89.4 E79.82798
G1 X128.014 Y89.4 E79.9198
G1 X126.151 Y90.395 E80.01815
G1 X124.507 Y92.236 E80.13308
G1 X123.098 Y94.809 E80.26968
G1 X121.951 Y98.011 E80.42805
G1 X121.101 Y101.714 E80.60496
G1 X120.577 Y105.768 E80.79531
G1 X120.4 Y110 E80.99254
G1 X120.577 Y114.232 E81.18977
G1 X121.101 Y118.286 E81.38011
G1 X121.951 Y121.989 E81.55702
G1 X123.098 Y125.191 E81.7154
G1 X124.507 Y127.764 E81.852
G1 X126.151 Y129.605 E81.96693
G1 X128.014 Y130.6 E82.06527
G0 F6000 X128.114 Y130.2
;TYPE:WALL-OUTER
G1 F1200 X129.886 Y130.2 E82.14778
G1 X131.598 Y129.286 E82.23815
G1 X133.164 Y127.532 E82.34764
G1 X134.536 Y125.027 E82.48063
G1 X135.664 Y121.876 E82.63647
G1 X136.505 Y118.215 E82.81139
G1 X137.024 Y114.198 E82.99999
G1 X137.2 Y110 E83.19564
G1 X137.024 Y105.802 E83.39129
G1 X136.505 Y101.785 E83.57989
G1 X135.664 Y98.124 E83.7548
G1 X134.536 Y94.973 E83.91064
G1 X133.164 Y92.468 E84.04363
G1 X131.598 Y90.714 E84.15312
G1 X129.886 Y89.8 E84.24349
G1 X128.114 Y89.8 E84.326
G1 X126.402 Y90.714 E84.41637
G1 X124.836 Y92.468 E84.52586
G1 X123.464 Y94.973 E84.65885
G1 X122.336 Y98.124 E84.81469
G1 X121.495 Y101.785 E84.98961
G1 X120.976 Y105.802 E85.17821
G1 X120.8 Y110 E85.37386
G1 X120.976 Y114.198 E85.5695
G1 X121.495 Y118.215 E85.75811
G1 X122.336 Y121.876 E85.93302
G1 X123.464 Y125.027 E86.08886
G1 X124.836 Y127.532 E86.22185
G1 X126.402 Y129.286 E86.33134
G1 X128.114 Y130.2 E86.42171
G0 F6000 X128.008 Y130.626
G1 F2700 E81.42171
G0 F6000 X129.945 Y130.438
G0 X131.969 Y129.758
G0 X131.057 Y128.595
G0 X150.943 Y128.595
G0 X150.031 Y129.758
G0 X152.014 Y130.6
;TYPE:WALL-INNER
G1 F2700 E86.42171
G1 F1200 X153.986 Y130.6 E86.51354
G1 X155.849 Y129.605 E86.61188
G1 X157.493 Y127.764 E86.72681
G1 X158.902 Y125.191 E86.86341
G1 X160.049 Y121.989 E87.02178
G1 X160.899 Y118.286 E87.1987
G1 X161.423 Y114.232 E87.38904
G1 X161.6 Y110 E87.58627
G1 X161.423 Y105.768 E87.7835
G1 X160.899 Y101.714 E87.97384
G1 X160.049 Y98.011 E88.15075
G1 X158.902 Y94.809 E88.30913
G1 X157.493 Y92.236 E88.44573
G1 X155.849 Y90.395 E88.56066
G1 X153.986 Y89.4 E88.659
G1 X152.014 Y89.4 E88.75083
G1 X150.151 Y90.395 E88.84918
G1 X148.507 Y92.236 E88.9641
G1 X147.098 Y94.809 E89.1007
G1 X145.951 Y98.011 E89.25908
G1 X145.101 Y101.714 E89.43599
G1 X144.577 Y105.768 E89.62633
G1 X144.4 Y110 E89.82356
G1 X144.577 Y114.232 E90.0208
G1 X145.101 Y118.286 E90.21114
G1 X145.951 Y121.989 E90.38805
G1 X147.098 Y125.191 E90.54642
G1 X148.507 Y127.764 E90.68302
G1 X150.151 Y129.605 E90.79795
G1 X152.014 Y130.6 E90.8963
G0 F6000 X152.114 Y130.2
;TYPE:WALL-OUTER
G1 F1200 X153.886 Y130.2 E90.97881
G1 X155.598 Y129.286 E91.06918
G1 X157.164 Y127.532 E91.17867
G1 X158.536 Y125.027 E91.31166
G1 X159.664 Y121.876 E91.4675
G1 X160.505 Y118.215 E91.64241
G1 X161.024 Y114.198 E91.83102
G1 X161.2 Y110 E92.02666
G1 X161.024 Y105.802 E92.22231
G1 X160.505 Y101.785 E92.41091
G1 X159.664 Y98.124 E92.58583
G1 X158.536 Y94.973 E92.74167
G1 X157.164 Y92.468 E92.87466
G1 X155.598 Y90.714 E92.98415
G1 X153.886 Y89.8 E93.07452
G1 X152.114 Y89.8 E93.15703
G1 X150.402 Y90.714 E93.2474
G1 X148.836 Y92.468 E93.35689
G1 X147.464 Y94.973 E93.48988
G1 X146.336 Y98.124 E93.64572
G1 X145.495 Y101.785 E93.82063
G1 X144.976 Y105.802 E94.00923
G1 X144.8 Y110 E94.20488
G1 X144.976 Y114.198 E94.40053
G1 X145.495 Y118.215 E94.58913
