;FLAVOR:Marlin
;TIME:946
;Filament used: 0.573088m
;Layer height: 0.2
;MINX:101.335
;MINY:77.335
;MINZ:0.2
;MAXX:118.665
;MAXY:142.665
;MAXZ:2
;Generated with Creality Slicer 4.8.2-191
M140 S50
M105
M190 S50
M104 S200
M105
M109 S200
M82 ;absolute extrusion mode

G28 ;Home

G92 E0 ;Reset Extruder
G1 Z2.0 F3000 ;Move Z Axis up
G1 X10.1 Y20 Z0.28 F5000.0 ;Move to start position
G1 X10.1 Y200.0 Z0.28 F1500.0 E15 ;Draw the first line
G1 X10.4 Y200.0 Z0.28 F5000.0 ;Move to side a little
G1 X10.4 Y20 Z0.28 F1500.0 E30 ;Draw the second line
G92 E0 ;Reset Extruder
G1 Z2.0 F3000 ;Move Z Axis up

G92 E0
G92 E0
G1 F2700 E-5
;LAYER_COUNT:10
;LAYER:0
M107
;MESH:knife-no-1.stl
G0 F6000 X111.866 Y134.6 Z0.2
;TYPE:WALL-INNER
G1 F2700 E0
G1 F1200 X112.039 Y134.656 E0.00605
G1 X113.1 Y133.195 E0.0661
G1 X113.1 Y86.805 E1.60904
G1 X112.1 Y85.429 E1.66562
G1 X112.038 Y85.344 E1.66912
G1 X111.866 Y85.4 E1.67513
G1 X107.9 Y85.4 E1.80704
G1 X107.9 Y85.714 E1.81748
G1 X107.091 Y85.976 E1.84577
G1 X107.091 Y86.4 E1.85987
G1 X106.9 Y86.4 E1.86622
G1 X106.9 Y133.6 E3.4361
G1 X107.091 Y133.6 E3.44245
G1 X107.091 Y134.024 E3.45656
G1 X107.9 Y134.286 E3.48484
G1 X107.9 Y134.6 E3.49528
G1 X111.866 Y134.6 E3.62719
G0 F6000 X111.688 Y134.122
;TYPE:WALL-OUTER
G1 F1200 X111.886 Y134.186 E3.63411
G1 X112.7 Y133.065 E3.68019
G1 X112.7 Y86.935 E5.21448
G1 X111.885 Y85.814 E5.26058
G1 X111.7 Y85.874 E5.26705
G1 X111.7 Y85.8 E5.26951
G1 X108.3 Y85.8 E5.38259
G1 X108.3 Y86.004 E5.38938
G1 X107.491 Y86.267 E5.41767
G1 X107.491 Y86.8 E5.4354
G1 X107.3 Y86.8 E5.44175
G1 X107.3 Y133.2 E6.98502
G1 X107.491 Y133.2 E6.99137
G1 X107.491 Y133.733 E7.0091
G1 X108.3 Y133.996 E7.0374
G1 X108.3 Y134.2 E7.04418
G1 X111.68 Y134.2 E7.1566
G1 X111.688 Y134.122 E7.15921
G1 F2700 E2.15921
G0 F6000 X111.688 Y134.5
G0 X112.113 Y134.884
G0 X111.312 Y133.337
G0 X112.113 Y142.665
G0 X112.113 Y141.19
G0 X115.4 Y141.4
;TYPE:WALL-INNER
G1 F2700 E7.15921
G1 F1200 X104.518 Y141.4 E7.52115
G1 X104.477 Y141.124 E7.53043
G1 X104.457 Y141.128
G1 X103.703 Y141.3 E7.55615
G1 X102.798 Y140.579 E7.59463
G1 X102.798 Y139.4 E7.63385
G1 X102.6 Y139.4 E7.64043
G1 X102.6 Y80.6 E9.59613
G1 X102.798 Y80.6 E9.60271
G1 X102.798 Y79.421 E9.64193
G1 X103.703 Y78.7 E9.68041
G1 X104.533 Y78.889 E9.70873
G1 X104.6 Y78.905 E9.71102
G1 X104.6 Y78.6 E9.71774
G1 X115.4 Y78.6 E10.07695
G1 X115.4 Y78.631 E10.07798
G1 X116.832 Y78.957 E10.12683
G1 X117.4 Y80.136 E10.17035
G1 X117.4 Y139.864 E12.15692
G1 X116.832 Y141.043 E12.20044
G1 X115.4 Y141.369 E12.24929
G1 X115.4 Y141.4 E12.25032
G0 F6000 X115.8 Y141.8
;TYPE:WALL-OUTER
G1 F1200 X104.172 Y141.8 E12.63707
G1 X104.144 Y141.61 E12.64346
G1 X103.604 Y141.733 E12.66188
G1 X102.398 Y140.772 E12.71317
G1 X102.398 Y139.8 E12.7455
G1 X102.2 Y139.8 E12.75208
G1 X102.2 Y80.2 E14.73439
G1 X102.398 Y80.2 E14.74097
G1 X102.398 Y79.228 E14.7733
G1 X103.604 Y78.267 E14.82459
G1 X104.2 Y78.403 E14.84492
G1 X104.2 Y78.2 E14.85167
G1 X115.8 Y78.2 E15.23749
G1 X115.8 Y78.312 E15.24122
G1 X117.109 Y78.61 E15.28587
G1 X117.8 Y80.045 E15.33884
G1 X117.8 Y139.955 E17.33146
G1 X117.109 Y141.39 E17.38443
G1 X115.8 Y141.688 E17.42908
G1 X115.8 Y141.8 E17.43281
G0 F6000 X115.22 Y141.01
;TYPE:SKIN
G1 F1200 X104.854 Y141.01 E17.77758
G1 X104.8 Y140.65 E17.78969
G1 X103.799 Y140.879 E17.82384
G1 X103.188 Y140.391 E17.84985
G1 X103.188 Y139.01 E17.89578
G1 X102.99 Y139.01 E17.90237
G1 X102.99 Y80.99 E19.83212
G1 X103.188 Y80.99 E19.83871
G1 X103.188 Y79.609 E19.88464
G1 X103.799 Y79.121 E19.91065
G1 X104.99 Y79.394 E19.95129
G1 X104.99 Y78.99 E19.96472
G1 X115.22 Y78.99 E20.30498
G1 X116.563 Y79.296 E20.35079
G1 X117.01 Y80.224 E20.38505
G1 X117.01 Y139.776 E22.36576
G1 X116.563 Y140.704 E22.40002
G1 X115.22 Y141.01 E22.44583
G1 F2700 E17.44583
G0 F6000 X115.22 Y141.29
G0 X112.074 Y141.19
G0 X112.074 Y142.665
G0 X111.312 Y133.337
G0 X112.113 Y134.884
G0 X112.189 Y135.114
G1 F2700 E22.44583
G1 F1200 X113.49 Y133.322 E22.51948
G1 X113.49 Y86.678 E24.07087
G1 X112.416 Y85.199 E24.13166
G1 X112.186 Y84.886 E24.14458
G1 X111.804 Y85.01 E24.15794
G1 X107.51 Y85.01 E24.30076
G1 X107.51 Y85.431 E24.31476
G1 X106.701 Y85.693 E24.34304
G1 X106.701 Y86.01 E24.35359
G1 X106.51 Y86.01 E24.35994
G1 X106.51 Y133.99 E25.95576
G1 X106.701 Y133.99 E25.96211
G1 X106.701 Y134.307 E25.97266
G1 X107.51 Y134.569 E26.00094
G1 X107.51 Y134.99 E26.01494
G1 X111.804 Y134.99 E26.15776
G1 X112.189 Y135.114 E26.17121
G1 F2700 E21.17121
G0 F6000 X112.074 Y134.797
G0 X107.704 Y134.796
G0 X108.348 Y133.111
G0 X101.335 Y134.796
G0 X102.42 Y134.796
G0 X102.712 Y138.377
G0 X102.908 Y140.117
G0 X103.347 Y140.117
G1 F2700 E26.17121
G1 F1200 X103.916 Y140.685 E26.19795
G0 F6000 X104.377 Y140.581
G1 F1200 X103.347 Y139.551 E26.2464
G0 F6000 X103.347 Y138.986
G1 F1200 X104.838 Y140.476 E26.31651
G0 F6000 X104.952 Y140.59
G1 F1200 X105.211 Y140.849 E26.32869
G0 F6000 X105.776 Y140.849
G1 F1200 X103.149 Y138.221 E26.45228
G0 F6000 X103.149 Y137.656
G1 F1200 X106.342 Y140.849 E26.60247
G0 F6000 X106.908 Y140.849
G1 F1200 X103.149 Y137.09 E26.77928
G0 F6000 X103.149 Y136.524
G1 F1200 X107.473 Y140.849 E26.9827
G0 F6000 X108.039 Y140.849
G1 F1200 X103.149 Y135.958 E27.21273
G0 F6000 X103.149 Y135.393
G1 F1200 X108.605 Y140.849 E27.46936
G0 F6000 X109.17 Y140.849
G1 F1200 X103.149 Y134.827 E27.7526
G0 F6000 X103.149 Y134.261
G1 F1200 X109.736 Y140.849 E28.06245
G0 F6000 X110.302 Y140.849
G1 F1200 X103.149 Y133.696 E28.39891
G0 F6000 X103.149 Y133.13
G1 F1200 X110.867 Y140.849 E28.76196
G0 F6000 X111.433 Y140.849
G1 F1200 X103.149 Y132.564 E29.15164
G0 F6000 X103.149 Y131.999
G1 F1200 X111.999 Y140.849 E29.56792
G0 F6000 X112.565 Y140.849
G1 F1200 X103.149 Y131.433 E30.01082
G0 F6000 X103.149 Y130.867
G1 F1200 X106.35 Y134.068 E30.16138
G0 F6000 X106.43 Y134.149
G1 F1200 X106.541 Y134.259 E30.16658
G0 F6000 X106.781 Y134.5
G1 F1200 X107.35 Y135.068 E30.19332
G0 F6000 X107.43 Y135.149
G1 F1200 X113.13 Y140.849 E30.46143
G0 F6000 X113.696 Y140.849
G1 F1200 X107.996 Y135.149 E30.72954
G0 F6000 X108.562 Y135.149
G1 F1200 X114.262 Y140.849 E30.99765
G0 F6000 X114.827 Y140.849
G1 F1200 X109.127 Y135.149 E31.26576
G0 F6000 X109.693 Y135.149
G1 F1200 X115.357 Y140.813 E31.53218
G0 F6000 X115.818 Y140.708
G1 F1200 X110.259 Y135.149 E31.79366
G0 F6000 X110.824 Y135.149
G1 F1200 X116.279 Y140.603 E32.05022
G0 F6000 X116.567 Y140.326
G1 F1200 X111.39 Y135.149 E32.29373
G0 F6000 X112.04 Y135.233
G1 F1200 X116.751 Y139.944 E32.51532
G0 F6000 X116.85 Y139.477
G1 F1200 X112.428 Y135.055 E32.72332
G0 F6000 X112.666 Y134.728
G1 F1200 X116.85 Y138.911 E32.9201
G0 F6000 X116.85 Y138.346
G1 F1200 X112.904 Y134.4 E33.1057
G0 F6000 X113.142 Y134.073
G1 F1200 X116.85 Y137.78 E33.28009
G0 F6000 X116.85 Y137.214
G1 F1200 X113.38 Y133.745 E33.44329
G0 F6000 X113.618 Y133.417
G1 F1200 X116.85 Y136.649 E33.59531
G0 F6000 X116.85 Y136.083
G1 F1200 X113.649 Y132.883 E33.74585
G0 F6000 X113.649 Y132.317
G1 F1200 X116.85 Y135.517 E33.8964
G0 F6000 X116.85 Y134.952
G1 F1200 X113.649 Y131.751 E34.04696
G0 F6000 X113.649 Y131.185
G1 F1200 X116.85 Y134.386 E34.19753
G0 F6000 X116.85 Y133.82
G1 F1200 X113.649 Y130.62 E34.34807
G0 F6000 X113.649 Y130.054
G1 F1200 X116.85 Y133.254 E34.49861
G0 F6000 X116.85 Y132.689
G1 F1200 X113.649 Y129.488 E34.64917
G0 F6000 X113.649 Y128.923
G1 F1200 X116.85 Y132.123 E34.79972
G0 F6000 X116.85 Y131.557
G1 F1200 X113.649 Y128.357 E34.95026
G0 F6000 X113.649 Y127.791
G1 F1200 X116.85 Y130.992 E35.10082
G0 F6000 X116.85 Y130.426
G1 F1200 X113.649 Y127.226 E35.25136
G0 F6000 X113.649 Y126.66
G1 F1200 X116.85 Y129.86 E35.40191
G0 F6000 X116.85 Y129.295
G1 F1200 X113.649 Y126.094 E35.55247
G0 F6000 X113.649 Y125.529
G1 F1200 X116.85 Y128.729 E35.70301
G0 F6000 X116.85 Y128.163
G1 F1200 X113.649 Y124.963 E35.85356
G0 F6000 X113.649 Y124.397
G1 F1200 X116.85 Y127.598 E36.00412
G0 F6000 X116.85 Y127.032
G1 F1200 X113.649 Y123.832 E36.15466
G0 F6000 X113.649 Y123.266
G1 F1200 X116.85 Y126.466 E36.3052
G0 F6000 X116.85 Y125.901
G1 F1200 X113.649 Y122.7 E36.45577
G0 F6000 X113.649 Y122.135
G1 F1200 X116.85 Y125.335 E36.60631
G0 F6000 X116.85 Y124.769
G1 F1200 X113.649 Y121.569 E36.75685
G0 F6000 X113.649 Y121.003
G1 F1200 X116.85 Y124.204 E36.90742
G0 F6000 X116.85 Y123.638
G1 F1200 X113.649 Y120.437 E37.05798
G0 F6000 X113.649 Y119.872
G1 F1200 X116.85 Y123.072 E37.20852
G0 F6000 X116.85 Y122.506
G1 F1200 X113.649 Y119.306 E37.35907
G0 F6000 X113.649 Y118.74
G1 F1200 X116.85 Y121.941 E37.50963
G0 F6000 X116.85 Y121.375
G1 F1200 X113.649 Y118.175 E37.66017
G0 F6000 X113.649 Y117.609
G1 F1200 X116.85 Y120.809 E37.81072
G0 F6000 X116.85 Y120.244
G1 F1200 X113.649 Y117.043 E37.96128
G0 F6000 X113.649 Y116.478
G1 F1200 X116.85 Y119.678 E38.11182
G0 F6000 X116.85 Y119.112
G1 F1200 X113.649 Y115.912 E38.26236
G0 F6000 X113.649 Y115.346
G1 F1200 X116.85 Y118.547 E38.41293
G0 F6000 X116.85 Y117.981
G1 F1200 X113.649 Y114.781 E38.56347
G0 F6000 X113.649 Y114.215
G1 F1200 X116.85 Y117.415 E38.71401
G0 F6000 X116.85 Y116.85
G1 F1200 X113.649 Y113.649 E38.86458
G0 F6000 X113.649 Y113.084
G1 F1200 X116.85 Y116.284 E39.01512
G0 F6000 X116.85 Y115.718
G1 F1200 X113.649 Y112.518 E39.16566
G0 F6000 X113.649 Y111.952
G1 F1200 X116.85 Y115.153 E39.31623
G0 F6000 X116.85 Y114.587
G1 F1200 X113.649 Y111.386 E39.46679
G0 F6000 X113.649 Y110.821
G1 F1200 X116.85 Y114.021 E39.61733
G0 F6000 X116.85 Y113.455
G1 F1200 X113.649 Y110.255 E39.76787
G0 F6000 X113.649 Y109.689
G1 F1200 X116.85 Y112.89 E39.91844
G0 F6000 X116.85 Y112.324
G1 F1200 X113.649 Y109.123 E40.06901
G0 F6000 X113.649 Y108.557
G1 F1200 X116.85 Y111.758 E40.21957
G0 F6000 X116.85 Y111.193
G1 F1200 X113.649 Y107.992 E40.37014
G0 F6000 X113.649 Y107.426
G1 F1200 X116.85 Y110.627 E40.5207
G0 F6000 X116.85 Y110.061
G1 F1200 X113.649 Y106.86 E40.67127
G0 F6000 X113.649 Y106.295
G1 F1200 X116.85 Y109.496 E40.82183
G0 F6000 X116.85 Y108.93
G1 F1200 X113.649 Y105.729 E40.9724
G0 F6000 X113.649 Y105.163
G1 F1200 X116.85 Y108.364 E41.12296
G0 F6000 X116.85 Y107.799
G1 F1200 X113.649 Y104.598 E41.27353
G0 F6000 X113.649 Y104.032
G1 F1200 X116.85 Y107.233 E41.42409
G0 F6000 X116.85 Y106.667
G1 F1200 X113.649 Y103.466 E41.57466
G0 F6000 X113.649 Y102.901
G1 F1200 X116.85 Y106.102 E41.72522
G0 F6000 X116.85 Y105.536
G1 F1200 X113.649 Y102.335 E41.87579
G0 F6000 X113.649 Y101.769
G1 F1200 X116.85 Y104.97 E42.02635
G0 F6000 X116.85 Y104.405
G1 F1200 X113.649 Y101.203 E42.17694
G0 F6000 X113.649 Y100.638
G1 F1200 X116.85 Y103.839 E42.32751
G0 F6000 X116.85 Y103.273
G1 F1200 X113.649 Y100.072 E42.47807
G0 F6000 X113.649 Y99.506
G1 F1200 X116.85 Y102.707 E42.62864
G0 F6000 X116.85 Y102.142
G1 F1200 X113.649 Y98.941 E42.7792
G0 F6000 X113.649 Y98.375
G1 F1200 X116.85 Y101.576 E42.92977
G0 F6000 X116.85 Y101.01
G1 F1200 X113.649 Y97.809 E43.08033
G0 F6000 X113.649 Y97.244
G1 F1200 X116.85 Y100.445 E43.2309
G0 F6000 X116.85 Y99.879
G1 F1200 X113.649 Y96.678 E43.38146
G0 F6000 X113.649 Y96.112
G1 F1200 X116.85 Y99.313 E43.53203
G0 F6000 X116.85 Y98.748
G1 F1200 X113.649 Y95.547 E43.68259
G0 F6000 X113.649 Y94.981
G1 F1200 X116.85 Y98.182 E43.83316
G0 F6000 X116.85 Y97.616
G1 F1200 X113.649 Y94.415 E43.98372
G0 F6000 X113.649 Y93.85
G1 F1200 X116.85 Y97.051 E44.13429
G0 F6000 X116.85 Y96.485
G1 F1200 X113.649 Y93.284 E44.28486
G0 F6000 X113.649 Y92.718
G1 F1200 X116.85 Y95.919 E44.43542
G0 F6000 X116.85 Y95.354
G1 F1200 X113.649 Y92.152 E44.58601
G0 F6000 X113.649 Y91.587
G1 F1200 X116.85 Y94.788 E44.73657
G0 F6000 X116.85 Y94.222
G1 F1200 X113.649 Y91.021 E44.88714
G0 F6000 X113.649 Y90.455
G1 F1200 X116.85 Y93.657 E45.03773
G0 F6000 X116.85 Y93.091
G1 F1200 X113.649 Y89.89 E45.18829
G0 F6000 X113.649 Y89.324
G1 F1200 X116.85 Y92.525 E45.33886
G0 F6000 X116.85 Y91.959
G1 F1200 X113.649 Y88.758 E45.48942
G0 F6000 X113.649 Y88.193
G1 F1200 X116.85 Y91.394 E45.63999
G0 F6000 X116.85 Y90.828
G1 F1200 X113.649 Y87.627 E45.79055
G0 F6000 X113.649 Y87.061
G1 F1200 X116.85 Y90.262 E45.94112
G0 F6000 X116.85 Y89.697
G1 F1200 X113.308 Y86.155 E46.10772
G0 F6000 X112.952 Y86.413
G0 X112.083 Y85.214
G0 X111.947 Y84.794
G1 F1200 X106.302 Y79.149 E46.37325
G0 F6000 X105.737 Y79.149
G1 F1200 X111.437 Y84.849 E46.64136
G0 F6000 X110.871 Y84.849
G1 F1200 X105.171 Y79.149 E46.90947
G0 F6000 X105.021 Y79.565
G1 F1200 X110.305 Y84.849 E47.15801
G0 F6000 X109.74 Y84.849
G1 F1200 X104.288 Y79.398 E47.41443
G0 F6000 X103.716 Y79.391
G1 F1200 X109.174 Y84.849 E47.67116
G0 F6000 X108.608 Y84.849
G1 F1200 X103.401 Y79.642 E47.91608
G0 F6000 X103.347 Y80.154
G1 F1200 X108.043 Y84.849 E48.13694
G0 F6000 X107.477 Y84.849
G1 F1200 X103.347 Y80.719 E48.33121
G0 F6000 X103.211 Y81.149
G1 F1200 X107.349 Y85.287 E48.52585
G0 F6000 X106.942 Y85.446
G1 F1200 X103.149 Y81.653 E48.70426
G0 F6000 X103.149 Y82.218
G1 F1200 X106.539 Y85.609 E48.86374
G0 F6000 X106.349 Y85.984
G1 F1200 X103.149 Y82.784 E49.01425
G0 F6000 X103.149 Y83.35
G1 F1200 X106.349 Y86.55 E49.16477
G0 F6000 X106.349 Y87.116
G1 F1200 X103.149 Y83.915 E49.31531
G0 F6000 X103.149 Y84.481
G1 F1200 X106.349 Y87.681 E49.46583
G0 F6000 X106.349 Y88.247
G1 F1200 X103.149 Y85.047 E49.61635
G0 F6000 X103.149 Y85.612
G1 F1200 X106.349 Y88.813 E49.76689
G0 F6000 X106.349 Y89.379
G1 F1200 X103.149 Y86.178 E49.91743
G0 F6000 X103.149 Y86.744
G1 F1200 X106.349 Y89.944 E50.06795
G0 F6000 X106.349 Y90.51
G1 F1200 X103.149 Y87.31 E50.21847
G0 F6000 X103.149 Y87.875
G1 F1200 X106.349 Y91.076 E50.36901
G0 F6000 X106.349 Y91.641
G1 F1200 X103.149 Y88.441 E50.51953
G0 F6000 X103.149 Y89.007
G1 F1200 X106.349 Y92.207 E50.67005
G0 F6000 X106.349 Y92.773
G1 F1200 X103.149 Y89.572 E50.82059
G0 F6000 X103.149 Y90.138
G1 F1200 X106.349 Y93.338 E50.97111
G0 F6000 X106.349 Y93.904
G1 F1200 X103.149 Y90.704 E51.12163
G0 F6000 X103.149 Y91.269
G1 F1200 X106.349 Y94.47 E51.27217
G0 F6000 X106.349 Y95.035
G1 F1200 X103.149 Y91.835 E51.42269
G0 F6000 X103.149 Y92.401
G1 F1200 X106.349 Y95.601 E51.5732
G0 F6000 X106.349 Y96.167
G1 F1200 X103.149 Y92.966 E51.72375
G0 F6000 X103.149 Y93.532
G1 F1200 X106.349 Y96.732 E51.87426
G0 F6000 X106.349 Y97.298
G1 F1200 X103.149 Y94.098 E52.02478
G0 F6000 X103.149 Y94.663
G1 F1200 X106.349 Y97.864 E52.17532
G0 F6000 X106.349 Y98.429
G1 F1200 X103.149 Y95.229 E52.32584
G0 F6000 X103.149 Y95.795
G1 F1200 X106.349 Y98.995 E52.47636
G0 F6000 X106.349 Y99.561
G1 F1200 X103.149 Y96.36 E52.6269
G0 F6000 X103.149 Y96.926
G1 F1200 X106.349 Y100.127 E52.77744
G0 F6000 X106.349 Y100.692
G1 F1200 X103.149 Y97.492 E52.92796
G0 F6000 X103.149 Y98.058
G1 F1200 X106.349 Y101.258 E53.07848
G0 F6000 X106.349 Y101.824
G1 F1200 X103.149 Y98.623 E53.22902
G0 F6000 X103.149 Y99.189
G1 F1200 X106.349 Y102.389 E53.37954
G0 F6000 X106.349 Y102.955
G1 F1200 X103.149 Y99.755 E53.53006
G0 F6000 X103.149 Y100.32
G1 F1200 X106.349 Y103.521 E53.6806
G0 F6000 X106.349 Y104.086
G1 F1200 X103.149 Y100.886 E53.83112
G0 F6000 X103.149 Y101.452
G1 F1200 X106.349 Y104.652 E53.98164
G0 F6000 X106.349 Y105.218
G1 F1200 X103.149 Y102.017 E54.13218
G0 F6000 X103.149 Y102.583
G1 F1200 X106.349 Y105.783 E54.2827
G0 F6000 X106.349 Y106.349
G1 F1200 X103.149 Y103.149 E54.43321
G0 F6000 X103.149 Y103.714
G1 F1200 X106.349 Y106.915 E54.58376
G0 F6000 X106.349 Y107.48
G1 F1200 X103.149 Y104.28 E54.73427
G0 F6000 X103.149 Y104.846
G1 F1200 X106.349 Y108.046 E54.88479
G0 F6000 X106.349 Y108.612
G1 F1200 X103.149 Y105.411 E55.03533
G0 F6000 X103.149 Y105.977
G1 F1200 X106.349 Y109.177 E55.18585
G0 F6000 X106.349 Y109.743
G1 F1200 X103.149 Y106.543 E55.33637
G0 F6000 X103.149 Y107.108
G1 F1200 X106.35 Y110.31 E55.48696
G0 F6000 X106.35 Y110.875
G1 F1200 X103.149 Y107.674 E55.63753
G0 F6000 X103.149 Y108.24
G1 F1200 X106.35 Y111.441 E55.78809
G0 F6000 X106.35 Y112.007
G1 F1200 X103.149 Y108.806 E55.93866
G0 F6000 X103.149 Y109.371
G1 F1200 X106.35 Y112.572 E56.08922
G0 F6000 X106.35 Y113.138
G1 F1200 X103.149 Y109.937 E56.23979
G0 F6000 X103.149 Y110.503
G1 F1200 X106.35 Y113.704 E56.39035
G0 F6000 X106.35 Y114.269
G1 F1200 X103.149 Y111.068 E56.54092
G0 F6000 X103.149 Y111.634
G1 F1200 X106.35 Y114.835 E56.69148
