;FLAVOR:Marlin
;TIME:4136
;Filament used: 2.50479m
;Layer height: 0.2
;MINX:83
;MINY:64
;MINZ:0.2
;MAXX:137
;MAXY:156
;MAXZ:17
;Generated with Creality Slicer 4.8.2-191
M140 S50
M105
M190 S50
M104 S200
M105
M109 S200
M82 ;absolute extrusion mode

G28 ;Home

G92 E0 ;Reset Extruder
G1 Z2.0 F3000 ;Move Z Axis up
G1 X10.1 Y20 Z0.28 F5000.0 ;Move to start position
G1 X10.1 Y200.0 Z0.28 F1500.0 E15 ;Draw the first line
G1 X10.4 Y200.0 Z0.28 F5000.0 ;Move to side a little
G1 X10.4 Y20 Z0.28 F1500.0 E30 ;Draw the second line
G92 E0 ;Reset Extruder
G1 Z2.0 F3000 ;Move Z Axis up

G92 E0
G92 E0
G1 F2700 E-5
;LAYER_COUNT:85
;LAYER:0
M107
G0 F6000 X85.59 Y69.3 Z0.2
;TYPE:SKIRT
G1 F2700 E0
G1 F1200 X86.204 Y68.59 E0.03122
G1 X87.094 Y67.746 E0.07202
G1 X87.411 Y67.48 E0.08578
G1 X87.783 Y67.178 E0.10172
G1 X88.274 Y66.789 E0.12255
G1 X88.813 Y66.371 E0.14524
G1 X89.578 Y65.828 E0.17644
G1 X90.386 Y65.352 E0.20763
G1 X91.232 Y64.948 E0.23881
G1 X92.11 Y64.616 E0.27003
G1 X92.906 Y64.386 E0.29759
G1 X94.27 Y64.136 E0.34371
G1 X94.605 Y64.096 E0.35493
G1 X95.044 Y64.052 E0.36961
G1 X95.701 Y64.013 E0.3915
G1 X96.02 Y64.004 E0.40211
G1 X96.33 Y64 E0.41242
G1 X123.293 Y64 E1.30922
G1 X124.172 Y64.012 E1.33846
G1 X125.108 Y64.067 E1.36964
G1 X126.036 Y64.201 E1.40083
G1 X126.95 Y64.414 E1.43204
G1 X127.523 Y64.59 E1.45198
G1 X128.248 Y64.835 E1.47743
G1 X128.511 Y64.928 E1.48671
G1 X129.024 Y65.116 E1.50488
G1 X129.89 Y65.476 E1.53607
G1 X130.722 Y65.908 E1.56725
G1 X131.515 Y66.41 E1.59847
G1 X132.261 Y66.977 E1.62964
G1 X132.957 Y67.606 E1.66084
G1 X133.597 Y68.292 E1.69204
G1 X134.176 Y69.03 E1.72324
G1 X134.689 Y69.815 E1.75443
G1 X134.939 Y70.256 E1.77129
G1 X135.008 Y70.385 E1.77616
G1 X135.16 Y70.68 E1.78719
G1 X135.364 Y71.093 E1.80252
G1 X135.657 Y71.703 E1.82502
G1 X135.964 Y72.364 E1.84926
G1 X136.323 Y73.231 E1.88047
G1 X136.606 Y74.125 E1.91166
G1 X136.812 Y75.04 E1.94286
G1 X136.971 Y76.393 E1.98817
G1 X136.977 Y76.502 E1.9918
G1 X136.993 Y76.967 E2.00727
G1 X137 Y77.577 E2.02756
G1 X136.999 Y142.426 E4.18445
G1 X136.989 Y143.15 E4.20853
G1 X136.936 Y144.086 E4.23972
G1 X136.804 Y145.015 E4.27092
G1 X136.592 Y145.929 E4.30213
G1 X136.304 Y146.821 E4.33331
G1 X136.08 Y147.379 E4.35331
G1 X135.93 Y147.715 E4.36554
G1 X135.632 Y148.353 E4.38897
G1 X135.406 Y148.816 E4.4061
G1 X135.091 Y149.45 E4.42965
G1 X134.638 Y150.272 E4.46086
G1 X134.117 Y151.052 E4.49206
G1 X133.532 Y151.784 E4.52323
G1 X132.886 Y152.464 E4.55442
G1 X132.184 Y153.087 E4.58564
G1 X131.432 Y153.647 E4.61683
G1 X130.636 Y154.142 E4.648
G1 X129.799 Y154.567 E4.67922
G1 X128.959 Y154.908 E4.70938
G1 X128.138 Y155.202 E4.73838
G1 X127.649 Y155.369 E4.75557
G1 X127.273 Y155.49 E4.76871
G1 X127.167 Y155.522 E4.77239
G1 X126.258 Y155.754 E4.80359
G1 X125.333 Y155.908 E4.83478
G1 X124.299 Y155.987 E4.86927
G1 X123.981 Y155.996 E4.87985
G1 X123.67 Y156 E4.8902
G1 X96.549 Y155.999 E5.79225
G1 X95.852 Y155.989 E5.81543
G1 X94.978 Y155.941 E5.84454
G1 X94.734 Y155.918 E5.85269
G1 X94.33 Y155.873 E5.86621
G1 X94.125 Y155.846 E5.87309
G1 X93.201 Y155.684 E5.90429
G1 X92.294 Y155.444 E5.9355
G1 X91.411 Y155.127 E5.9667
G1 X90.559 Y154.737 E5.99787
G1 X89.742 Y154.275 E6.02909
G1 X89.048 Y153.805 E6.05696
G1 X88.901 Y153.697 E6.06303
G1 X88.641 Y153.5 E6.07388
G1 X88.218 Y153.168 E6.09176
G1 X87.743 Y152.788 E6.112
G1 X87.218 Y152.356 E6.13461
G1 X86.519 Y151.73 E6.16582
G1 X85.877 Y151.046 E6.19702
G1 X85.296 Y150.311 E6.22818
G1 X84.779 Y149.528 E6.25939
G1 X84.33 Y148.704 E6.2906
G1 X83.954 Y147.845 E6.32179
G1 X83.652 Y146.958 E6.35295
G1 X83.508 Y146.416 E6.3716
G1 X83.36 Y145.796 E6.39281
G1 X83.269 Y145.383 E6.40687
G1 X83.219 Y145.131 E6.41542
G1 X83.076 Y144.204 E6.44661
G1 X83.013 Y143.288 E6.47715
G1 X83.004 Y142.956 E6.4882
G1 X83 Y142.658 E6.49811
G1 X83.001 Y77.536 E8.66408
G1 X83.012 Y76.83 E8.68756
G1 X83.067 Y75.893 E8.71878
G1 X83.247 Y74.733 E8.75782
G1 X83.353 Y74.23 E8.77492
G1 X83.444 Y73.837 E8.78834
G1 X83.534 Y73.476 E8.80071
G1 X83.799 Y72.577 E8.83188
G1 X84.14 Y71.703 E8.86309
G1 X84.555 Y70.862 E8.89428
G1 X85.039 Y70.058 E8.92549
G1 X85.59 Y69.3 E8.95666
G0 F6000 X85.956 Y69.482
G1 F1200 X86.565 Y68.791 E8.9873
G1 X87.353 Y68.051 E9.02325
G1 X87.664 Y67.79 E9.03675
G1 X88.032 Y67.491 E9.05252
G1 X88.519 Y67.105 E9.07319
G1 X89.058 Y66.687 E9.09588
G1 X89.809 Y66.155 E9.12649
G1 X90.604 Y65.69 E9.15712
G1 X91.436 Y65.296 E9.18774
G1 X92.299 Y64.975 E9.21837
G1 X93.003 Y64.774 E9.24272
G1 X94.317 Y64.533 E9.28715
G1 X94.652 Y64.493 E9.29837
G1 X95.079 Y64.45 E9.31264
G1 X95.712 Y64.413 E9.33373
G1 X96.031 Y64.404 E9.34435
G1 X96.33 Y64.4 E9.35429
G1 X123.293 Y64.4 E10.25109
G1 X124.166 Y64.412 E10.28013
G1 X125.085 Y64.467 E10.31075
G1 X125.996 Y64.6 E10.34137
G1 X126.891 Y64.813 E10.37197
G1 X127.395 Y64.969 E10.38951
G1 X128.12 Y65.214 E10.41497
G1 X128.373 Y65.303 E10.42389
G1 X128.886 Y65.491 E10.44206
G1 X129.736 Y65.845 E10.47269
G1 X130.552 Y66.272 E10.50332
G1 X131.328 Y66.767 E10.53393
G1 X132.058 Y67.328 E10.56455
G1 X132.736 Y67.951 E10.59518
G1 X133.358 Y68.63 E10.6258
G1 X133.919 Y69.36 E10.65643
G1 X134.586 Y70.444 E10.69876
G1 X134.655 Y70.573 E10.70362
G1 X134.801 Y70.858 E10.71427
G1 X135.004 Y71.267 E10.72946
G1 X135.295 Y71.872 E10.75179
G1 X135.602 Y72.533 E10.77603
G1 X135.953 Y73.384 E10.80665
G1 X136.229 Y74.262 E10.83726
G1 X136.428 Y75.161 E10.86788
G1 X136.572 Y76.415 E10.90987
G1 X136.578 Y76.524 E10.9135
G1 X136.593 Y76.972 E10.92841
G1 X136.6 Y77.577 E10.94853
G1 X136.599 Y142.42 E13.10522
G1 X136.589 Y143.144 E13.1293
G1 X136.536 Y144.064 E13.15995
G1 X136.404 Y144.975 E13.19057
G1 X136.193 Y145.871 E13.22118
G1 X135.906 Y146.745 E13.25178
G1 X135.713 Y147.22 E13.26883
G1 X135.567 Y147.547 E13.28074
G1 X135.272 Y148.178 E13.30391
G1 X135.048 Y148.638 E13.32093
G1 X134.733 Y149.272 E13.34447
G1 X134.288 Y150.078 E13.3751
G1 X133.774 Y150.843 E13.40575
G1 X133.197 Y151.56 E13.43636
G1 X132.559 Y152.224 E13.46699
G1 X131.866 Y152.83 E13.49761
G1 X131.123 Y153.373 E13.52821
G1 X130.336 Y153.851 E13.55884
G1 X129.51 Y154.258 E13.58947
G1 X128.823 Y154.532 E13.61407
G1 X128.009 Y154.823 E13.64282
G1 X127.52 Y154.99 E13.66
G1 X127.157 Y155.107 E13.67269
G1 X127.051 Y155.139 E13.67637
G1 X126.159 Y155.366 E13.70699
G1 X125.251 Y155.516 E13.7376
G1 X124.288 Y155.587 E13.76971
G1 X123.97 Y155.596 E13.78029
G1 X123.67 Y155.6 E13.79027
G1 X96.555 Y155.599 E14.69212
G1 X95.858 Y155.589 E14.71531
G1 X95.015 Y155.543 E14.74339
G1 X94.771 Y155.52 E14.75154
G1 X94.382 Y155.476 E14.76456
G1 X94.177 Y155.449 E14.77143
G1 X93.27 Y155.289 E14.80207
G1 X92.381 Y155.052 E14.83267
G1 X91.515 Y154.738 E14.86331
G1 X90.68 Y154.35 E14.89393
G1 X89.882 Y153.891 E14.92455
G1 X89.285 Y153.482 E14.94862
G1 X89.138 Y153.374 E14.95469
G1 X88.888 Y153.185 E14.96511
G1 X88.467 Y152.856 E14.98288
G1 X88.128 Y152.586 E14.9973
G1 X87.472 Y152.047 E15.02553
G1 X86.787 Y151.432 E15.05615
G1 X86.158 Y150.759 E15.08679
G1 X85.59 Y150.035 E15.1174
G1 X85.087 Y149.264 E15.14802
G1 X84.652 Y148.452 E15.17865
G1 X84.29 Y147.606 E15.20926
G1 X83.897 Y146.323 E15.25389
G1 X83.749 Y145.703 E15.27509
G1 X83.662 Y145.305 E15.28864
G1 X83.612 Y145.053 E15.29719
G1 X83.472 Y144.143 E15.32781
G1 X83.413 Y143.277 E15.35668
G1 X83.404 Y142.945 E15.36772
G1 X83.4 Y142.658 E15.37727
G1 X83.401 Y77.542 E17.54304
G1 X83.412 Y76.836 E17.56652
G1 X83.467 Y75.917 E17.59714
G1 X83.639 Y74.815 E17.63424
G1 X83.745 Y74.312 E17.65134
G1 X83.832 Y73.934 E17.66424
G1 X83.922 Y73.573 E17.67661
G1 X84.183 Y72.69 E17.70724
G1 X84.52 Y71.833 E17.73787
G1 X84.93 Y71.009 E17.76848
G1 X85.41 Y70.223 E17.79911
G1 X85.956 Y69.482 E17.82972
G0 F6000 X86.322 Y69.667
G1 F1200 X86.925 Y68.995 E17.85975
G1 X87.611 Y68.356 E17.89093
G1 X87.916 Y68.101 E17.90416
G1 X88.282 Y67.804 E17.91983
G1 X88.764 Y67.421 E17.94031
G1 X89.303 Y67.003 E17.963
G1 X90.041 Y66.481 E17.99306
G1 X90.821 Y66.027 E18.02308
G1 X91.639 Y65.644 E18.05312
G1 X92.488 Y65.335 E18.08317
G1 X93.1 Y65.163 E18.10432
G1 X94.365 Y64.93 E18.1471
G1 X94.7 Y64.89 E18.15832
G1 X95.114 Y64.848 E18.17216
G1 X95.723 Y64.813 E18.19245
G1 X96.042 Y64.804 E18.20306
G1 X96.33 Y64.8 E18.21264
G1 X123.293 Y64.8 E19.10943
G1 X124.159 Y64.812 E19.13824
G1 X125.061 Y64.866 E19.16829
G1 X125.954 Y65 E19.19833
G1 X126.832 Y65.212 E19.22837
G1 X127.266 Y65.348 E19.2435
G1 X127.991 Y65.593 E19.26895
G1 X128.236 Y65.679 E19.27759
G1 X128.749 Y65.867 E19.29576
G1 X129.582 Y66.215 E19.32579
G1 X130.381 Y66.635 E19.35581
G1 X131.14 Y67.125 E19.38586
G1 X131.853 Y67.679 E19.41589
G1 X132.514 Y68.295 E19.44594
G1 X133.118 Y68.966 E19.47597
G1 X133.66 Y69.689 E19.50602
G1 X134.233 Y70.633 E19.54275
G1 X134.302 Y70.762 E19.54762
G1 X134.443 Y71.036 E19.55786
G1 X134.644 Y71.441 E19.5729
G1 X134.932 Y72.04 E19.59501
G1 X135.239 Y72.701 E19.61925
G1 X135.583 Y73.537 E19.64932
G1 X135.851 Y74.399 E19.67934
G1 X136.043 Y75.281 E19.70936
G1 X136.173 Y76.437 E19.74805
G1 X136.179 Y76.546 E19.75168
G1 X136.193 Y76.977 E19.76603
G1 X136.2 Y77.577 E19.78598
G1 X136.199 Y142.415 E21.94251
G1 X136.189 Y143.139 E21.96659
G1 X136.137 Y144.04 E21.99661
G1 X136.005 Y144.934 E22.02666
G1 X135.794 Y145.812 E22.0567
G1 X135.346 Y147.061 E22.10083
G1 X135.205 Y147.378 E22.11237
G1 X134.983 Y147.855 E22.12987
G1 X134.69 Y148.461 E22.15226
G1 X134.375 Y149.095 E22.1758
G1 X133.937 Y149.885 E22.20585
G1 X133.432 Y150.633 E22.23586
G1 X132.862 Y151.334 E22.26591
G1 X132.233 Y151.982 E22.29595
G1 X131.549 Y152.571 E22.32597
G1 X130.815 Y153.098 E22.35603
G1 X130.038 Y153.557 E22.38604
G1 X129.223 Y153.946 E22.41608
G1 X128.688 Y154.155 E22.43518
G1 X127.879 Y154.445 E22.46377
G1 X127.39 Y154.612 E22.48095
G1 X127.042 Y154.724 E22.49311
G1 X126.936 Y154.756 E22.49679
G1 X126.061 Y154.978 E22.52682
G1 X125.169 Y155.122 E22.55687
G1 X124.277 Y155.187 E22.58662
G1 X123.959 Y155.196 E22.5972
G1 X123.67 Y155.2 E22.60681
G1 X96.561 Y155.199 E23.50846
G1 X95.864 Y155.189 E23.53165
G1 X95.053 Y155.145 E23.55866
G1 X94.809 Y155.122 E23.56681
G1 X94.434 Y155.08 E23.57936
G1 X94.229 Y155.053 E23.58624
G1 X93.34 Y154.895 E23.61627
G1 X92.468 Y154.66 E23.64631
G1 X91.62 Y154.348 E23.67636
G1 X90.804 Y153.963 E23.70637
G1 X90.024 Y153.506 E23.73644
G1 X89.522 Y153.16 E23.75672
G1 X89.375 Y153.052 E23.76278
G1 X89.134 Y152.869 E23.77285
G1 X88.716 Y152.543 E23.79048
G1 X88.377 Y152.273 E23.80489
G1 X87.726 Y151.738 E23.83292
G1 X87.055 Y151.134 E23.86295
G1 X86.439 Y150.473 E23.893
G1 X85.885 Y149.76 E23.92303
G1 X85.396 Y149.001 E23.95306
G1 X84.976 Y148.201 E23.98311
G1 X84.628 Y147.368 E24.01314
G1 X84.286 Y146.23 E24.05266
G1 X84.138 Y145.61 E24.07386
G1 X84.054 Y145.227 E24.0869
G1 X84.004 Y144.975 E24.09545
G1 X83.868 Y144.082 E24.12549
G1 X83.813 Y143.266 E24.15269
G1 X83.804 Y142.934 E24.16374
G1 X83.8 Y142.658 E24.17292
G1 X83.801 Y77.548 E26.33849
G1 X83.812 Y76.842 E26.36197
G1 X83.866 Y75.941 E26.39199
G1 X84.03 Y74.898 E26.42711
G1 X84.136 Y74.395 E26.44421
G1 X84.22 Y74.031 E26.45663
G1 X84.31 Y73.67 E26.46901
G1 X84.567 Y72.804 E26.49905
G1 X84.9 Y71.964 E26.52911
G1 X85.305 Y71.157 E26.55914
G1 X85.781 Y70.389 E26.58919
G1 X86.322 Y69.667 E26.6192
G1 F2700 E21.6192
;MESH:knife-no-2.stl
G0 F6000 X98.848 Y103.889
G0 X98.206 Y102.572
G0 X97.859 Y103.171
G0 X97.672 Y103.672
G0 X97.672 Y139.328
G0 X97.854 Y139.7
G0 X98.03 Y139.891
G0 X98.672 Y140.328
G0 X121.363 Y140.6
;TYPE:WALL-INNER
G1 F2700 E26.6192
G1 F1200 X121.537 Y140.657 E26.62529
G1 X122.6 Y139.195 E26.68541
G1 X122.6 Y103.805 E27.86248
G1 X121.6 Y102.429 E27.91906
G1 X121.538 Y102.344 E27.92256
G1 X121.366 Y102.4 E27.92857
G1 X112.6 Y102.4 E28.22013
G1 X112.6 Y80.805 E28.93839
G1 X111.6 Y79.429 E28.99496
G1 X111.538 Y79.344 E28.99846
G1 X111.366 Y79.4 E29.00448
G1 X108.4 Y79.4 E29.10313
G1 X108.4 Y79.714 E29.11357
G1 X107.591 Y79.976 E29.14185
G1 X107.591 Y80.4 E29.15596
G1 X107.4 Y80.4 E29.16231
G1 X107.4 Y102.4 E29.89403
G1 X98.4 Y102.4 E30.19337
G1 X98.4 Y102.714 E30.20382
G1 X97.591 Y102.976 E30.2321
G1 X97.591 Y103.4 E30.2462
G1 X97.4 Y103.4 E30.25255
G1 X97.4 Y139.6 E31.45657
G1 X97.591 Y139.6 E31.46292
G1 X97.591 Y139.805 E31.46974
G1 X97.885 Y140.12 E31.48407
G1 X98.4 Y140.287 E31.50208
G1 X98.4 Y140.6 E31.51249
G1 X121.363 Y140.6 E32.27624
G0 F6000 X121.192 Y140.123
;TYPE:WALL-OUTER
G1 F1200 X121.385 Y140.186 E32.283
G1 X122.2 Y139.065 E32.32909
G1 X122.2 Y103.935 E33.49752
G1 X121.385 Y102.814 E33.54362
G1 X121.2 Y102.874 E33.55009
G1 X121.2 Y102.8 E33.55255
G1 X112.2 Y102.8 E33.85189
G1 X112.2 Y80.935 E34.57912
G1 X111.385 Y79.814 E34.62522
G1 X111.2 Y79.874 E34.63169
G1 X111.2 Y79.8 E34.63415
G1 X108.8 Y79.8 E34.71397
G1 X108.8 Y80.004 E34.72076
G1 X107.991 Y80.267 E34.74905
G1 X107.991 Y80.8 E34.76678
G1 X107.8 Y80.8 E34.77313
G1 X107.8 Y102.8 E35.50486
G1 X98.8 Y102.8 E35.8042
G1 X98.8 Y103.004 E35.81098
G1 X97.991 Y103.267 E35.83928
G1 X97.991 Y103.8 E35.857
G1 X97.8 Y103.8 E35.86336
G1 X97.8 Y139.2 E37.04076
G1 X97.991 Y139.2 E37.04712
G1 X97.991 Y139.647 E37.06198
G1 X98.107 Y139.771 E37.06763
G1 X98.8 Y139.996 E37.09187
G1 X98.8 Y140.2 E37.09865
G1 X121.187 Y140.2 E37.84325
G1 X121.192 Y140.123 E37.84581
G1 F2700 E32.84581
G0 F6000 X121.327 Y140.377
G0 X98.204 Y140.796
G0 X97.876 Y142.154
G0 X97.392 Y142.711
G0 X96.867 Y142.586
G0 X96.774 Y143.426
G1 F2700 E37.84581
G1 F1200 X96.774 Y143.465 E37.84711
G1 X96.754 Y143.465 E37.84777
G1 X96.774 Y143.426 E37.84923
G0 F6000 X96.796 Y142.898
G0 X96.859 Y142.618
G0 X97.666 Y142.403
;TYPE:WALL-INNER
G1 F1200 X97.666 Y142.354 E37.85086
G1 X96.747 Y142.311 E37.88146
G1 X96.676 Y142.382 E37.8848
G1 X96.399 Y142.362 E37.89404
G1 X95.494 Y142.403 E37.92417
G1 X95.455 Y142.404 E37.92547
G1 X95.403 Y142.407 E37.9272
G1 X95.465 Y142.685 E37.93346
G1 X95.468 Y142.698 E37.93365
G1 X95.435 Y142.701
G1 X95.354 Y142.71 E37.93521
G1 X95.359 Y142.728
G1 X95.369 Y142.765 E37.93649
G1 X95.501 Y143.233 E37.95266
G1 X95.205 Y143.414 E37.9642
G1 X95.236 Y143.451
G1 X95.685 Y143.994 E37.98763
G1 X95.703 Y144.3 E37.99783
G1 X95.543 Y144.173 E37.99906
G1 X94.967 Y143.714 E38.01775
G1 X94.798 Y143.579 E38.02495
G1 X94.798 Y142.4 E38.06416
G1 X94.6 Y142.4 E38.07075
G1 X94.6 Y77.6 E40.226
G1 X94.798 Y77.6 E40.23259
G1 X94.798 Y76.421 E40.2718
G1 X95.703 Y75.7 E40.31029
G1 X96.533 Y75.889 E40.3386
G1 X96.6 Y75.905 E40.34089
G1 X96.6 Y75.6 E40.34762
G1 X123.4 Y75.6 E41.23899
G1 X123.4 Y75.631 E41.24002
G1 X124.832 Y75.957 E41.28887
G1 X125.4 Y77.136 E41.33239
G1 X125.4 Y142.864 E43.51852
G1 X124.832 Y144.043 E43.56204
G1 X123.4 Y144.369 E43.61089
G1 X123.4 Y144.4 E43.61192
G1 X101.545 Y144.4 E44.33882
G1 X101.545 Y143.379 E44.37278
G1 X101.572 Y143.281 E44.37616
G1 X101.393 Y142.758 E44.39455
G1 X100.948 Y142.429 E44.41295
G1 X100.319 Y142.448 E44.43388
G1 X99.657 Y142.844 E44.45954
G1 X99.145 Y142.684 E44.47738
G1 X99.145 Y142.518 E44.4829
G1 X98.22 Y142.405 E44.5139
G1 X98.154 Y142.477 E44.51715
G1 X97.666 Y142.403 E44.53356
G0 F6000 X96.867 Y142.586
G0 X96.796 Y142.898
G0 X96.979 Y143.607
G0 X97.428 Y143.664
G0 X97.267 Y143.478
;TYPE:WALL-OUTER
G1 F1200 X97.55 Y143.454 E44.54301
G1 X97.407 Y143.011 E44.55849
G1 X97.268 Y143.011 E44.56311
G1 X97.267 Y142.736 E44.57226
G1 X96.905 Y142.719 E44.58431
G1 X96.829 Y142.795 E44.58789
G1 X96.393 Y142.763 E44.60243
G1 X95.897 Y142.785 E44.61894
G1 X95.956 Y143.05 E44.62797
G1 X95.868 Y143.059 E44.63091
G1 X95.969 Y143.417 E44.64329
G1 X95.808 Y143.515 E44.64956
G1 X96.069 Y143.831 E44.66319
G1 X96.077 Y143.862 E44.66425
G1 X96.106 Y144.326 E44.67971
G1 X96.353 Y144.399 E44.68828
G1 X97.282 Y144.399 E44.71918
G1 X97.277 Y143.918 E44.73518
G1 X97.262 Y143.821 E44.73844
G1 X97.267 Y143.478 E44.74985
G0 F6000 X97.468 Y143.478
G0 X97.453 Y144.368
G0 X99.769 Y144.4
;TYPE:WALL-INNER
G1 F1200 X99.788 Y144.389 E44.75058
G1 X99.805 Y144.4 E44.75126
G1 X99.788 Y144.4
G1 X99.769 Y144.4
G1 F2700 E39.75126
G0 F6000 X98.192 Y144.364
G0 X98.014 Y144.04
G0 X98.082 Y143.904
;TYPE:WALL-OUTER
G1 F2700 E44.75126
G1 F1200 X98.274 Y144.235 E44.76398
G1 X98.629 Y144.26 E44.77582
G1 X98.702 Y144.147 E44.78029
G1 X98.935 Y144.274 E44.78912
