;FLAVOR:Marlin
;TIME:8025
;Filament used: 18.5668m
;Layer height: 1
;MINX:27.971
;MINY:17.141
;MINZ:0.28
;MAXX:177.971
;MAXY:167.141
;MAXZ:27.28
;Generated with Creality Slicer 4.8.2-191
M140 S50
M105
M190 S50
M104 S200
M105
M109 S200
M82 ;absolute extrusion mode

G28 ;Home

G92 E0 ;Reset Extruder
G1 Z2.0 F3000 ;Move Z Axis up
G1 X10.1 Y20 Z0.28 F5000.0 ;Move to start position
G1 X10.1 Y200.0 Z0.28 F1500.0 E15 ;Draw the first line
G1 X10.4 Y200.0 Z0.28 F5000.0 ;Move to side a little
G1 X10.4 Y20 Z0.28 F1500.0 E30 ;Draw the second line
G92 E0 ;Reset Extruder
G1 Z2.0 F3000 ;Move Z Axis up

G92 E0
G92 E0
G1 F2700 E-5
;LAYER_COUNT:28
;LAYER:0
M107
G0 F6000 X30.511 Y21.776 Z0.28
;TYPE:SKIRT
G1 F2700 E0
G1 F1200 X31.12 Y21.063 E0.04366
G1 X31.788 Y20.405 E0.08732
G1 X32.51 Y19.806 E0.13101
G1 X33.28 Y19.27 E0.17469
G1 X34.075 Y18.811 E0.21744
G1 X34.561 Y18.557 E0.24297
G1 X34.824 Y18.424 E0.2567
G1 X35.141 Y18.269 E0.27313
G1 X36 Y17.893 E0.31679
G1 X36.889 Y17.592 E0.36049
G1 X37.799 Y17.368 E0.40413
G1 X38.726 Y17.222 E0.44783
G1 X39.638 Y17.156 E0.49041
G1 X39.966 Y17.146 E0.50569
G1 X40.301 Y17.141 E0.52129
G1 X165.264 Y17.141 E6.34009
G1 X166.122 Y17.152 E6.38004
G1 X167.058 Y17.205 E6.4237
G1 X167.714 Y17.291 E6.4545
G1 X168.012 Y17.339 E6.46856
G1 X168.931 Y17.527 E6.51224
G1 X169.83 Y17.794 E6.55591
G1 X170.704 Y18.135 E6.59959
G1 X171.545 Y18.55 E6.64326
G1 X172.348 Y19.035 E6.68694
G1 X173.106 Y19.587 E6.73061
G1 X173.815 Y20.201 E6.77428
G1 X174.469 Y20.873 E6.81794
G1 X175.029 Y21.554 E6.859
G1 X175.474 Y22.141 E6.8933
G1 X175.688 Y22.433 E6.91015
G1 X175.937 Y22.785 E6.93023
G1 X176.446 Y23.574 E6.97395
G1 X176.885 Y24.402 E7.01759
G1 X177.253 Y25.265 E7.06128
G1 X177.545 Y26.156 E7.10494
G1 X177.761 Y27.069 E7.14862
G1 X177.898 Y27.997 E7.1923
G1 X177.955 Y28.956 E7.23704
G1 X177.971 Y29.983 E7.28486
G1 X177.97 Y154.549 E13.08518
G1 X177.96 Y155.28 E13.11922
G1 X177.907 Y156.217 E13.16292
G1 X177.775 Y157.145 E13.20657
G1 X177.564 Y158.059 E13.25025
G1 X177.276 Y158.952 E13.29394
G1 X176.913 Y159.816 E13.33758
G1 X176.477 Y160.647 E13.38127
G1 X175.967 Y161.446 E13.42541
G1 X175.568 Y162.015 E13.45777
G1 X175.34 Y162.328 E13.4758
G1 X175.05 Y162.712 E13.49821
G1 X174.453 Y163.436 E13.5419
G1 X173.797 Y164.106 E13.58557
G1 X173.087 Y164.718 E13.62921
G1 X172.326 Y165.267 E13.67291
G1 X171.522 Y165.749 E13.71656
G1 X170.679 Y166.161 E13.76025
G1 X169.805 Y166.5 E13.8039
G1 X168.905 Y166.763 E13.84756
G1 X167.984 Y166.949 E13.89131
G1 X167.673 Y166.998 E13.90597
G1 X166.741 Y167.104 E13.94965
G1 X166.27 Y167.128 E13.97161
G1 X165.95 Y167.137 E13.98652
G1 X165.641 Y167.141 E14.00091
G1 X40.506 Y167.14 E19.82772
G1 X39.803 Y167.129 E19.86045
G1 X38.867 Y167.074 E19.90411
G1 X37.938 Y166.94 E19.94782
G1 X37.025 Y166.727 E19.99147
G1 X36.133 Y166.437 E20.03515
G1 X35.05 Y165.966 E20.09014
G1 X34.349 Y165.615 E20.12665
G1 X33.529 Y165.16 E20.17031
G1 X32.751 Y164.636 E20.21399
G1 X32.204 Y164.206 E20.24639
G1 X32.086 Y164.107 E20.25356
G1 X31.394 Y163.474 E20.29723
G1 X30.758 Y162.785 E20.34089
G1 X30.183 Y162.043 E20.3846
G1 X29.674 Y161.256 E20.42825
G1 X29.233 Y160.428 E20.47193
G1 X28.865 Y159.565 E20.51561
G1 X28.688 Y159.06 E20.54053
G1 X28.513 Y158.518 E20.56705
G1 X28.263 Y157.614 E20.61073
G1 X28.091 Y156.692 E20.6544
G1 X27.986 Y155.468 E20.7116
G1 X27.976 Y155.135 E20.72712
G1 X27.971 Y154.805 E20.74248
G1 X27.972 Y29.634 E26.57097
G1 X27.983 Y28.96 E26.60236
G1 X28.039 Y28.024 E26.64602
G1 X28.174 Y27.096 E26.68969
G1 X28.463 Y25.922 E26.74598
G1 X28.53 Y25.703 E26.75665
G1 X28.619 Y25.425 E26.77024
G1 X28.74 Y25.064 E26.78797
G1 X29.076 Y24.188 E26.83166
G1 X29.485 Y23.344 E26.87533
G1 X29.965 Y22.538 E26.91901
G1 X30.511 Y21.776 E26.96266
G0 F6000 X30.868 Y21.97
G1 F1200 X31.471 Y21.274 E27.00554
G1 X32.132 Y20.634 E27.04838
G1 X32.846 Y20.053 E27.09125
G1 X33.608 Y19.536 E27.13412
G1 X34.26 Y19.166 E27.16903
G1 X34.746 Y18.912 E27.19457
G1 X35 Y18.783 E27.20783
G1 X35.317 Y18.628 E27.22426
G1 X36.161 Y18.26 E27.26714
G1 X37.033 Y17.967 E27.30997
G1 X37.928 Y17.75 E27.35285
G1 X38.838 Y17.612 E27.39571
G1 X39.65 Y17.556 E27.43361
G1 X39.978 Y17.546 E27.44889
G1 X40.301 Y17.541 E27.46393
G1 X165.264 Y17.541 E33.28273
G1 X166.116 Y17.552 E33.32241
G1 X167.035 Y17.605 E33.36527
G1 X167.651 Y17.686 E33.3942
G1 X167.949 Y17.734 E33.40826
G1 X168.85 Y17.92 E33.4511
G1 X169.733 Y18.183 E33.494
G1 X170.589 Y18.522 E33.53687
G1 X171.412 Y18.934 E33.57973
G1 X172.197 Y19.415 E33.6226
G1 X172.936 Y19.963 E33.66544
G1 X173.626 Y20.573 E33.70832
G1 X174.26 Y21.241 E33.7512
G1 X174.71 Y21.795 E33.78444
G1 X175.155 Y22.382 E33.81874
G1 X175.362 Y22.664 E33.83503
G1 X175.611 Y23.016 E33.8551
G1 X176.109 Y23.79 E33.89796
G1 X176.539 Y24.605 E33.94087
G1 X176.896 Y25.453 E33.98371
G1 X177.178 Y26.33 E34.02661
G1 X177.383 Y27.227 E34.06945
G1 X177.51 Y28.139 E34.11233
G1 X177.556 Y28.962 E34.15071
G1 X177.57 Y29.807 E34.19006
G1 X177.571 Y154.399 E39.99159
G1 X177.56 Y155.275 E40.03238
G1 X177.507 Y156.194 E40.07525
G1 X177.375 Y157.105 E40.11811
G1 X177.165 Y158.001 E40.16096
G1 X176.877 Y158.876 E40.20385
G1 X176.515 Y159.722 E40.2467
G1 X176.08 Y160.534 E40.2896
G1 X175.64 Y161.216 E40.32739
G1 X175.241 Y161.785 E40.35975
G1 X175.021 Y162.087 E40.37715
G1 X174.731 Y162.471 E40.39955
G1 X174.145 Y163.181 E40.44242
G1 X173.499 Y163.837 E40.48529
G1 X172.799 Y164.435 E40.52816
G1 X172.049 Y164.97 E40.57106
G1 X171.257 Y165.438 E40.61389
G1 X170.426 Y165.835 E40.65678
G1 X169.564 Y166.159 E40.69966
G1 X168.677 Y166.406 E40.74253
G1 X167.922 Y166.554 E40.77836
G1 X167.611 Y166.603 E40.79302
G1 X166.259 Y166.728 E40.85624
G1 X165.939 Y166.737 E40.87115
G1 X165.641 Y166.741 E40.88502
G1 X40.512 Y166.74 E46.71156
G1 X39.809 Y166.729 E46.74429
G1 X38.89 Y166.674 E46.78716
G1 X37.979 Y166.54 E46.83004
G1 X37.083 Y166.328 E46.87291
G1 X36.209 Y166.039 E46.91578
G1 X35.229 Y165.608 E46.96563
G1 X34.528 Y165.257 E47.00213
G1 X33.724 Y164.81 E47.04497
G1 X32.961 Y164.294 E47.08786
G1 X32.461 Y163.9 E47.1175
G1 X32.343 Y163.801 E47.12467
G1 X31.664 Y163.179 E47.16755
G1 X31.042 Y162.5 E47.21043
G1 X30.48 Y161.771 E47.25329
G1 X29.985 Y160.995 E47.29615
G1 X29.558 Y160.179 E47.33903
G1 X29.069 Y158.937 E47.40119
G1 X28.894 Y158.395 E47.42771
G1 X28.649 Y157.507 E47.4706
G1 X28.483 Y156.602 E47.51344
G1 X28.386 Y155.456 E47.567
G1 X28.376 Y155.123 E47.58251
G1 X28.371 Y154.805 E47.59732
G1 X28.372 Y29.641 E53.42548
G1 X28.383 Y28.967 E53.45687
G1 X28.438 Y28.048 E53.49974
G1 X28.573 Y27.137 E53.54262
G1 X28.846 Y26.039 E53.5953
G1 X28.913 Y25.82 E53.60597
G1 X28.999 Y25.552 E53.61907
G1 X29.12 Y25.191 E53.6368
G1 X29.45 Y24.332 E53.67965
G1 X29.853 Y23.504 E53.72253
G1 X30.327 Y22.715 E53.76539
G1 X30.868 Y21.97 E53.80826
G0 F6000 X31.224 Y22.165
G1 F1200 X31.821 Y21.487 E53.85033
G1 X32.475 Y20.865 E53.89235
G1 X33.182 Y20.303 E53.93441
G1 X33.936 Y19.805 E53.97649
G1 X34.445 Y19.52 E54.00365
G1 X34.931 Y19.266 E54.02918
G1 X35.176 Y19.143 E54.04195
G1 X35.493 Y18.988 E54.05838
G1 X36.321 Y18.627 E54.10044
G1 X37.177 Y18.342 E54.14245
G1 X38.056 Y18.133 E54.18452
G1 X38.95 Y18.002 E54.22659
G1 X39.662 Y17.956 E54.25982
G1 X39.99 Y17.946 E54.2751
G1 X40.301 Y17.941 E54.28958
G1 X165.264 Y17.941 E60.10838
G1 X166.11 Y17.952 E60.14778
G1 X167.012 Y18.005 E60.18985
G1 X167.587 Y18.081 E60.21686
G1 X167.885 Y18.129 E60.23091
G1 X168.769 Y18.312 E60.27295
G1 X169.634 Y18.572 E60.31501
G1 X170.472 Y18.908 E60.35705
G1 X171.278 Y19.317 E60.39913
G1 X172.044 Y19.795 E60.44118
G1 X172.764 Y20.34 E60.48322
G1 X173.434 Y20.945 E60.52526
G1 X174.048 Y21.608 E60.56734
G1 X174.391 Y22.037 E60.59291
G1 X174.836 Y22.624 E60.62721
G1 X175.035 Y22.895 E60.64287
G1 X175.284 Y23.247 E60.66295
G1 X175.773 Y24.007 E60.70503
G1 X176.192 Y24.807 E60.74708
G1 X176.539 Y25.641 E60.78914
G1 X176.811 Y26.502 E60.83118
G1 X177.005 Y27.384 E60.87324
G1 X177.121 Y28.28 E60.91531
G1 X177.156 Y28.969 E60.94743
G1 X177.17 Y29.814 E60.98678
G1 X177.171 Y154.399 E66.78798
G1 X177.16 Y155.27 E66.82854
G1 X177.108 Y156.171 E66.87057
G1 X176.976 Y157.065 E66.91265
G1 X176.765 Y157.943 E66.95469
G1 X176.478 Y158.799 E66.99673
G1 X176.116 Y159.626 E67.03877
G1 X175.683 Y160.419 E67.08084
G1 X175.312 Y160.986 E67.11239
G1 X174.913 Y161.555 E67.14475
G1 X174.702 Y161.846 E67.16149
G1 X174.412 Y162.23 E67.1839
G1 X173.836 Y162.926 E67.22596
G1 X173.201 Y163.568 E67.26801
G1 X172.512 Y164.152 E67.31007
G1 X171.774 Y164.672 E67.35211
G1 X170.992 Y165.125 E67.39419
G1 X170.174 Y165.507 E67.43623
G1 X169.325 Y165.815 E67.47828
G1 X168.452 Y166.047 E67.52034
G1 X167.859 Y166.159 E67.54844
G1 X167.548 Y166.208 E67.5631
G1 X166.248 Y166.328 E67.62389
G1 X165.928 Y166.337 E67.6388
G1 X165.641 Y166.341 E67.65216
G1 X40.518 Y166.34 E73.47842
G1 X39.815 Y166.329 E73.51115
G1 X38.914 Y166.275 E73.55318
G1 X38.021 Y166.141 E73.59523
G1 X37.143 Y165.929 E73.63729
G1 X36.287 Y165.64 E73.67936
G1 X35.408 Y165.251 E73.72412
G1 X34.707 Y164.9 E73.76062
G1 X33.918 Y164.46 E73.80269
G1 X33.172 Y163.952 E73.84471
G1 X32.718 Y163.593 E73.87166
G1 X32.6 Y163.494 E73.87884
G1 X31.935 Y162.884 E73.92086
G1 X31.326 Y162.217 E73.96291
G1 X30.778 Y161.498 E74.00501
G1 X30.296 Y160.735 E74.04703
G1 X29.884 Y159.931 E74.0891
G1 X29.449 Y158.814 E74.14492
G1 X29.274 Y158.272 E74.17144
G1 X29.035 Y157.401 E74.21349
G1 X28.874 Y156.513 E74.25552
G1 X28.786 Y155.444 E74.30546
G1 X28.776 Y155.111 E74.32097
G1 X28.771 Y154.805 E74.33523
G1 X28.772 Y29.648 E80.16306
G1 X28.783 Y28.974 E80.19445
G1 X28.838 Y28.072 E80.23653
G1 X28.972 Y27.179 E80.27857
G1 X29.228 Y26.156 E80.32768
G1 X29.295 Y25.937 E80.33834
G1 X29.378 Y25.679 E80.35096
G1 X29.499 Y25.318 E80.36869
G1 X29.823 Y24.476 E80.4107
G1 X30.221 Y23.665 E80.45277
G1 X30.689 Y22.893 E80.4948
G1 X31.224 Y22.165 E80.53687
G1 F2700 E75.53687
;MESH:?????????.stl
G0 F6000 X71.83 Y101.092
G0 X70.181 Y100.851
G0 X70.543 Y139.069
G0 X70.733 Y139.713
G0 X72.421 Y141.064
G0 X80.043 Y141.069
G0 X80.043 Y147.569
G0 X86.071 Y147.741
;TYPE:WALL-INNER
G1 F2700 E80.53687
G1 F1200 X86.071 Y141.241 E80.83954
G1 X93.571 Y141.241 E81.18877
G1 X93.571 Y140.968 E81.20148
G1 X94.633 Y140.725 E81.25221
G1 X95.571 Y138.778 E81.35284
G1 X95.571 Y101.504 E83.08848
G1 X94.633 Y99.556 E83.18915
G1 X93.571 Y99.313 E83.23988
G1 X93.571 Y99.041 E83.25255
G1 X86.071 Y99.041 E83.60178
G1 X86.071 Y85.241 E84.24437
G1 X93.571 Y85.241 E84.5936
G1 X93.571 Y84.968 E84.60631
G1 X94.633 Y84.725 E84.65704
G1 X95.571 Y82.778 E84.75767
G1 X95.571 Y45.504 E86.4933
G1 X94.701 Y43.698 E86.58665
G1 X94.483 Y43.523 E86.59967
G1 X93.571 Y43.314 E86.64323
G1 X93.571 Y43.041 E86.65595
G1 X86.071 Y43.041 E87.00518
G1 X86.071 Y36.541 E87.30784
G1 X79.871 Y36.541 E87.59654
G1 X79.871 Y43.041 E87.89921
G1 X72.371 Y43.041 E88.24844
G1 X72.371 Y43.051 E88.24891
G1 X70.737 Y44.349 E88.34608
G1 X70.569 Y44.576 E88.35923
G1 X70.569 Y45.041 E88.38088
G1 X70.371 Y45.041 E88.3901
G1 X70.371 Y83.241 E90.16885
G1 X70.569 Y83.241 E90.17807
G1 X70.569 Y83.791 E90.20368
G1 X70.981 Y84.127 E90.22844
G1 X72.371 Y85.235 E90.31121
G1 X72.371 Y85.241 E90.31149
G1 X79.871 Y85.241 E90.66072
G1 X79.871 Y99.041 E91.3033
G1 X72.371 Y99.041 E91.65254
G1 X72.371 Y99.047 E91.65281
G1 X70.569 Y100.487 E91.76022
G1 X70.569 Y101.041 E91.78602
G1 X70.371 Y101.041 E91.79524
G1 X70.371 Y139.241 E93.57399
G1 X70.569 Y139.241 E93.58321
G1 X70.569 Y139.791 E93.60882
G1 X70.981 Y140.127 E93.63358
G1 X72.371 Y141.234 E93.71632
G1 X72.371 Y141.241 E93.71665
G1 X79.871 Y141.241 E94.06588
G1 X79.871 Y147.741 E94.36854
G1 X86.071 Y147.741 E94.65724
G0 F6000 X85.671 Y147.341
;TYPE:WALL-OUTER
G1 F1200 X85.671 Y140.841 E94.95991
G1 X93.171 Y140.841 E95.30914
G1 X93.171 Y140.649 E95.31808
G1 X94.356 Y140.378 E95.37468
G1 X95.171 Y138.687 E95.46209
G1 X95.171 Y101.595 E97.18925
G1 X94.356 Y99.903 E97.2767
G1 X93.171 Y99.632 E97.3333
G1 X93.171 Y99.441 E97.3422
G1 X85.671 Y99.441 E97.69143
G1 X85.671 Y84.841 E98.37127
G1 X93.171 Y84.841 E98.7205
G1 X93.171 Y84.649 E98.72944
G1 X94.356 Y84.378 E98.78604
G1 X95.171 Y82.687 E98.87345
G1 X95.171 Y45.595 E100.60061
G1 X94.38 Y43.953 E100.68548
G1 X94.304 Y43.892 E100.69001
G1 X93.171 Y43.633 E100.74413
G1 X93.171 Y43.441 E100.75307
G1 X85.671 Y43.441 E101.1023
G1 X85.671 Y36.941 E101.40497
G1 X80.271 Y36.941 E101.65642
G1 X80.271 Y43.441 E101.95908
G1 X72.771 Y43.441 E102.30832
G1 X72.771 Y43.542 E102.31302
G1 X72.479 Y43.476 E102.32696
G1 X71.027 Y44.63 E102.41332
G1 X70.969 Y44.708 E102.41785
G1 X70.969 Y45.441 E102.45198
G1 X70.771 Y45.441 E102.4612
G1 X70.771 Y82.841 E104.2027
G1 X70.969 Y82.841 E104.21192
G1 X70.969 Y83.601 E104.24731
G1 X71.232 Y83.815 E104.2631
G1 X72.474 Y84.805 E104.33706
G1 X72.771 Y84.739 E104.35122
G1 X72.771 Y84.841 E104.35597
G1 X80.271 Y84.841 E104.7052
G1 X80.271 Y99.441 E105.38504
G1 X72.771 Y99.441 E105.73427
G1 X72.771 Y99.542 E105.73897
G1 X72.475 Y99.476 E105.7531
G1 X70.969 Y100.679 E105.84285
G1 X70.969 Y101.441 E105.87833
G1 X70.771 Y101.441 E105.88755
G1 X70.771 Y138.841 E107.62905
G1 X70.969 Y138.841 E107.63827
G1 X70.969 Y139.601 E107.67366
G1 X71.232 Y139.815 E107.68945
G1 X72.478 Y140.808 E107.76364
G1 X72.771 Y140.74 E107.77764
G1 X72.771 Y140.841 E107.78235
G1 X80.271 Y140.841 E108.13158
G1 X80.271 Y147.341 E108.43425
G1 X85.671 Y147.341 E108.68569
G1 F2700 E103.68569
G0 F6000 X85.971 Y147.341
G0 X80.043 Y147.569
G0 X79.681 Y147.223
G0 X81.124 Y146.488
G0 X60.459 Y145.002
G0 X61.556 Y145.974
G0 X59.859 Y147.223
;TYPE:WALL-INNER
G1 F2700 E108.68569
G1 F1200 X61.412 Y145.847 E108.78231
G1 X62.59 Y144.14 E108.87888
G1 X63.326 Y142.199 E108.97554
G1 X63.575 Y140.141 E109.07207
G1 X63.326 Y138.082 E109.16864
G1 X62.59 Y136.142 E109.26526
G1 X61.412 Y134.435 E109.36184
G1 X59.859 Y133.059 E109.45845
G1 X58.022 Y132.096 E109.55503
G1 X56.008 Y131.599 E109.65163
G1 X53.934 Y131.599 E109.7482
G1 X51.92 Y132.096 E109.84479
G1 X50.084 Y133.059 E109.94133
G1 X48.53 Y134.435 E110.03798
G1 X47.352 Y136.142 E110.13456
G1 X46.617 Y138.082 E110.23116
G1 X46.367 Y140.141 E110.32774
G1 X46.617 Y142.199 E110.42427
G1 X47.352 Y144.14 E110.52091
G1 X48.53 Y145.847 E110.61749
G1 X50.084 Y147.223 E110.71414
G1 X51.92 Y148.186 E110.81068
G1 X53.934 Y148.682 E110.90726
G1 X56.008 Y148.682 E111.00383
G1 X58.022 Y148.186 E111.10042
G1 X59.859 Y147.223 E111.197
G0 F6000 X59.63 Y146.891
;TYPE:WALL-OUTER
G1 F1200 X61.11 Y145.58 E111.28906
G1 X62.233 Y143.953 E111.38111
G1 X62.935 Y142.103 E111.47325
G1 X63.172 Y140.141 E111.56527
G1 X62.935 Y138.178 E111.65734
G1 X62.233 Y136.329 E111.74944
G1 X61.11 Y134.702 E111.84149
G1 X59.63 Y133.391 E111.93356
G1 X57.879 Y132.473 E112.02562
G1 X55.959 Y131.999 E112.1177
G1 X53.983 Y131.999 E112.20971
G1 X52.063 Y132.473 E112.3018
G1 X50.313 Y133.391 E112.39382
G1 X48.832 Y134.702 E112.48592
G1 X47.709 Y136.329 E112.57797
G1 X47.008 Y138.178 E112.67005
G1 X46.77 Y140.141 E112.76213
G1 X47.008 Y142.103 E112.85415
G1 X47.709 Y143.953 E112.94627
G1 X48.832 Y145.58 E113.03833
G1 X50.313 Y146.891 E113.13043
G1 X52.063 Y147.809 E113.22245
G1 X53.983 Y148.282 E113.31452
G1 X55.959 Y148.282 E113.40653
G1 X57.879 Y147.809 E113.49861
G1 X59.63 Y146.891 E113.59067
G0 F6000 X59.879 Y147.253
G1 F2700 E108.59067
G0 F6000 X61.29 Y145.74
G0 X62.446 Y144.065
G0 X63.169 Y142.16
G0 X63.413 Y140.141
G0 X63.169 Y138.121
G0 X62.446 Y136.217
G0 X61.29 Y134.542
G0 X60.057 Y133.45
G0 X58.09 Y131.916
G0 X57.569 Y133.287
G0 X55.855 Y51.418
G0 X56.031 Y52.873
G0 X58.022 Y52.186
;TYPE:WALL-INNER
G1 F2700 E113.59067
G1 F1200 X59.859 Y51.223 E113.68725
G1 X61.412 Y49.847 E113.78386
G1 X62.59 Y48.14 E113.88044
G1 X63.326 Y46.199 E113.9771
G1 X63.575 Y44.141 E114.07363
G1 X63.326 Y42.082 E114.1702
G1 X62.59 Y40.142 E114.26682
G1 X61.412 Y38.435 E114.36339
G1 X59.859 Y37.059 E114.46001
G1 X58.022 Y36.096 E114.55659
G1 X56.008 Y35.599 E114.65318
G1 X53.934 Y35.599 E114.74976
G1 X51.92 Y36.096 E114.84635
G1 X50.084 Y37.059 E114.94289
G1 X48.53 Y38.435 E115.03954
G1 X47.352 Y40.142 E115.13611
G1 X46.617 Y42.082 E115.23271
G1 X46.367 Y44.141 E115.32929
