;FLAVOR:Marlin
;TIME:12884
;Filament used: 8.01745m
;Layer height: 0.16
;MINX:62
;MINY:39
;MINZ:0.2
;MAXX:158
;MAXY:181
;MAXZ:15.8
;Generated with Creality Slicer 4.8.2-191
M140 S50
M105
M190 S50
M104 S200
M105
M109 S200
M82 ;absolute extrusion mode

G28 ;Home

G92 E0 ;Reset Extruder
G1 Z2.0 F3000 ;Move Z Axis up
G1 X10.1 Y20 Z0.28 F5000.0 ;Move to start position
G1 X10.1 Y200.0 Z0.28 F1500.0 E15 ;Draw the first line
G1 X10.4 Y200.0 Z0.28 F5000.0 ;Move to side a little
G1 X10.4 Y20 Z0.28 F1500.0 E30 ;Draw the second line
G92 E0 ;Reset Extruder
G1 Z2.0 F3000 ;Move Z Axis up

G92 E0
G92 E0
G1 F2700 E-5
;LAYER_COUNT:81
;LAYER:0
M107
G0 F6000 X64.827 Y45.306 Z0.2
;TYPE:SKIRT
G1 F2700 E0
G1 F1200 X65.376 Y44.545 E0.03121
G1 X65.987 Y43.835 E0.06237
G1 X66.657 Y43.178 E0.09358
G1 X67.621 Y42.405 E0.13467
G1 X68.393 Y41.856 E0.16618
G1 X68.902 Y41.507 E0.18671
G1 X69.482 Y41.12 E0.2099
G1 X70.283 Y40.633 E0.24108
G1 X71.123 Y40.216 E0.27227
G1 X71.996 Y39.873 E0.30347
G1 X72.895 Y39.605 E0.33467
G1 X73.437 Y39.482 E0.35315
G1 X74.049 Y39.36 E0.37391
G1 X74.343 Y39.306 E0.38385
G1 X75.155 Y39.167 E0.41125
G1 X76.085 Y39.048 E0.44243
G1 X76.701 Y39.013 E0.46296
G1 X77.02 Y39.004 E0.47357
G1 X77.33 Y39 E0.48388
G1 X142.293 Y39 E2.64456
G1 X143.155 Y39.011 E2.67323
G1 X143.577 Y39.025 E2.68728
G1 X144.19 Y39.063 E2.7077
G1 X145.123 Y39.164 E2.73892
G1 X146.043 Y39.344 E2.7701
G1 X147.201 Y39.691 E2.8103
G1 X147.972 Y39.969 E2.83756
G1 X148.519 Y40.175 E2.857
G1 X149.317 Y40.49 E2.88554
G1 X150.173 Y40.872 E2.91671
G1 X150.994 Y41.326 E2.94792
G1 X151.773 Y41.849 E2.97913
G1 X152.504 Y42.436 E3.01031
G1 X153.378 Y43.29 E3.05095
G1 X153.971 Y43.94 E3.08021
G1 X154.405 Y44.431 E3.10201
G1 X154.858 Y44.956 E3.12507
G1 X155.44 Y45.691 E3.15626
G1 X155.957 Y46.474 E3.18746
G1 X156.406 Y47.298 E3.21867
G1 X156.783 Y48.156 E3.24984
G1 X157.169 Y49.348 E3.29152
G1 X157.407 Y50.259 E3.32283
G1 X157.545 Y50.821 E3.34208
G1 X157.705 Y51.51 E3.36561
G1 X157.878 Y52.432 E3.39681
G1 X157.986 Y53.692 E3.43887
G1 X157.996 Y54.051 E3.45082
G1 X158 Y54.357 E3.46099
G1 X157.999 Y165.427 E7.1552
G1 X157.989 Y166.147 E7.17915
G1 X157.936 Y167.083 E7.21033
G1 X157.76 Y168.232 E7.24899
G1 X157.691 Y168.564 E7.26027
G1 X157.597 Y168.977 E7.27436
G1 X157.346 Y169.983 E7.30884
G1 X157.176 Y170.633 E7.33119
G1 X156.9 Y171.53 E7.3624
G1 X156.549 Y172.399 E7.39357
G1 X156.125 Y173.236 E7.42478
G1 X155.632 Y174.033 E7.45595
G1 X154.881 Y175.015 E7.49707
G1 X154.262 Y175.734 E7.52862
G1 X153.845 Y176.202 E7.54947
G1 X153.409 Y176.68 E7.57099
G1 X152.773 Y177.323 E7.60107
G1 X152.06 Y177.933 E7.63228
G1 X151.299 Y178.48 E7.66345
G1 X150.493 Y178.96 E7.69465
G1 X149.321 Y179.507 E7.73767
G1 X148.454 Y179.849 E7.76867
G1 X147.941 Y180.043 E7.78691
G1 X147.24 Y180.298 E7.81172
G1 X146.346 Y180.581 E7.84291
G1 X145.431 Y180.787 E7.87411
G1 X144.548 Y180.909 E7.90375
G1 X144.069 Y180.949 E7.91974
G1 X143.758 Y180.968 E7.9301
G1 X143.403 Y180.983 E7.94192
G1 X142.986 Y180.995 E7.9558
G1 X142.67 Y181 E7.96631
G1 X77.55 Y180.999 E10.13221
G1 X76.848 Y180.989 E10.15556
G1 X75.912 Y180.936 E10.18674
G1 X74.998 Y180.805 E10.21745
G1 X73.967 Y180.622 E10.25228
G1 X73.485 Y180.528 E10.26861
G1 X72.573 Y180.309 E10.29981
G1 X71.683 Y180.014 E10.33099
G1 X70.822 Y179.643 E10.36217
G1 X69.995 Y179.201 E10.39336
G1 X69.483 Y178.879 E10.41348
G1 X68.668 Y178.333 E10.44611
G1 X68.234 Y178.032 E10.46367
G1 X67.657 Y177.623 E10.4872
G1 X66.915 Y177.049 E10.5184
G1 X66.226 Y176.413 E10.54959
G1 X65.593 Y175.721 E10.58078
G1 X65.021 Y174.978 E10.61197
G1 X64.358 Y173.911 E10.65375
G1 X63.882 Y173.034 E10.68694
G1 X63.618 Y172.527 E10.70595
G1 X63.306 Y171.909 E10.72897
G1 X62.92 Y171.055 E10.76014
G1 X62.607 Y170.171 E10.79134
G1 X62.371 Y169.263 E10.82254
G1 X62.22 Y168.39 E10.85201
G1 X62.137 Y167.745 E10.87364
G1 X62.078 Y167.222 E10.89114
G1 X62.013 Y166.293 E10.92212
G1 X62.004 Y165.967 E10.93296
G1 X62 Y165.663 E10.94307
G1 X62.001 Y54.549 E14.63874
G1 X62.011 Y53.852 E14.66193
G1 X62.058 Y52.988 E14.6907
G1 X62.079 Y52.763 E14.69822
G1 X62.12 Y52.391 E14.71067
G1 X62.212 Y51.671 E14.73481
G1 X62.454 Y50.385 E14.77833
G1 X62.72 Y49.486 E14.80952
G1 X63.062 Y48.612 E14.84073
G1 X63.305 Y48.097 E14.85967
G1 X63.688 Y47.338 E14.88795
G1 X64.008 Y46.729 E14.91083
G1 X64.344 Y46.11 E14.93426
G1 X64.827 Y45.306 E14.96545
G0 F6000 X65.17 Y45.512
G1 F1200 X65.711 Y44.767 E14.99607
G1 X66.314 Y44.071 E15.0267
G1 X66.975 Y43.431 E15.0573
G1 X67.853 Y42.731 E15.09465
G1 X68.62 Y42.185 E15.12597
G1 X69.124 Y41.84 E15.14628
G1 X69.704 Y41.453 E15.16947
G1 X70.491 Y40.975 E15.2001
G1 X71.317 Y40.568 E15.23072
G1 X72.175 Y40.234 E15.26135
G1 X73.058 Y39.976 E15.29194
G1 X73.515 Y39.875 E15.30751
G1 X74.127 Y39.753 E15.32827
G1 X74.41 Y39.7 E15.33784
G1 X75.222 Y39.561 E15.36524
G1 X76.136 Y39.445 E15.39589
G1 X76.712 Y39.413 E15.41507
G1 X77.031 Y39.404 E15.42569
G1 X77.33 Y39.4 E15.43563
G1 X142.293 Y39.4 E17.59631
G1 X143.149 Y39.411 E17.62478
G1 X143.56 Y39.424 E17.63846
G1 X144.164 Y39.462 E17.65859
G1 X145.079 Y39.562 E17.6892
G1 X145.982 Y39.741 E17.71982
G1 X147.065 Y40.067 E17.75744
G1 X147.836 Y40.345 E17.7847
G1 X148.531 Y40.608 E17.80941
G1 X149.169 Y40.861 E17.83224
G1 X150.01 Y41.238 E17.8629
G1 X150.814 Y41.685 E17.89349
G1 X151.577 Y42.201 E17.92413
G1 X152.292 Y42.781 E17.95475
G1 X153.083 Y43.56 E17.99167
G1 X153.672 Y44.206 E18.02075
G1 X154.102 Y44.692 E18.04233
G1 X154.555 Y45.217 E18.0654
G1 X155.126 Y45.94 E18.09604
G1 X155.632 Y46.709 E18.12666
G1 X156.069 Y47.519 E18.15727
G1 X156.434 Y48.364 E18.18788
G1 X156.782 Y49.45 E18.22581
G1 X157.019 Y50.354 E18.2569
G1 X157.155 Y50.911 E18.27597
G1 X157.315 Y51.6 E18.29949
G1 X157.484 Y52.505 E18.33011
G1 X157.586 Y53.703 E18.3701
G1 X157.596 Y54.062 E18.38205
G1 X157.6 Y54.357 E18.39186
G1 X157.599 Y165.421 E22.08586
G1 X157.589 Y166.141 E22.10981
G1 X157.536 Y167.06 E22.14043
G1 X157.368 Y168.151 E22.17714
G1 X157.299 Y168.483 E22.18842
G1 X157.209 Y168.88 E22.20196
G1 X156.959 Y169.882 E22.23631
G1 X156.789 Y170.532 E22.25866
G1 X156.518 Y171.412 E22.28928
G1 X156.171 Y172.265 E22.31991
G1 X155.752 Y173.084 E22.35051
G1 X155.263 Y173.864 E22.38113
G1 X154.577 Y174.754 E22.4185
G1 X153.962 Y175.468 E22.44984
G1 X153.549 Y175.932 E22.47051
G1 X153.113 Y176.41 E22.49202
G1 X152.5 Y177.03 E22.52102
G1 X151.8 Y177.629 E22.55167
G1 X151.051 Y178.164 E22.58228
G1 X150.258 Y178.632 E22.61291
G1 X149.173 Y179.135 E22.65268
G1 X148.312 Y179.476 E22.68348
G1 X147.805 Y179.667 E22.7015
G1 X147.104 Y179.922 E22.72631
G1 X146.226 Y180.199 E22.75693
G1 X145.327 Y180.399 E22.78757
G1 X144.509 Y180.511 E22.81503
G1 X144.044 Y180.549 E22.83054
G1 X143.733 Y180.568 E22.84091
G1 X143.392 Y180.584 E22.85226
G1 X142.975 Y180.596 E22.86614
G1 X142.67 Y180.6 E22.87628
G1 X77.556 Y180.599 E25.04198
G1 X76.854 Y180.589 E25.06533
G1 X75.935 Y180.536 E25.09595
G1 X75.071 Y180.412 E25.12498
G1 X74.044 Y180.229 E25.15968
G1 X73.562 Y180.135 E25.17601
G1 X72.667 Y179.92 E25.20663
G1 X71.794 Y179.628 E25.23724
G1 X70.949 Y179.261 E25.26788
G1 X70.14 Y178.822 E25.2985
G1 X69.705 Y178.547 E25.31562
G1 X69.04 Y178.103 E25.34221
G1 X68.465 Y177.706 E25.36545
G1 X67.888 Y177.297 E25.38897
G1 X67.161 Y176.732 E25.4196
G1 X66.485 Y176.107 E25.45022
G1 X65.867 Y175.425 E25.48083
G1 X65.309 Y174.692 E25.51147
G1 X64.709 Y173.719 E25.54949
G1 X64.237 Y172.849 E25.58241
G1 X63.976 Y172.347 E25.60123
G1 X63.664 Y171.729 E25.62425
G1 X63.285 Y170.89 E25.65487
G1 X62.98 Y170.021 E25.68551
G1 X62.752 Y169.129 E25.71613
G1 X62.617 Y168.337 E25.74285
G1 X62.535 Y167.7 E25.76421
G1 X62.476 Y167.177 E25.78172
G1 X62.413 Y166.282 E25.81156
G1 X62.404 Y165.956 E25.82241
G1 X62.4 Y165.663 E25.83215
G1 X62.401 Y54.555 E29.52762
G1 X62.411 Y53.858 E29.5508
G1 X62.456 Y53.025 E29.57855
G1 X62.477 Y52.8 E29.58607
G1 X62.516 Y52.441 E29.59808
G1 X62.608 Y51.721 E29.62222
G1 X62.842 Y50.482 E29.66416
G1 X63.104 Y49.599 E29.69479
G1 X63.442 Y48.743 E29.7254
G1 X63.663 Y48.278 E29.74252
G1 X64.131 Y47.353 E29.777
G1 X64.36 Y46.92 E29.79329
G1 X64.696 Y46.301 E29.81672
G1 X65.17 Y45.512 E29.84733
G0 F6000 X65.513 Y45.718
G1 F1200 X66.045 Y44.988 E29.87738
G1 X66.64 Y44.309 E29.90741
G1 X67.292 Y43.684 E29.93744
G1 X68.086 Y43.056 E29.97112
G1 X68.708 Y42.612 E29.99653
G1 X69.346 Y42.172 E30.02231
G1 X69.926 Y41.785 E30.0455
G1 X70.698 Y41.318 E30.07551
G1 X71.509 Y40.921 E30.10554
G1 X72.352 Y40.596 E30.13559
G1 X73.593 Y40.267 E30.17829
G1 X74.205 Y40.145 E30.19905
G1 X74.478 Y40.094 E30.20829
G1 X75.29 Y39.955 E30.23569
G1 X76.186 Y39.842 E30.26572
G1 X76.723 Y39.813 E30.28361
G1 X77.042 Y39.804 E30.29423
G1 X77.33 Y39.8 E30.30381
G1 X142.293 Y39.8 E32.46448
G1 X143.143 Y39.811 E32.49276
G1 X143.542 Y39.824 E32.50603
G1 X144.138 Y39.861 E32.5259
G1 X145.036 Y39.96 E32.55594
G1 X145.921 Y40.138 E32.58597
G1 X146.93 Y40.444 E32.62104
G1 X147.852 Y40.778 E32.65365
G1 X148.384 Y40.98 E32.67258
G1 X149.022 Y41.233 E32.69541
G1 X149.846 Y41.603 E32.72545
G1 X150.634 Y42.044 E32.75548
G1 X151.38 Y42.553 E32.78552
G1 X152.078 Y43.127 E32.81558
G1 X152.788 Y43.83 E32.84881
G1 X153.373 Y44.472 E32.8777
G1 X153.8 Y44.954 E32.89912
G1 X154.253 Y45.479 E32.92218
G1 X154.812 Y46.188 E32.95221
G1 X155.306 Y46.944 E32.98225
G1 X155.731 Y47.74 E33.01226
G1 X156.085 Y48.571 E33.0423
G1 X156.396 Y49.551 E33.0765
G1 X156.594 Y50.305 E33.10243
G1 X156.766 Y51.002 E33.1263
G1 X156.926 Y51.691 E33.14983
G1 X157.091 Y52.579 E33.17987
G1 X157.186 Y53.714 E33.21775
G1 X157.196 Y54.073 E33.2297
G1 X157.2 Y54.357 E33.23915
G1 X157.199 Y165.416 E36.93298
G1 X157.189 Y166.136 E36.95693
G1 X157.137 Y167.037 E36.98695
G1 X156.977 Y168.07 E37.02172
G1 X156.908 Y168.402 E37.033
G1 X156.82 Y168.784 E37.04603
G1 X156.572 Y169.781 E37.0802
G1 X156.402 Y170.431 E37.10255
G1 X156.135 Y171.294 E37.1326
G1 X155.793 Y172.129 E37.16261
G1 X155.378 Y172.932 E37.19267
G1 X154.894 Y173.694 E37.2227
G1 X154.274 Y174.494 E37.25636
G1 X153.771 Y175.08 E37.28205
G1 X153.254 Y175.663 E37.30796
G1 X152.818 Y176.141 E37.32948
G1 X152.227 Y176.738 E37.35742
G1 X151.54 Y177.324 E37.38745
G1 X150.804 Y177.847 E37.41748
G1 X150.024 Y178.304 E37.44755
G1 X149.026 Y178.763 E37.48409
G1 X148.169 Y179.102 E37.51474
G1 X147.668 Y179.291 E37.53255
G1 X146.967 Y179.546 E37.55736
G1 X146.105 Y179.817 E37.58741
G1 X145.223 Y180.011 E37.61745
G1 X144.47 Y180.113 E37.64273
G1 X144.02 Y180.15 E37.65774
G1 X143.709 Y180.169 E37.66811
G1 X143.38 Y180.184 E37.67906
G1 X142.963 Y180.196 E37.69294
G1 X142.67 Y180.2 E37.70268
G1 X77.562 Y180.199 E39.86818
G1 X76.86 Y180.189 E39.89153
G1 X75.958 Y180.136 E39.92159
G1 X75.144 Y180.019 E39.94894
G1 X74.121 Y179.836 E39.9835
G1 X73.639 Y179.742 E39.99984
G1 X72.761 Y179.53 E40.02988
G1 X71.905 Y179.242 E40.05992
G1 X71.078 Y178.878 E40.08997
G1 X69.927 Y178.214 E40.13417
G1 X69.262 Y177.77 E40.16076
G1 X68.696 Y177.379 E40.18364
G1 X68.119 Y176.97 E40.20716
G1 X67.406 Y176.416 E40.2372
G1 X66.745 Y175.801 E40.26722
G1 X66.141 Y175.13 E40.29725
G1 X65.599 Y174.407 E40.32731
G1 X65.061 Y173.528 E40.36158
G1 X64.591 Y172.663 E40.39433
G1 X64.333 Y172.167 E40.41292
G1 X64.021 Y171.549 E40.43595
G1 X63.65 Y170.725 E40.466
G1 X63.353 Y169.872 E40.49604
G1 X63.133 Y168.997 E40.52605
G1 X63.013 Y168.285 E40.55007
G1 X62.955 Y167.845 E40.56483
G1 X62.873 Y167.132 E40.5887
G1 X62.813 Y166.27 E40.61744
G1 X62.804 Y165.944 E40.62829
G1 X62.8 Y165.663 E40.63763
G1 X62.801 Y54.561 E44.3329
G1 X62.811 Y53.864 E44.35609
G1 X62.854 Y53.062 E44.3828
G1 X62.875 Y52.837 E44.39031
G1 X62.913 Y52.492 E44.40186
G1 X63.005 Y51.772 E44.426
G1 X63.231 Y50.579 E44.46639
G1 X63.488 Y49.714 E44.4964
G1 X63.821 Y48.874 E44.52645
G1 X64.02 Y48.458 E44.54179
G1 X64.485 Y47.54 E44.57602
G1 X64.712 Y47.111 E44.59216
G1 X65.048 Y46.492 E44.61559
G1 X65.513 Y45.718 E44.64562
G1 F2700 E39.64562
;MESH:top-plate.stl
G0 F6000 X72.347 Y166.653
G0 X72.453 Y167.12
G0 X73.495 Y169.105
G0 X75.34 Y170.379
G0 X76.347 Y170.653
G0 X143.653 Y170.653
G0 X145.66 Y169.854
G0 X147.147 Y168.176
G0 X147.664 Y166.08
G0 X147.665 Y165.226
G0 X142.343 Y165.226
G0 X142.498 Y167.65
;TYPE:WALL-INNER
G1 F2700 E44.64562
G1 F1200 X143.058 Y167.958 E44.66687
G1 X143.692 Y168.013 E44.68804
G1 X144.278 Y167.806 E44.70871
G1 X144.735 Y167.396 E44.72913
G1 X144.989 Y166.815 E44.75022
G1 X144.989 Y166.185 E44.77118
G1 X144.73 Y165.597 E44.79255
G1 X144.238 Y165.168 E44.81426
G1 X143.63 Y164.98 E44.83542
G1 X143.008 Y165.061 E44.85629
G1 X142.475 Y165.371 E44.87679
G1 X142.108 Y165.886 E44.89783
G1 X141.978 Y166.5 E44.9187
G1 X142.108 Y167.122 E44.93984
G1 X142.498 Y167.65 E44.96167
G0 F6000 X142.768 Y167.342
G1 F1200 X143.177 Y167.567 E44.97719
G1 X143.64 Y167.607 E44.99265
G1 X144.07 Y167.455 E45.00782
G1 X144.403 Y167.156 E45.02271
G1 X144.589 Y166.731 E45.03814
G1 X144.589 Y166.269 E45.0535
G1 X144.4 Y165.84 E45.06909
G1 X144.039 Y165.525 E45.08503
G1 X143.595 Y165.388 E45.10048
G1 X143.139 Y165.447 E45.11578
G1 X142.751 Y165.673 E45.13071
G1 X142.482 Y166.05 E45.14612
G1 X142.387 Y166.5 E45.16141
G1 X142.482 Y166.955 E45.17687
G1 X142.768 Y167.342 E45.19288
G0 F6000 X143.038 Y167.034
;TYPE:WALL-OUTER
G1 F1200 X143.296 Y167.176 E45.20267
G1 X143.588 Y167.201 E45.21242
G1 X143.862 Y167.104 E45.22209
G1 X144.071 Y166.916 E45.23144
G1 X144.189 Y166.647 E45.24121
G1 X144.189 Y166.353 E45.25099
G1 X144.07 Y166.083 E45.2608
G1 X143.84 Y165.882 E45.27096
G1 X143.56 Y165.796 E45.2807
G1 X143.27 Y165.833 E45.29042
G1 X143.027 Y165.975 E45.29979
G1 X142.856 Y166.214 E45.30956
G1 X142.796 Y166.5 E45.31928
G1 X142.856 Y166.788 E45.32906
G1 X143.038 Y167.034 E45.33924
G0 F6000 X142.749 Y167.365
G1 F2700 E40.33924
G0 F6000 X141.93 Y165.808
G0 X141.93 Y170.665
G0 X128.772 Y158.401
G0 X122.965 Y158.337
G0 X123.403 Y156.796
G0 X126.836 Y156.597
G0 X118.404 Y148.738
G0 X118.337 Y147.965
G0 X117.602 Y148.003
G0 X117.597 Y147.653
G0 X117.179 Y147.597
G0 X108.404 Y139.419
G0 X108.337 Y144.035
G0 X106.796 Y143.597
G0 X106.594 Y137.732
G0 X98.404 Y130.099
G0 X98.337 Y125.965
G0 X96.664 Y126.293
G0 X96.594 Y128.412
G0 X87.337 Y119.785
G0 X89.172 Y120.381
G0 X87.304 Y122
;TYPE:WALL-INNER
G1 F2700 E45.33924
G1 F1200 X87.414 Y122.035 E45.34308
G1 X87.691 Y122.126 E45.35278
G1 X89 Y120.325 E45.42683
G1 X89 Y61.675 E47.37754
G1 X87.691 Y59.874 E47.45159
G1 X87.3 Y60 E47.46525
G1 X84.066 Y60 E47.57282
G1 X84.038 Y60.411 E47.58652
G1 X83.191 Y60.687 E47.61615
G1 X83.191 Y61 E47.62656
G1 X83 Y61 E47.63291
G1 X83 Y121 E49.62852
G1 X83.191 Y121 E49.63487
G1 X83.191 Y121.315 E49.64535
G1 X84 Y121.577 E49.67363
G1 X84 Y122 E49.6877
G1 X87.304 Y122 E49.79759
G0 F6000 X87.366 Y121.6
G1 F1200 X87.538 Y121.656 E49.80361
G1 X88.6 Y120.195 E49.86368
G1 X88.6 Y61.805 E51.80574
G1 X87.538 Y60.344 E51.86582
G1 X87.364 Y60.4 E51.8719
G1 X84.44 Y60.4 E51.96915
G1 X84.419 Y60.707 E51.97938
G1 X84.162 Y60.79 E51.98837
G1 X83.591 Y60.977 E52.00835
G1 X83.591 Y61.4 E52.02242
G1 X83.4 Y61.4 E52.02877
G1 X83.4 Y120.6 E53.99777
G1 X83.591 Y120.6 E54.00412
G1 X83.591 Y121.024 E54.01823
G1 X84.4 Y121.286 E54.04651
G1 X84.4 Y121.6 E54.05695
G1 X87.366 Y121.6 E54.1556
G0 F6000 X87.185 Y121.121
;TYPE:WALL-OUTER
G1 F1200 X87.385 Y121.186 E54.1626
G1 X88.2 Y120.065 E54.20869
G1 X88.2 Y61.935 E56.14211
G1 X87.385 Y60.814 E56.1882
G1 X87.159 Y60.887 E56.1961
G1 X87.144 Y60.8 E56.19904
G1 X84.813 Y60.8 E56.27657
G1 X84.799 Y61.004 E56.28337
G1 X83.991 Y61.267 E56.31163
G1 X83.991 Y61.8 E56.32936
G1 X83.8 Y61.8 E56.33571
G1 X83.8 Y120.2 E58.2781
G1 X83.991 Y120.2 E58.28446
G1 X83.991 Y120.733 E58.30218
G1 X84.8 Y120.996 E58.33048
G1 X84.8 Y121.2 E58.33726
G1 X87.174 Y121.2 E58.41622
G1 X87.185 Y121.121 E58.41887
G1 F2700 E53.41887
G0 F6000 X87.185 Y121.5
G0 X84.572 Y121.428
G0 X83.759 Y120.901
G0 X83.591 Y120.476
G0 X82.83 Y101.977
G0 X84.665 Y101.977
G0 X72.335 Y55.973
G0 X78.377 Y55.973
G0 X77.692 Y56.013
;TYPE:WALL-INNER
G1 F2700 E58.41887
G1 F1200 X78.278 Y55.806 E58.43955
G1 X78.735 Y55.396 E58.45997
G1 X78.989 Y54.815 E58.48106
G1 X78.989 Y54.185 E58.50201
G1 X78.73 Y53.597 E58.52338
