;FLAVOR:Marlin
;TIME:9845
;Filament used: 6.1298m
;Layer height: 0.2
;MINX:62
;MINY:39
;MINZ:0.2
;MAXX:158
;MAXY:181
;MAXZ:16
;Generated with Creality Slicer 4.8.2-191
M140 S50
M105
M190 S50
M104 S200
M105
M109 S200
M82 ;absolute extrusion mode

G28 ;Home

G92 E0 ;Reset Extruder
G1 Z2.0 F3000 ;Move Z Axis up
G1 X10.1 Y20 Z0.28 F5000.0 ;Move to start position
G1 X10.1 Y200.0 Z0.28 F1500.0 E15 ;Draw the first line
G1 X10.4 Y200.0 Z0.28 F5000.0 ;Move to side a little
G1 X10.4 Y20 Z0.28 F1500.0 E30 ;Draw the second line
G92 E0 ;Reset Extruder
G1 Z2.0 F3000 ;Move Z Axis up

G92 E0
G92 E0
G1 F2700 E-5
;LAYER_COUNT:80
;LAYER:0
M107
G0 F6000 X64.827 Y45.306 Z0.2
;TYPE:SKIRT
G1 F2700 E0
G1 F1200 X65.376 Y44.545 E0.03121
G1 X65.987 Y43.835 E0.06237
G1 X66.657 Y43.178 E0.09358
G1 X67.621 Y42.405 E0.13467
G1 X68.393 Y41.856 E0.16618
G1 X68.902 Y41.507 E0.18671
G1 X69.482 Y41.12 E0.2099
G1 X70.283 Y40.633 E0.24108
G1 X71.123 Y40.216 E0.27227
G1 X71.996 Y39.873 E0.30347
G1 X72.895 Y39.605 E0.33467
G1 X73.437 Y39.482 E0.35315
G1 X74.049 Y39.36 E0.37391
G1 X74.343 Y39.306 E0.38385
G1 X75.155 Y39.167 E0.41125
G1 X76.085 Y39.048 E0.44243
G1 X76.701 Y39.013 E0.46296
G1 X77.02 Y39.004 E0.47357
G1 X77.33 Y39 E0.48388
G1 X142.293 Y39 E2.64456
G1 X143.151 Y39.011 E2.6731
G1 X143.614 Y39.028 E2.68851
G1 X144.16 Y39.06 E2.7067
G1 X145.093 Y39.158 E2.7379
G1 X146.014 Y39.336 E2.7691
G1 X147.206 Y39.692 E2.81048
G1 X148.113 Y40.021 E2.84257
G1 X148.679 Y40.237 E2.86272
G1 X149.317 Y40.49 E2.88555
G1 X150.173 Y40.872 E2.91672
G1 X150.994 Y41.326 E2.94793
G1 X151.773 Y41.849 E2.97913
G1 X152.504 Y42.436 E3.01032
G1 X153.378 Y43.29 E3.05096
G1 X153.971 Y43.94 E3.08022
G1 X154.405 Y44.431 E3.10202
G1 X154.858 Y44.956 E3.12508
G1 X155.44 Y45.691 E3.15626
G1 X155.957 Y46.474 E3.18747
G1 X156.406 Y47.298 E3.21868
G1 X156.783 Y48.156 E3.24985
G1 X157.169 Y49.348 E3.29153
G1 X157.407 Y50.259 E3.32284
G1 X157.545 Y50.821 E3.34209
G1 X157.705 Y51.51 E3.36562
G1 X157.878 Y52.432 E3.39682
G1 X157.986 Y53.692 E3.43888
G1 X157.996 Y54.051 E3.45082
G1 X158 Y54.357 E3.461
G1 X157.999 Y165.427 E7.15521
G1 X157.989 Y166.147 E7.17915
G1 X157.936 Y167.083 E7.21034
G1 X157.76 Y168.232 E7.249
G1 X157.691 Y168.564 E7.26028
G1 X157.597 Y168.977 E7.27436
G1 X157.346 Y169.983 E7.30885
G1 X157.176 Y170.633 E7.3312
G1 X156.9 Y171.53 E7.36241
G1 X156.549 Y172.399 E7.39358
G1 X156.125 Y173.236 E7.42479
G1 X155.632 Y174.033 E7.45596
G1 X154.881 Y175.015 E7.49708
G1 X154.262 Y175.734 E7.52863
G1 X153.845 Y176.202 E7.54948
G1 X153.409 Y176.68 E7.571
G1 X152.773 Y177.323 E7.60108
G1 X152.06 Y177.933 E7.63229
G1 X151.299 Y178.48 E7.66346
G1 X150.493 Y178.96 E7.69466
G1 X149.321 Y179.507 E7.73768
G1 X148.454 Y179.849 E7.76868
G1 X147.941 Y180.043 E7.78692
G1 X147.24 Y180.298 E7.81173
G1 X146.346 Y180.581 E7.84292
G1 X145.431 Y180.787 E7.87411
G1 X144.548 Y180.909 E7.90376
G1 X144.069 Y180.949 E7.91975
G1 X143.758 Y180.968 E7.93011
G1 X143.403 Y180.983 E7.94193
G1 X142.986 Y180.995 E7.9558
G1 X142.67 Y181 E7.96632
G1 X77.55 Y180.999 E10.13222
G1 X76.848 Y180.989 E10.15557
G1 X75.912 Y180.936 E10.18675
G1 X74.998 Y180.805 E10.21746
G1 X73.967 Y180.622 E10.25229
G1 X73.485 Y180.528 E10.26862
G1 X72.573 Y180.309 E10.29981
G1 X71.683 Y180.014 E10.331
G1 X70.822 Y179.643 E10.36218
G1 X69.995 Y179.201 E10.39337
G1 X69.483 Y178.879 E10.41349
G1 X68.668 Y178.333 E10.44612
G1 X68.234 Y178.032 E10.46368
G1 X67.657 Y177.623 E10.48721
G1 X66.915 Y177.049 E10.51841
G1 X66.226 Y176.413 E10.54959
G1 X65.593 Y175.721 E10.58079
G1 X65.021 Y174.978 E10.61197
G1 X64.358 Y173.911 E10.65376
G1 X63.882 Y173.034 E10.68694
G1 X63.618 Y172.527 E10.70596
G1 X63.306 Y171.909 E10.72898
G1 X62.92 Y171.055 E10.76015
G1 X62.607 Y170.171 E10.79134
G1 X62.371 Y169.263 E10.82255
G1 X62.22 Y168.39 E10.85201
G1 X62.137 Y167.745 E10.87364
G1 X62.078 Y167.222 E10.89115
G1 X62.013 Y166.293 E10.92212
G1 X62.004 Y165.967 E10.93297
G1 X62 Y165.663 E10.94308
G1 X62.001 Y54.549 E14.63875
G1 X62.011 Y53.852 E14.66193
G1 X62.058 Y52.988 E14.69071
G1 X62.079 Y52.763 E14.69823
G1 X62.12 Y52.391 E14.71068
G1 X62.212 Y51.671 E14.73482
G1 X62.454 Y50.385 E14.77834
G1 X62.72 Y49.486 E14.80952
G1 X63.062 Y48.612 E14.84074
G1 X63.305 Y48.097 E14.85968
G1 X63.688 Y47.338 E14.88796
G1 X64.008 Y46.729 E14.91084
G1 X64.344 Y46.11 E14.93426
G1 X64.827 Y45.306 E14.96546
G0 F6000 X65.17 Y45.512
G1 F1200 X65.711 Y44.767 E14.99608
G1 X66.314 Y44.071 E15.02671
G1 X66.975 Y43.431 E15.05731
G1 X67.853 Y42.731 E15.09466
G1 X68.62 Y42.185 E15.12597
G1 X69.124 Y41.84 E15.14629
G1 X69.704 Y41.453 E15.16948
G1 X70.491 Y40.975 E15.2001
G1 X71.317 Y40.568 E15.23073
G1 X72.175 Y40.234 E15.26135
G1 X73.058 Y39.976 E15.29195
G1 X73.515 Y39.875 E15.30752
G1 X74.127 Y39.753 E15.32827
G1 X74.41 Y39.7 E15.33785
G1 X75.222 Y39.561 E15.36525
G1 X76.136 Y39.445 E15.39589
G1 X76.712 Y39.413 E15.41508
G1 X77.031 Y39.404 E15.42569
G1 X77.33 Y39.4 E15.43564
G1 X142.293 Y39.4 E17.59632
G1 X143.145 Y39.411 E17.62466
G1 X143.592 Y39.427 E17.63954
G1 X144.135 Y39.459 E17.65763
G1 X145.05 Y39.556 E17.68823
G1 X145.954 Y39.733 E17.71887
G1 X147.07 Y40.068 E17.75762
G1 X147.971 Y40.395 E17.7895
G1 X148.531 Y40.608 E17.80943
G1 X149.169 Y40.861 E17.83226
G1 X150.01 Y41.238 E17.86291
G1 X150.814 Y41.685 E17.89351
G1 X151.577 Y42.201 E17.92414
G1 X152.292 Y42.781 E17.95477
G1 X153.083 Y43.56 E17.99169
G1 X153.672 Y44.206 E18.02077
G1 X154.102 Y44.692 E18.04235
G1 X154.555 Y45.217 E18.06541
G1 X155.126 Y45.94 E18.09606
G1 X155.632 Y46.709 E18.12667
G1 X156.069 Y47.519 E18.15728
G1 X156.434 Y48.364 E18.1879
G1 X156.782 Y49.45 E18.22583
G1 X157.019 Y50.354 E18.25691
G1 X157.155 Y50.911 E18.27598
G1 X157.315 Y51.6 E18.29951
G1 X157.484 Y52.505 E18.33013
G1 X157.586 Y53.703 E18.37012
G1 X157.596 Y54.062 E18.38206
G1 X157.6 Y54.357 E18.39188
G1 X157.599 Y165.421 E22.08588
G1 X157.589 Y166.141 E22.10983
G1 X157.536 Y167.06 E22.14045
G1 X157.368 Y168.151 E22.17716
G1 X157.299 Y168.483 E22.18844
G1 X157.209 Y168.88 E22.20198
G1 X156.959 Y169.882 E22.23633
G1 X156.789 Y170.532 E22.25867
G1 X156.518 Y171.412 E22.2893
G1 X156.171 Y172.265 E22.31993
G1 X155.752 Y173.084 E22.35052
G1 X155.263 Y173.864 E22.38114
G1 X154.577 Y174.754 E22.41852
G1 X153.962 Y175.468 E22.44986
G1 X153.549 Y175.932 E22.47052
G1 X153.113 Y176.41 E22.49204
G1 X152.5 Y177.03 E22.52104
G1 X151.8 Y177.629 E22.55168
G1 X151.051 Y178.164 E22.5823
G1 X150.258 Y178.632 E22.61292
G1 X149.173 Y179.135 E22.6527
G1 X148.312 Y179.476 E22.6835
G1 X147.805 Y179.667 E22.70152
G1 X147.104 Y179.922 E22.72633
G1 X146.226 Y180.199 E22.75695
G1 X145.327 Y180.399 E22.78758
G1 X144.509 Y180.511 E22.81504
G1 X144.044 Y180.549 E22.83056
G1 X143.733 Y180.568 E22.84092
G1 X143.392 Y180.584 E22.85228
G1 X142.975 Y180.596 E22.86615
G1 X142.67 Y180.6 E22.8763
G1 X77.556 Y180.599 E25.042
G1 X76.854 Y180.589 E25.06535
G1 X75.935 Y180.536 E25.09597
G1 X75.071 Y180.412 E25.125
G1 X74.044 Y180.229 E25.15969
G1 X73.562 Y180.135 E25.17603
G1 X72.667 Y179.92 E25.20664
G1 X71.794 Y179.628 E25.23726
G1 X70.949 Y179.261 E25.2679
G1 X70.14 Y178.822 E25.29851
G1 X69.705 Y178.547 E25.31563
G1 X69.04 Y178.103 E25.34223
G1 X68.465 Y177.706 E25.36547
G1 X67.888 Y177.297 E25.38899
G1 X67.161 Y176.732 E25.41961
G1 X66.485 Y176.107 E25.45023
G1 X65.867 Y175.425 E25.48085
G1 X65.309 Y174.692 E25.51149
G1 X64.709 Y173.719 E25.54951
G1 X64.237 Y172.849 E25.58243
G1 X63.976 Y172.347 E25.60125
G1 X63.664 Y171.729 E25.62427
G1 X63.285 Y170.89 E25.65489
G1 X62.98 Y170.021 E25.68552
G1 X62.752 Y169.129 E25.71614
G1 X62.617 Y168.337 E25.74287
G1 X62.535 Y167.7 E25.76423
G1 X62.476 Y167.177 E25.78173
G1 X62.413 Y166.282 E25.81157
G1 X62.404 Y165.956 E25.82242
G1 X62.4 Y165.663 E25.83217
G1 X62.401 Y54.555 E29.52764
G1 X62.411 Y53.858 E29.55082
G1 X62.456 Y53.025 E29.57857
G1 X62.477 Y52.8 E29.58608
G1 X62.516 Y52.441 E29.59809
G1 X62.608 Y51.721 E29.62223
G1 X62.842 Y50.482 E29.66417
G1 X63.104 Y49.599 E29.69481
G1 X63.442 Y48.743 E29.72542
G1 X63.663 Y48.278 E29.74254
G1 X64.131 Y47.353 E29.77702
G1 X64.36 Y46.92 E29.79331
G1 X64.696 Y46.301 E29.81674
G1 X65.17 Y45.512 E29.84735
G0 F6000 X65.513 Y45.718
G1 F1200 X66.045 Y44.988 E29.87739
G1 X66.64 Y44.309 E29.90742
G1 X67.292 Y43.684 E29.93746
G1 X68.086 Y43.056 E29.97113
G1 X68.708 Y42.612 E29.99655
G1 X69.346 Y42.172 E30.02233
G1 X69.926 Y41.785 E30.04552
G1 X70.698 Y41.318 E30.07553
G1 X71.509 Y40.921 E30.10556
G1 X72.352 Y40.596 E30.13561
G1 X73.593 Y40.267 E30.17831
G1 X74.205 Y40.145 E30.19907
G1 X74.478 Y40.094 E30.2083
G1 X75.29 Y39.955 E30.2357
G1 X76.186 Y39.842 E30.26574
G1 X76.723 Y39.813 E30.28363
G1 X77.042 Y39.804 E30.29424
G1 X77.33 Y39.8 E30.30382
G1 X142.293 Y39.8 E32.4645
G1 X143.139 Y39.811 E32.49264
G1 X143.569 Y39.826 E32.50695
G1 X144.11 Y39.858 E32.52498
G1 X145.008 Y39.955 E32.55502
G1 X145.894 Y40.13 E32.58505
G1 X146.934 Y40.444 E32.62119
G1 X147.83 Y40.769 E32.65289
G1 X148.384 Y40.98 E32.67261
G1 X149.022 Y41.233 E32.69543
G1 X149.846 Y41.603 E32.72548
G1 X150.634 Y42.044 E32.75551
G1 X151.38 Y42.553 E32.78555
G1 X152.078 Y43.127 E32.8156
G1 X152.788 Y43.83 E32.84884
G1 X153.373 Y44.472 E32.87773
G1 X153.8 Y44.954 E32.89914
G1 X154.253 Y45.479 E32.92221
G1 X154.812 Y46.188 E32.95224
G1 X155.306 Y46.944 E32.98227
G1 X155.731 Y47.74 E33.01228
G1 X156.085 Y48.571 E33.04233
G1 X156.396 Y49.551 E33.07652
G1 X156.594 Y50.305 E33.10245
G1 X156.766 Y51.002 E33.12633
G1 X156.926 Y51.691 E33.14986
G1 X157.091 Y52.579 E33.1799
G1 X157.186 Y53.714 E33.21778
G1 X157.196 Y54.073 E33.22972
G1 X157.2 Y54.357 E33.23917
G1 X157.199 Y165.416 E36.93301
G1 X157.189 Y166.136 E36.95696
G1 X157.137 Y167.037 E36.98697
G1 X156.977 Y168.07 E37.02174
G1 X156.908 Y168.402 E37.03302
G1 X156.82 Y168.784 E37.04606
G1 X156.572 Y169.781 E37.08023
G1 X156.402 Y170.431 E37.10258
G1 X156.135 Y171.294 E37.13262
G1 X155.793 Y172.129 E37.16263
G1 X155.378 Y172.932 E37.1927
G1 X154.894 Y173.694 E37.22272
G1 X154.274 Y174.494 E37.25638
G1 X153.771 Y175.08 E37.28207
G1 X153.254 Y175.663 E37.30799
G1 X152.818 Y176.141 E37.32951
G1 X152.227 Y176.738 E37.35745
G1 X151.54 Y177.324 E37.38748
G1 X150.804 Y177.847 E37.41751
G1 X150.024 Y178.304 E37.44758
G1 X149.026 Y178.763 E37.48411
G1 X148.169 Y179.102 E37.51477
G1 X147.668 Y179.291 E37.53258
G1 X146.967 Y179.546 E37.55739
G1 X146.105 Y179.817 E37.58744
G1 X145.223 Y180.011 E37.61748
G1 X144.47 Y180.113 E37.64275
G1 X144.02 Y180.15 E37.65777
G1 X143.709 Y180.169 E37.66813
G1 X143.38 Y180.184 E37.67909
G1 X142.963 Y180.196 E37.69296
G1 X142.67 Y180.2 E37.70271
G1 X77.562 Y180.199 E39.86821
G1 X76.86 Y180.189 E39.89156
G1 X75.958 Y180.136 E39.92161
G1 X75.144 Y180.019 E39.94896
G1 X74.121 Y179.836 E39.98353
G1 X73.639 Y179.742 E39.99986
G1 X72.761 Y179.53 E40.0299
G1 X71.905 Y179.242 E40.05994
G1 X71.078 Y178.878 E40.08999
G1 X69.927 Y178.214 E40.13419
G1 X69.262 Y177.77 E40.16079
G1 X68.696 Y177.379 E40.18367
G1 X68.119 Y176.97 E40.20719
G1 X67.406 Y176.416 E40.23722
G1 X66.745 Y175.801 E40.26725
G1 X66.141 Y175.13 E40.29728
G1 X65.599 Y174.407 E40.32733
G1 X65.061 Y173.528 E40.36161
G1 X64.591 Y172.663 E40.39435
G1 X64.333 Y172.167 E40.41295
G1 X64.021 Y171.549 E40.43597
G1 X63.65 Y170.725 E40.46603
G1 X63.353 Y169.872 E40.49607
G1 X63.133 Y168.997 E40.52608
G1 X63.013 Y168.285 E40.55009
G1 X62.955 Y167.845 E40.56485
G1 X62.873 Y167.132 E40.58872
G1 X62.813 Y166.27 E40.61746
G1 X62.804 Y165.944 E40.62831
G1 X62.8 Y165.663 E40.63766
G1 X62.801 Y54.561 E44.33293
G1 X62.811 Y53.864 E44.35611
G1 X62.854 Y53.062 E44.38282
G1 X62.875 Y52.837 E44.39034
G1 X62.913 Y52.492 E44.40188
G1 X63.005 Y51.772 E44.42603
G1 X63.231 Y50.579 E44.46641
G1 X63.488 Y49.714 E44.49642
G1 X63.821 Y48.874 E44.52648
G1 X64.02 Y48.458 E44.54182
G1 X64.485 Y47.54 E44.57604
G1 X64.712 Y47.111 E44.59218
G1 X65.048 Y46.492 E44.61561
G1 X65.513 Y45.718 E44.64564
G1 F2700 E39.64564
;MESH:top-plate.stl
G0 F6000 X72.347 Y166.653
G0 X72.453 Y167.12
G0 X73.495 Y169.105
G0 X75.34 Y170.379
G0 X76.347 Y170.653
G0 X143.653 Y170.653
G0 X145.66 Y169.854
G0 X147.147 Y168.176
G0 X147.504 Y166.732
G0 X142.619 Y165.529
G0 X142.559 Y166.402
G0 X142.761 Y167.336
;TYPE:WALL-INNER
G1 F2700 E44.64564
G1 F1200 X143.167 Y167.564 E44.66113
G1 X143.628 Y167.608 E44.67653
G1 X144.063 Y167.46 E44.69181
G1 X144.403 Y167.156 E44.70698
G1 X144.589 Y166.731 E44.72241
G1 X144.589 Y166.269 E44.73778
G1 X144.401 Y165.841 E44.75333
G1 X144.048 Y165.53 E44.76898
G1 X143.606 Y165.389 E44.78441
G1 X143.145 Y165.442 E44.79984
G1 X142.751 Y165.673 E44.81503
G1 X142.482 Y166.05 E44.83044
G1 X142.387 Y166.5 E44.84573
G1 X142.482 Y166.953 E44.86113
G1 X142.761 Y167.336 E44.87689
G0 F6000 X143.033 Y167.03
;TYPE:WALL-OUTER
G1 F1200 X143.289 Y167.174 E44.88666
G1 X143.581 Y167.202 E44.89641
G1 X143.857 Y167.108 E44.90611
G1 X144.071 Y166.916 E44.91567
G1 X144.189 Y166.647 E44.92544
G1 X144.189 Y166.353 E44.93522
G1 X144.07 Y166.083 E44.94504
G1 X143.846 Y165.885 E44.95498
G1 X143.567 Y165.796 E44.96472
G1 X143.275 Y165.83 E44.9745
G1 X143.027 Y165.975 E44.98405
G1 X142.856 Y166.214 E44.99383
G1 X142.796 Y166.5 E45.00355
G1 X142.856 Y166.787 E45.0133
G1 X143.033 Y167.03 E45.0233
G0 F6000 X142.741 Y167.358
G1 F2700 E40.0233
G0 F6000 X142.304 Y165.972
G0 X142.304 Y170.665
G0 X128.885 Y158.401
G0 X122.965 Y158.337
G0 X123.343 Y156.654
G0 X126.912 Y156.598
G0 X118.405 Y148.824
G0 X118.337 Y147.965
G0 X117.602 Y148.003
G0 X117.197 Y147.664
G0 X108.405 Y139.686
G0 X108.337 Y144.035
G0 X106.796 Y143.597
G0 X106.594 Y138.031
G0 X98.405 Y130.547
G0 X98.337 Y125.965
G0 X96.654 Y126.339
G0 X96.595 Y128.893
G0 X87.058 Y120.179
G0 X87.611 Y121.885
G0 X87.363 Y121.6
;TYPE:WALL-INNER
G1 F2700 E45.0233
G1 F1200 X87.537 Y121.657 E45.02939
G1 X88.6 Y120.195 E45.08951
G1 X88.6 Y61.805 E47.03157
G1 X87.538 Y60.344 E47.09164
G1 X87.366 Y60.4 E47.09766
G1 X84.421 Y60.4 E47.19561
G1 X84.41 Y60.71 E47.20593
G1 X83.592 Y60.977 E47.23454
G1 X83.591 Y61.4 E47.24861
G1 X83.4 Y61.4 E47.25497
G1 X83.4 Y120.6 E49.22397
G1 X83.591 Y120.6 E49.23032
G1 X83.591 Y121.024 E49.24442
G1 X84.4 Y121.286 E49.2727
G1 X84.4 Y121.6 E49.28315
G1 X87.363 Y121.6 E49.3817
G0 F6000 X87.192 Y121.123
;TYPE:WALL-OUTER
G1 F1200 X87.385 Y121.186 E49.38845
G1 X88.2 Y120.065 E49.43455
G1 X88.2 Y61.935 E51.36796
G1 X87.385 Y60.814 E51.41406
G1 X87.179 Y60.881 E51.42126
G1 X87.173 Y60.8 E51.42396
G1 X84.807 Y60.8 E51.50266
G1 X84.8 Y61.003 E51.50941
G1 X83.991 Y61.267 E51.53772
G1 X83.99 Y61.8 E51.55544
G1 X83.8 Y61.8 E51.56176
G1 X83.8 Y120.2 E53.50416
G1 X83.991 Y120.2 E53.51051
G1 X83.991 Y120.733 E53.52824
G1 X84.8 Y120.996 E53.55653
G1 X84.8 Y121.2 E53.56331
G1 X87.187 Y121.2 E53.64271
G1 X87.192 Y121.123 E53.64527
G1 F2700 E48.64527
G0 F6000 X87.192 Y121.5
G0 X84.572 Y121.428
G0 X83.759 Y120.901
G0 X83.591 Y120.476
G0 X83.21 Y61.21
G0 X78.194 Y55.598
G0 X77.628 Y55.608
;TYPE:WALL-INNER
G1 F2700 E53.64527
G1 F1200 X78.063 Y55.46 E53.66056
G1 X78.403 Y55.156 E53.67572
G1 X78.589 Y54.731 E53.69115
G1 X78.589 Y54.269 E53.70652
G1 X78.401 Y53.841 E53.72207
G1 X78.048 Y53.53 E53.73772
G1 X77.606 Y53.389 E53.75315
G1 X77.145 Y53.442 E53.76858
G1 X76.751 Y53.673 E53.78377
G1 X76.482 Y54.05 E53.79918
G1 X76.387 Y54.5 E53.81447
G1 X76.482 Y54.953 E53.82987
G1 X76.761 Y55.336 E53.84563
G1 X77.167 Y55.564 E53.86111
G1 X77.628 Y55.608 E53.87652
G0 F6000 X77.581 Y55.202
;TYPE:WALL-OUTER
G1 F1200 X77.857 Y55.108 E53.88621
G1 X78.071 Y54.916 E53.89578
G1 X78.189 Y54.647 E53.90555
G1 X78.189 Y54.353 E53.91533
G1 X78.07 Y54.083 E53.92514
G1 X77.846 Y53.885 E53.93508
G1 X77.567 Y53.796 E53.94482
G1 X77.275 Y53.83 E53.9546
G1 X77.027 Y53.975 E53.96416
G1 X76.856 Y54.214 E53.97393
G1 X76.796 Y54.5 E53.98365
G1 X76.856 Y54.787 E53.9934
G1 X77.033 Y55.03 E54.0034
G1 X77.289 Y55.174 E54.01317
G1 X77.581 Y55.202 E54.02293
G0 F6000 X77.632 Y55.639
G1 F2700 E49.02293
G0 F6000 X78.78 Y54.771
G0 X78.78 Y49.335
G0 X143.563 Y49.351
G0 X145.66 Y50.146
G0 X147.147 Y51.824
G0 X147.664 Y53.92
G0 X147.665 Y55.032
G0 X142.304 Y55.032
G0 X143.167 Y55.564
;TYPE:WALL-INNER
G1 F2700 E54.02293
G1 F1200 X143.628 Y55.608 E54.03833
