;FLAVOR:Marlin
;TIME:7538
;Filament used: 6.6862m
;Layer height: 0.28
;MINX:71.335
;MINY:47.335
;MINZ:0.28
;MAXX:148.665
;MAXY:172.665
;MAXZ:15.96
;Generated with Creality Slicer 4.8.2-191
M140 S60
M105
M190 S60
M104 S215
M105
M109 S215
M82 ;absolute extrusion mode

G28 ;Home

G92 E0 ;Reset Extruder
G1 Z2.0 F3000 ;Move Z Axis up
G1 X10.1 Y20 Z0.28 F5000.0 ;Move to start position
G1 X10.1 Y200.0 Z0.28 F1500.0 E15 ;Draw the first line
G1 X10.4 Y200.0 Z0.28 F5000.0 ;Move to side a little
G1 X10.4 Y20 Z0.28 F1500.0 E30 ;Draw the second line
G92 E0 ;Reset Extruder
G1 Z2.0 F3000 ;Move Z Axis up

G92 E0
G92 E0
G1 F2400 E-6
;LAYER_COUNT:57
;LAYER:0
M107
;MESH:top-plate.stl
G0 F6000 X76.631 Y53.608 Z0.28
;TYPE:WALL-INNER
G1 F2400 E0
G1 F1200 X77.068 Y53.459 E0.0215
G1 X77.403 Y53.155 E0.04256
G1 X77.589 Y52.731 E0.06412
G1 X77.589 Y52.269 E0.08564
G1 X77.4 Y51.841 E0.10742
G1 X77.045 Y51.528 E0.12946
G1 X76.602 Y51.389 E0.15108
G1 X76.144 Y51.444 E0.17256
G1 X75.753 Y51.673 E0.19366
G1 X75.482 Y52.049 E0.21524
G1 X75.387 Y52.5 E0.2367
G1 X75.482 Y52.956 E0.25839
G1 X75.766 Y53.338 E0.28055
G1 X76.169 Y53.564 E0.30207
G1 X76.631 Y53.608 E0.32368
G0 F6000 X76.583 Y53.202
;TYPE:WALL-OUTER
G1 F1200 X76.86 Y53.107 E0.33732
G1 X77.071 Y52.916 E0.35057
G1 X77.189 Y52.647 E0.36425
G1 X77.189 Y52.353 E0.37794
G1 X77.07 Y52.083 E0.39167
G1 X76.844 Y51.884 E0.4057
G1 X76.564 Y51.796 E0.41936
G1 X76.274 Y51.831 E0.43296
G1 X76.028 Y51.975 E0.44624
G1 X75.856 Y52.214 E0.45995
G1 X75.796 Y52.5 E0.47356
G1 X75.856 Y52.788 E0.48725
G1 X76.036 Y53.031 E0.50134
G1 X76.291 Y53.174 E0.51495
G1 X76.583 Y53.202 E0.52861
G0 F6000 X76.634 Y53.638
G1 F2400 E-5.47139
G0 F6000 X77.561 Y53.269
G0 X74.279 Y49.571
G0 X75.131 Y48.836
G0 X76.982 Y47.88
G0 X79.007 Y47.394
G0 X79.843 Y47.339
G0 X140.157 Y47.339
G0 X139.637 Y53.484
G0 X140.631 Y53.608
;TYPE:WALL-INNER
G1 F2400 E0.52861
G1 F1200 X141.068 Y53.459 E0.55011
G1 X141.403 Y53.155 E0.57117
G1 X141.589 Y52.731 E0.59273
G1 X141.589 Y52.269 E0.61424
G1 X141.4 Y51.841 E0.63603
G1 X141.045 Y51.528 E0.65807
G1 X140.602 Y51.389 E0.67969
G1 X140.144 Y51.444 E0.70117
G1 X139.753 Y51.673 E0.72227
G1 X139.482 Y52.049 E0.74385
G1 X139.387 Y52.5 E0.76531
G1 X139.482 Y52.956 E0.787
G1 X139.766 Y53.338 E0.80916
G1 X140.169 Y53.564 E0.83068
G1 X140.631 Y53.608 E0.85229
G0 F6000 X140.583 Y53.202
;TYPE:WALL-OUTER
G1 F1200 X140.86 Y53.107 E0.86592
G1 X141.071 Y52.916 E0.87918
G1 X141.189 Y52.647 E0.89285
G1 X141.189 Y52.353 E0.90654
G1 X141.07 Y52.083 E0.92028
G1 X140.844 Y51.884 E0.93431
G1 X140.564 Y51.796 E0.94797
G1 X140.274 Y51.831 E0.96157
G1 X140.028 Y51.975 E0.97485
G1 X139.856 Y52.214 E0.98856
G1 X139.796 Y52.5 E1.00216
G1 X139.856 Y52.788 E1.01586
G1 X140.036 Y53.031 E1.02994
G1 X140.291 Y53.174 E1.04356
G1 X140.583 Y53.202 E1.05722
G0 F6000 X140.634 Y53.638
G1 F2400 E-4.94278
G0 F6000 X140.11 Y53.75
G0 X136.648 Y60.124
G0 X137.755 Y62.875
G0 X138.894 Y66.057
G0 X139.741 Y69.743
G0 X140.262 Y73.782
G0 X140.44 Y78
G0 X140.262 Y82.218
G0 X139.741 Y86.257
G0 X138.894 Y89.943
G0 X137.755 Y93.125
G0 X136.36 Y95.671
G0 X134.748 Y97.477
G0 X132.945 Y98.438
G0 X131.014 Y98.6
;TYPE:WALL-INNER
G1 F2400 E1.05722
G1 F1200 X132.986 Y98.6 E1.14904
G1 X134.849 Y97.605 E1.24739
G1 X136.493 Y95.764 E1.36232
G1 X137.902 Y93.191 E1.49892
G1 X139.049 Y89.989 E1.65729
G1 X139.899 Y86.286 E1.8342
G1 X140.423 Y82.232 E2.02454
G1 X140.6 Y78 E2.22178
G1 X140.423 Y73.768 E2.41901
G1 X139.899 Y69.714 E2.60935
G1 X139.049 Y66.011 E2.78626
G1 X137.902 Y62.809 E2.94464
G1 X136.493 Y60.236 E3.08123
G1 X134.849 Y58.395 E3.19616
G1 X132.986 Y57.4 E3.29451
G1 X131.014 Y57.4 E3.38634
G1 X129.151 Y58.395 E3.48468
G1 X127.507 Y60.236 E3.59961
G1 X126.098 Y62.809 E3.73621
G1 X124.951 Y66.011 E3.89458
G1 X124.101 Y69.714 E4.0715
G1 X123.577 Y73.768 E4.26184
G1 X123.4 Y78 E4.45907
G1 X123.577 Y82.232 E4.6563
G1 X124.101 Y86.286 E4.84664
G1 X124.951 Y89.989 E5.02355
G1 X126.098 Y93.191 E5.18193
G1 X127.507 Y95.764 E5.31853
G1 X129.151 Y97.605 E5.43346
G1 X131.014 Y98.6 E5.5318
G0 F6000 X131.114 Y98.2
;TYPE:WALL-OUTER
G1 F1200 X132.886 Y98.2 E5.61432
G1 X134.598 Y97.286 E5.70468
G1 X136.164 Y95.532 E5.81417
G1 X137.536 Y93.027 E5.94717
G1 X138.664 Y89.876 E6.10301
G1 X139.505 Y86.215 E6.27792
G1 X140.024 Y82.198 E6.46652
G1 X140.2 Y78 E6.66217
G1 X140.024 Y73.802 E6.85782
G1 X139.505 Y69.785 E7.04642
G1 X138.664 Y66.124 E7.22133
G1 X137.536 Y62.973 E7.37717
G1 X136.164 Y60.468 E7.51017
G1 X134.598 Y58.714 E7.61966
G1 X132.886 Y57.8 E7.71002
G1 X131.114 Y57.8 E7.79254
G1 X129.402 Y58.714 E7.8829
G1 X127.836 Y60.468 E7.99239
G1 X126.464 Y62.973 E8.12538
G1 X125.336 Y66.124 E8.28123
G1 X124.495 Y69.785 E8.45614
G1 X123.976 Y73.802 E8.64474
G1 X123.8 Y78 E8.84039
G1 X123.976 Y82.198 E9.03604
G1 X124.495 Y86.215 E9.22464
G1 X125.336 Y89.876 E9.39955
G1 X126.464 Y93.027 E9.55539
G1 X127.836 Y95.532 E9.68839
G1 X129.402 Y97.286 E9.79788
G1 X131.114 Y98.2 E9.88824
G0 F6000 X131.008 Y98.626
G1 F2400 E3.88824
G0 F6000 X129.031 Y97.758
G0 X129.944 Y96.597
G0 X116.4 Y112.294
G0 X116.337 Y117.034
G0 X114.661 Y116.937
G0 X114.599 Y114.382
G0 X106.4 Y123.885
G0 X106.337 Y122.965
G0 X104.661 Y123.063
G0 X104.599 Y125.973
G0 X96.4 Y135.477
G0 X96.337 Y141.034
G0 X94.661 Y140.937
G0 X94.599 Y137.564
G0 X71.389 Y164.469
G0 X77.557 Y163.725
G0 X77.441 Y164.599
G0 X77.068 Y165.459
;TYPE:WALL-INNER
G1 F2400 E9.88824
G1 F1200 X77.403 Y165.155 E9.90931
G1 X77.589 Y164.731 E9.93087
G1 X77.589 Y164.269 E9.95238
G1 X77.4 Y163.841 E9.97417
G1 X77.045 Y163.528 E9.9962
G1 X76.602 Y163.389 E10.01782
G1 X76.144 Y163.444 E10.0393
G1 X75.753 Y163.673 E10.0604
G1 X75.482 Y164.049 E10.08198
G1 X75.387 Y164.5 E10.10345
G1 X75.482 Y164.956 E10.12513
G1 X75.766 Y165.338 E10.1473
G1 X76.169 Y165.564 E10.16881
G1 X76.631 Y165.608 E10.19042
G1 X77.068 Y165.459 E10.21192
G0 F6000 X76.86 Y165.107
;TYPE:WALL-OUTER
G1 F1200 X77.071 Y164.916 E10.22518
G1 X77.189 Y164.647 E10.23885
G1 X77.189 Y164.353 E10.25254
G1 X77.07 Y164.083 E10.26628
G1 X76.844 Y163.884 E10.2803
G1 X76.564 Y163.796 E10.29397
G1 X76.274 Y163.831 E10.30757
G1 X76.028 Y163.975 E10.32085
G1 X75.856 Y164.214 E10.33456
G1 X75.796 Y164.5 E10.34816
G1 X75.856 Y164.788 E10.36186
G1 X76.036 Y165.031 E10.37594
G1 X76.291 Y165.174 E10.38956
G1 X76.583 Y165.202 E10.40322
G1 X76.86 Y165.107 E10.41685
G0 F6000 X77.083 Y165.485
G1 F2400 E4.41685
G0 F6000 X77.428 Y164.697
G0 X77.428 Y164.303
G0 X77.299 Y164.009
G0 X76.621 Y163.194
G0 X71.335 Y163.194
G0 X82.848 Y117.111
G0 X82.204 Y118.796
G0 X85.366 Y118.6
;TYPE:WALL-INNER
G1 F2400 E10.41685
G1 F1200 X85.539 Y118.656 E10.42532
G1 X86.6 Y117.195 E10.5094
G1 X86.6 Y58.805 E13.22828
G1 X85.537 Y57.343 E13.31245
G1 X85.364 Y57.4 E13.32093
G1 X82.428 Y57.4 E13.45764
G1 X82.413 Y57.709 E13.47205
G1 X81.592 Y57.976 E13.51225
G1 X81.591 Y58.4 E13.53199
G1 X81.4 Y58.4 E13.54088
G1 X81.4 Y117.6 E16.29748
G1 X81.591 Y117.6 E16.30638
G1 X81.591 Y118.024 E16.32612
G1 X82.4 Y118.286 E16.36572
G1 X82.4 Y118.6 E16.38034
G1 X85.366 Y118.6 E16.51845
G0 F6000 X85.185 Y118.121
;TYPE:WALL-OUTER
G1 F1200 X85.386 Y118.186 E16.52829
G1 X86.2 Y117.065 E16.59279
G1 X86.2 Y58.935 E19.29957
G1 X85.385 Y57.814 E19.36411
G1 X85.171 Y57.884 E19.37459
G1 X85.161 Y57.8 E19.37853
G1 X82.809 Y57.8 E19.48805
G1 X82.799 Y58.004 E19.49756
G1 X81.991 Y58.267 E19.53713
G1 X81.99 Y58.8 E19.56194
G1 X81.8 Y58.8 E19.57079
G1 X81.8 Y117.2 E22.29014
G1 X81.991 Y117.2 E22.29903
G1 X81.991 Y117.733 E22.32385
G1 X82.8 Y117.996 E22.36346
G1 X82.8 Y118.2 E22.37296
G1 X85.173 Y118.2 E22.48346
G1 X85.185 Y118.121 E22.48718
G1 F2400 E16.48718
G0 F6000 X85.185 Y118.5
G0 X86.791 Y117.257
G0 X85.337 Y116.784
G0 X98.896 Y117.007
G0 X97.443 Y117.546
G0 X98.822 Y118.428
G0 X102.23 Y118.6
;TYPE:WALL-INNER
G1 F2400 E22.48718
G1 F1200 X102.365 Y118.644 E22.49379
G1 X103.6 Y116.945 E22.5916
G1 X103.6 Y59.055 E25.2872
G1 X102.364 Y57.355 E25.38507
G1 X102.227 Y57.4 E25.39178
G1 X98.65 Y57.4 E25.55834
G1 X98.65 Y57.752 E25.57473
G1 X97.639 Y58.079 E25.62421
G1 X97.639 Y58.65 E25.6508
G1 X97.4 Y58.65 E25.66193
G1 X97.4 Y117.35 E28.39525
G1 X97.639 Y117.35 E28.40637
G1 X97.639 Y117.921 E28.43296
G1 X98.65 Y118.248 E28.48244
G1 X98.65 Y118.6 E28.49883
G1 X102.23 Y118.6 E28.66553
G0 F6000 X101.95 Y118.089
;TYPE:WALL-OUTER
G1 F1200 X102.212 Y118.174 E28.67836
G1 X103.2 Y116.815 E28.75659
G1 X103.2 Y59.185 E31.44009
G1 X102.212 Y57.826 E31.51832
G1 X101.95 Y57.912 E31.53116
G1 X101.95 Y57.8 E31.53638
G1 X99.05 Y57.8 E31.67142
G1 X99.05 Y58.042 E31.68268
G1 X98.039 Y58.37 E31.73218
G1 X98.039 Y59.05 E31.76384
G1 X97.8 Y59.05 E31.77497
G1 X97.8 Y116.95 E34.47103
G1 X98.039 Y116.95 E34.48216
G1 X98.039 Y117.63 E34.51383
G1 X99.05 Y117.958 E34.56332
G1 X99.05 Y118.2 E34.57459
G1 X101.95 Y118.2 E34.70962
G1 X101.95 Y118.089 E34.71479
G1 F2400 E28.71479
G0 F6000 X101.95 Y118.5
G0 X102.265 Y118.453
G0 X103.791 Y117.007
G0 X102.337 Y116.534
G0 X114.661 Y116.937
G0 X113.21 Y117.007
G0 X113.711 Y118.004
G0 X114.322 Y118.428
G0 X116.502 Y118.6
;TYPE:WALL-INNER
G1 F2400 E34.71479
G1 F1200 X116.711 Y118.668 E34.72503
G1 X117.6 Y117.445 E34.79543
G1 X117.6 Y58.555 E37.5376
G1 X116.85 Y57.522 E37.59704
G1 X116.85 Y57.4 E37.60272
G1 X116.762 Y57.4 E37.60682
G1 X116.713 Y57.333 E37.61068
G1 X116.503 Y57.4 E37.61864
G1 X114.15 Y57.4 E37.72821
G1 X114.15 Y57.677 E37.74111
G1 X113.543 Y57.873 E37.77081
G1 X113.543 Y58.15 E37.78371
G1 X113.4 Y58.15 E37.79037
G1 X113.4 Y117.85 E40.57025
G1 X113.543 Y117.85 E40.57691
G1 X113.543 Y118.127 E40.58981
G1 X114.15 Y118.323 E40.61951
G1 X114.15 Y118.6 E40.63241
G1 X116.502 Y118.6 E40.74192
G0 F6000 X116.429 Y118.156
;TYPE:WALL-OUTER
G1 F1200 X116.558 Y118.198 E40.74824
G1 X117.2 Y117.315 E40.79908
G1 X117.2 Y58.685 E43.52914
G1 X116.559 Y57.802 E43.57994
G1 X116.45 Y57.837 E43.58527
G1 X116.45 Y57.8 E43.587
G1 X114.55 Y57.8 E43.67547
G1 X114.55 Y57.967 E43.68324
G1 X113.943 Y58.164 E43.71296
G1 X113.943 Y58.55 E43.73093
G1 X113.8 Y58.55 E43.73759
G1 X113.8 Y117.45 E46.48022
G1 X113.943 Y117.45 E46.48688
G1 X113.943 Y117.836 E46.50486
G1 X114.55 Y118.033 E46.53457
G1 X114.55 Y118.2 E46.54235
G1 X116.422 Y118.2 E46.62952
G1 X116.429 Y118.156 E46.63159
G1 F2400 E40.63159
G0 F6000 X116.429 Y118.5
G0 X116.785 Y118.896
G0 X116.113 Y117.337
G0 X125.035 Y134.076
G0 X125.346 Y136.06
G0 X131.327 Y147.337
G0 X132.142 Y147.41
G0 X139.034 Y160.337
G0 X139.304 Y163.97
G0 X139.766 Y165.338
;TYPE:WALL-INNER
G1 F2400 E46.63159
G1 F1200 X140.169 Y165.564 E46.65311
G1 X140.631 Y165.608 E46.67472
G1 X141.068 Y165.459 E46.69621
G1 X141.403 Y165.155 E46.71728
G1 X141.589 Y164.731 E46.73884
G1 X141.589 Y164.269 E46.76035
G1 X141.4 Y163.841 E46.78214
G1 X141.045 Y163.528 E46.80417
G1 X140.602 Y163.389 E46.82579
G1 X140.144 Y163.444 E46.84727
G1 X139.753 Y163.673 E46.86837
G1 X139.482 Y164.049 E46.88996
G1 X139.387 Y164.5 E46.91142
G1 X139.482 Y164.956 E46.93311
G1 X139.766 Y165.338 E46.95527
G0 F6000 X140.036 Y165.031
;TYPE:WALL-OUTER
G1 F1200 X140.291 Y165.174 E46.96888
G1 X140.583 Y165.202 E46.98254
G1 X140.86 Y165.107 E46.99618
G1 X141.071 Y164.916 E47.00943
G1 X141.189 Y164.647 E47.02311
G1 X141.189 Y164.353 E47.0368
G1 X141.07 Y164.083 E47.05054
G1 X140.844 Y163.884 E47.06456
G1 X140.564 Y163.796 E47.07823
G1 X140.274 Y163.831 E47.09183
G1 X140.028 Y163.975 E47.1051
G1 X139.856 Y164.214 E47.11881
G1 X139.796 Y164.5 E47.13242
G1 X139.856 Y164.788 E47.14612
G1 X140.036 Y165.031 E47.1602
G0 F6000 X139.746 Y165.361
G1 F2400 E41.1602
G0 F6000 X139.192 Y164.5
G0 X139.034 Y160.337
G0 X116.337 Y161.034
G0 X117.791 Y161.507
G0 X116.502 Y162.6
;TYPE:WALL-INNER
G1 F2400 E47.1602
G1 F1200 X116.711 Y162.668 E47.17043
G1 X117.6 Y161.445 E47.24084
G1 X117.6 Y144.555 E48.02731
G1 X116.85 Y143.522 E48.08675
G1 X116.85 Y143.4 E48.09243
G1 X116.762 Y143.4 E48.09653
G1 X116.713 Y143.333 E48.10039
G1 X116.503 Y143.4 E48.10836
G1 X114.15 Y143.4 E48.21792
G1 X114.15 Y143.677 E48.23082
G1 X113.543 Y143.873 E48.26052
G1 X113.543 Y144.15 E48.27342
G1 X113.4 Y144.15 E48.28008
G1 X113.4 Y161.85 E49.10426
G1 X113.543 Y161.85 E49.11092
G1 X113.543 Y162.127 E49.12382
G1 X114.15 Y162.323 E49.15352
G1 X114.15 Y162.6 E49.16642
G1 X116.502 Y162.6 E49.27594
G0 F6000 X116.429 Y162.156
;TYPE:WALL-OUTER
G1 F1200 X116.558 Y162.198 E49.28226
G1 X117.2 Y161.315 E49.33309
G1 X117.2 Y144.685 E50.10745
G1 X116.559 Y143.802 E50.15826
G1 X116.45 Y143.837 E50.16359
G1 X116.45 Y143.8 E50.16532
G1 X114.55 Y143.8 E50.25379
G1 X114.55 Y143.967 E50.26156
G1 X113.943 Y144.164 E50.29128
G1 X113.943 Y144.55 E50.30925
G1 X113.8 Y144.55 E50.31591
G1 X113.8 Y161.45 E51.10285
G1 X113.943 Y161.45 E51.10951
G1 X113.943 Y161.836 E51.12748
G1 X114.55 Y162.033 E51.1572
G1 X114.55 Y162.2 E51.16497
G1 X116.422 Y162.2 E51.25214
G1 X116.429 Y162.156 E51.25421
G1 F2400 E45.25421
G0 F6000 X116.429 Y162.5
G0 X117.358 Y161.5
G0 X117.79 Y160.503
G0 X119.106 Y160.787
G0 X119.4 Y160.503
;TYPE:WALL-INNER
G1 F2400 E51.25421
G1 F1200 X119.333 Y160.713 E51.26448
G1 X119.4 Y160.762 E51.26834
G1 X119.4 Y160.85 E51.27244
G1 X119.522 Y160.85 E51.27583
G1 X120.555 Y161.6 E51.33527
G1 X139.445 Y161.6 E52.21487
G1 X140.477 Y160.85 E52.27427
G1 X140.6 Y160.85 E52.28
G1 X140.6 Y160.761 E52.28414
G1 X140.656 Y160.72 E52.28737
G1 X140.6 Y160.526 E52.29438
G1 X140.6 Y158.15 E52.40501
G1 X140.323 Y158.15 E52.41791
G1 X140.127 Y157.543 E52.44761
G1 X139.85 Y157.543 E52.46051
G1 X139.85 Y157.4 E52.46717
G1 X120.15 Y157.4 E53.38449
G1 X120.15 Y157.543 E53.39114
G1 X119.873 Y157.543 E53.40404
G1 X119.677 Y158.15 E53.43374
G1 X119.4 Y158.15 E53.44664
G1 X119.4 Y160.503 E53.55591
G0 F6000 X119.837 Y160.45
;TYPE:WALL-OUTER
G1 F1200 X119.802 Y160.559 E53.56124
G1 X120.685 Y161.2 E53.61205
G1 X139.315 Y161.2 E54.47954
G1 X140.194 Y160.561 E54.53014
G1 X140.162 Y160.45 E54.53552
G1 X140.2 Y160.45 E54.53729
G1 X140.2 Y158.55 E54.62576
G1 X140.033 Y158.55 E54.63354
G1 X139.836 Y157.943 E54.66325
G1 X139.45 Y157.943 E54.68123
G1 X139.45 Y157.8 E54.68789
G1 X120.55 Y157.8 E55.56795
G1 X120.55 Y157.943 E55.57461
G1 X120.164 Y157.943 E55.59258
G1 X119.967 Y158.55 E55.6223
G1 X119.8 Y158.55 E55.63007
G1 X119.8 Y160.45 E55.71854
G1 X119.837 Y160.45 E55.72027
G1 F2400 E49.72027
G0 F6000 X119.5 Y160.45
G0 X119.572 Y158.322
G0 X119.996 Y157.711
G0 X120.259 Y157.599
G0 X131.014 Y157.21
G0 X131.014 Y158.665
G0 X131.327 Y147.337
G0 X131.014 Y148.79
G0 X131.014 Y148.6
;TYPE:WALL-INNER
G1 F2400 E55.72027
G1 F1200 X132.986 Y148.6 E55.81209
G1 X134.849 Y147.605 E55.91044
G1 X136.493 Y145.764 E56.02537
G1 X137.902 Y143.191 E56.16197
G1 X139.049 Y139.989 E56.32034
G1 X139.899 Y136.286 E56.49725
G1 X140.423 Y132.232 E56.68759
G1 X140.6 Y128 E56.88483
G1 X140.423 Y123.768 E57.08206
G1 X139.899 Y119.714 E57.2724
G1 X139.049 Y116.011 E57.44931
G1 X137.902 Y112.809 E57.60769
G1 X136.493 Y110.236 E57.74429
G1 X134.849 Y108.395 E57.85922
G1 X132.986 Y107.4 E57.95756
G1 X131.014 Y107.4 E58.04939
G1 X129.151 Y108.395 E58.14773
G1 X127.507 Y110.236 E58.26266
G1 X126.098 Y112.809 E58.39926
G1 X124.951 Y116.011 E58.55764
G1 X124.101 Y119.714 E58.73455
G1 X123.577 Y123.768 E58.92489
G1 X123.4 Y128 E59.12212
G1 X123.577 Y132.232 E59.31935
G1 X124.101 Y136.286 E59.50969
G1 X124.951 Y139.989 E59.68661
G1 X126.098 Y143.191 E59.84498
G1 X127.507 Y145.764 E59.98158
G1 X129.151 Y147.605 E60.09651
G1 X131.014 Y148.6 E60.19485
G0 F6000 X131.114 Y148.2
;TYPE:WALL-OUTER
G1 F1200 X132.886 Y148.2 E60.27737
G1 X134.598 Y147.286 E60.36773
G1 X136.164 Y145.532 E60.47722
G1 X137.536 Y143.027 E60.61022
G1 X138.664 Y139.876 E60.76606
G1 X139.505 Y136.215 E60.94097
G1 X140.024 Y132.198 E61.12957
G1 X140.2 Y128 E61.32522
G1 X140.024 Y123.802 E61.52087
G1 X139.505 Y119.785 E61.70947
G1 X138.664 Y116.124 E61.88438
G1 X137.536 Y112.973 E62.04023
G1 X136.164 Y110.468 E62.17322
G1 X134.598 Y108.714 E62.28271
G1 X132.886 Y107.8 E62.37307
G1 X131.114 Y107.8 E62.45559
G1 X129.402 Y108.714 E62.54595
G1 X127.836 Y110.468 E62.65544
G1 X126.464 Y112.973 E62.78844
G1 X125.336 Y116.124 E62.94428
G1 X124.495 Y119.785 E63.11919
G1 X123.976 Y123.802 E63.30779
G1 X123.8 Y128 E63.50344
