;FLAVOR:Marlin
;TIME:17996
;Filament used: 6.81043m
;Layer height: 0.12
;MINX:62
;MINY:39
;MINZ:0.12
;MAXX:158
;MAXY:181
;MAXZ:15.96
;Generated with Creality Slicer 4.8.2-191
M140 S50
M105
M190 S50
M104 S200
M105
M109 S200
M82 ;absolute extrusion mode

G28 ;Home

G92 E0 ;Reset Extruder
G1 Z2.0 F3000 ;Move Z Axis up
G1 X10.1 Y20 Z0.28 F5000.0 ;Move to start position
G1 X10.1 Y200.0 Z0.28 F1500.0 E15 ;Draw the first line
G1 X10.4 Y200.0 Z0.28 F5000.0 ;Move to side a little
G1 X10.4 Y20 Z0.28 F1500.0 E30 ;Draw the second line
G92 E0 ;Reset Extruder
G1 Z2.0 F3000 ;Move Z Axis up

G92 E0
G92 E0
G1 F2700 E-5
;LAYER_COUNT:133
;LAYER:0
M107
G0 F6000 X64.827 Y45.306 Z0.12
;TYPE:SKIRT
G1 F2700 E0
G1 F1200 X65.376 Y44.545 E0.01873
G1 X65.987 Y43.835 E0.03742
G1 X66.657 Y43.178 E0.05615
G1 X67.621 Y42.405 E0.0808
G1 X68.393 Y41.856 E0.09971
G1 X68.902 Y41.507 E0.11202
G1 X69.482 Y41.12 E0.12594
G1 X70.283 Y40.633 E0.14465
G1 X71.123 Y40.216 E0.16336
G1 X71.996 Y39.873 E0.18208
G1 X72.895 Y39.605 E0.2008
G1 X73.437 Y39.482 E0.21189
G1 X74.049 Y39.36 E0.22434
G1 X74.343 Y39.306 E0.23031
G1 X75.155 Y39.167 E0.24675
G1 X76.085 Y39.048 E0.26546
G1 X76.701 Y39.013 E0.27777
G1 X77.02 Y39.004 E0.28414
G1 X77.33 Y39 E0.29033
G1 X142.293 Y39 E1.58674
G1 X143.155 Y39.011 E1.60394
G1 X143.546 Y39.023 E1.61175
G1 X143.837 Y39.039 E1.61756
G1 X144.208 Y39.064 E1.62498
G1 X145.14 Y39.167 E1.64369
G1 X146.06 Y39.349 E1.66241
G1 X147.192 Y39.688 E1.68599
G1 X148.13 Y40.027 E1.7059
G1 X148.516 Y40.173 E1.71413
G1 X149.317 Y40.49 E1.73132
G1 X150.173 Y40.872 E1.75003
G1 X150.994 Y41.326 E1.76875
G1 X151.773 Y41.849 E1.78747
G1 X152.504 Y42.436 E1.80618
G1 X153.378 Y43.29 E1.83057
G1 X153.971 Y43.94 E1.84813
G1 X154.405 Y44.431 E1.86121
G1 X154.858 Y44.956 E1.87504
G1 X155.44 Y45.691 E1.89375
G1 X155.957 Y46.474 E1.91248
G1 X156.406 Y47.298 E1.9312
G1 X156.783 Y48.156 E1.94991
G1 X157.169 Y49.348 E1.97491
G1 X157.407 Y50.259 E1.9937
G1 X157.545 Y50.821 E2.00525
G1 X157.705 Y51.51 E2.01936
G1 X157.878 Y52.432 E2.03808
G1 X157.986 Y53.692 E2.06332
G1 X157.996 Y54.051 E2.07049
G1 X158 Y54.357 E2.0766
G1 X157.999 Y165.427 E4.29312
G1 X157.989 Y166.147 E4.30749
G1 X157.936 Y167.083 E4.3262
G1 X157.76 Y168.232 E4.34939
G1 X157.691 Y168.564 E4.35616
G1 X157.597 Y168.977 E4.36461
G1 X157.346 Y169.983 E4.3853
G1 X157.176 Y170.633 E4.39871
G1 X156.9 Y171.53 E4.41744
G1 X156.549 Y172.399 E4.43614
G1 X156.125 Y173.236 E4.45487
G1 X155.632 Y174.033 E4.47357
G1 X154.881 Y175.015 E4.49824
G1 X154.262 Y175.734 E4.51717
G1 X153.845 Y176.202 E4.52968
G1 X153.409 Y176.68 E4.54259
G1 X152.773 Y177.323 E4.56064
G1 X152.06 Y177.933 E4.57937
G1 X151.299 Y178.48 E4.59807
G1 X150.493 Y178.96 E4.61679
G1 X149.321 Y179.507 E4.6426
G1 X148.454 Y179.849 E4.6612
G1 X147.941 Y180.043 E4.67215
G1 X147.24 Y180.298 E4.68703
G1 X146.346 Y180.581 E4.70575
G1 X145.431 Y180.787 E4.72446
G1 X144.548 Y180.909 E4.74225
G1 X144.069 Y180.949 E4.75184
G1 X143.758 Y180.968 E4.75806
G1 X143.403 Y180.983 E4.76515
G1 X142.986 Y180.995 E4.77348
G1 X142.67 Y181 E4.77978
G1 X77.55 Y180.999 E6.07932
G1 X76.848 Y180.989 E6.09333
G1 X75.912 Y180.936 E6.11204
G1 X74.998 Y180.805 E6.13047
G1 X73.967 Y180.622 E6.15137
G1 X73.485 Y180.528 E6.16117
G1 X72.573 Y180.309 E6.17988
G1 X71.683 Y180.014 E6.19859
G1 X70.822 Y179.643 E6.2173
G1 X69.995 Y179.201 E6.23602
G1 X69.483 Y178.879 E6.24809
G1 X68.668 Y178.333 E6.26766
G1 X68.234 Y178.032 E6.2782
G1 X67.657 Y177.623 E6.29232
G1 X66.915 Y177.049 E6.31104
G1 X66.226 Y176.413 E6.32975
G1 X65.593 Y175.721 E6.34847
G1 X65.021 Y174.978 E6.36718
G1 X64.358 Y173.911 E6.39225
G1 X63.882 Y173.034 E6.41216
G1 X63.618 Y172.527 E6.42357
G1 X63.306 Y171.909 E6.43738
G1 X62.92 Y171.055 E6.45609
G1 X62.607 Y170.171 E6.4748
G1 X62.371 Y169.263 E6.49352
G1 X62.22 Y168.39 E6.5112
G1 X62.137 Y167.745 E6.52418
G1 X62.078 Y167.222 E6.53468
G1 X62.013 Y166.293 E6.55327
G1 X62.004 Y165.967 E6.55978
G1 X62 Y165.663 E6.56584
G1 X62.001 Y54.549 E8.78324
G1 X62.011 Y53.852 E8.79715
G1 X62.058 Y52.988 E8.81442
G1 X62.079 Y52.763 E8.81893
G1 X62.12 Y52.391 E8.8264
G1 X62.212 Y51.671 E8.84089
G1 X62.454 Y50.385 E8.867
G1 X62.72 Y49.486 E8.88571
G1 X63.062 Y48.612 E8.90444
G1 X63.305 Y48.097 E8.9158
G1 X63.688 Y47.338 E8.93277
G1 X64.008 Y46.729 E8.9465
G1 X64.344 Y46.11 E8.96055
G1 X64.827 Y45.306 E8.97927
G0 F6000 X65.17 Y45.512
G1 F1200 X65.711 Y44.767 E8.99764
G1 X66.314 Y44.071 E9.01602
G1 X66.975 Y43.431 E9.03438
G1 X67.853 Y42.731 E9.05679
G1 X68.62 Y42.185 E9.07558
G1 X69.124 Y41.84 E9.08777
G1 X69.704 Y41.453 E9.10168
G1 X70.491 Y40.975 E9.12006
G1 X71.317 Y40.568 E9.13843
G1 X72.175 Y40.234 E9.15681
G1 X73.058 Y39.976 E9.17517
G1 X73.515 Y39.875 E9.18451
G1 X74.127 Y39.753 E9.19696
G1 X74.41 Y39.7 E9.2027
G1 X75.222 Y39.561 E9.21914
G1 X76.136 Y39.445 E9.23753
G1 X76.712 Y39.413 E9.24904
G1 X77.031 Y39.404 E9.25541
G1 X77.33 Y39.4 E9.26138
G1 X142.293 Y39.4 E10.55779
G1 X143.149 Y39.411 E10.57487
G1 X143.529 Y39.423 E10.58246
G1 X143.81 Y39.438 E10.58807
G1 X144.181 Y39.463 E10.59549
G1 X145.096 Y39.565 E10.61387
G1 X145.998 Y39.745 E10.63222
G1 X147.056 Y40.065 E10.65428
G1 X147.988 Y40.402 E10.67406
G1 X148.531 Y40.608 E10.68565
G1 X149.169 Y40.861 E10.69934
G1 X150.01 Y41.238 E10.71774
G1 X150.814 Y41.685 E10.73609
G1 X151.577 Y42.201 E10.75447
G1 X152.292 Y42.781 E10.77285
G1 X153.083 Y43.56 E10.795
G1 X153.672 Y44.206 E10.81245
G1 X154.102 Y44.692 E10.8254
G1 X154.555 Y45.217 E10.83924
G1 X155.126 Y45.94 E10.85762
G1 X155.632 Y46.709 E10.87599
G1 X156.069 Y47.519 E10.89436
G1 X156.434 Y48.364 E10.91273
G1 X156.782 Y49.45 E10.93549
G1 X157.019 Y50.354 E10.95414
G1 X157.155 Y50.911 E10.96558
G1 X157.315 Y51.6 E10.97969
G1 X157.484 Y52.505 E10.99807
G1 X157.586 Y53.703 E11.02206
G1 X157.596 Y54.062 E11.02923
G1 X157.6 Y54.357 E11.03511
G1 X157.599 Y165.421 E13.25152
G1 X157.589 Y166.141 E13.26589
G1 X157.536 Y167.06 E13.28426
G1 X157.368 Y168.151 E13.30628
G1 X157.299 Y168.483 E13.31305
G1 X157.209 Y168.88 E13.32118
G1 X156.959 Y169.882 E13.34178
G1 X156.789 Y170.532 E13.35519
G1 X156.518 Y171.412 E13.37357
G1 X156.171 Y172.265 E13.39194
G1 X155.752 Y173.084 E13.4103
G1 X155.263 Y173.864 E13.42867
G1 X154.577 Y174.754 E13.4511
G1 X153.962 Y175.468 E13.4699
G1 X153.549 Y175.932 E13.4823
G1 X153.113 Y176.41 E13.49521
G1 X152.5 Y177.03 E13.51261
G1 X151.8 Y177.629 E13.531
G1 X151.051 Y178.164 E13.54937
G1 X150.258 Y178.632 E13.56774
G1 X149.173 Y179.135 E13.59161
G1 X148.312 Y179.476 E13.61009
G1 X147.805 Y179.667 E13.6209
G1 X147.104 Y179.922 E13.63579
G1 X146.226 Y180.199 E13.65416
G1 X145.327 Y180.399 E13.67254
G1 X144.509 Y180.511 E13.68901
G1 X144.044 Y180.549 E13.69832
G1 X143.733 Y180.568 E13.70454
G1 X143.392 Y180.584 E13.71136
G1 X142.975 Y180.596 E13.71968
G1 X142.67 Y180.6 E13.72577
G1 X77.556 Y180.599 E15.02519
G1 X76.854 Y180.589 E15.0392
G1 X75.935 Y180.536 E15.05757
G1 X75.071 Y180.412 E15.07499
G1 X74.044 Y180.229 E15.0958
G1 X73.562 Y180.135 E15.1056
G1 X72.667 Y179.92 E15.12397
G1 X71.794 Y179.628 E15.14234
G1 X70.949 Y179.261 E15.16073
G1 X70.14 Y178.822 E15.1791
G1 X69.705 Y178.547 E15.18937
G1 X69.04 Y178.103 E15.20532
G1 X68.465 Y177.706 E15.21927
G1 X67.888 Y177.297 E15.23338
G1 X67.161 Y176.732 E15.25176
G1 X66.485 Y176.107 E15.27013
G1 X65.867 Y175.425 E15.2885
G1 X65.309 Y174.692 E15.30688
G1 X64.709 Y173.719 E15.32969
G1 X64.237 Y172.849 E15.34944
G1 X63.976 Y172.347 E15.36074
G1 X63.664 Y171.729 E15.37455
G1 X63.285 Y170.89 E15.39292
G1 X62.98 Y170.021 E15.4113
G1 X62.752 Y169.129 E15.42967
G1 X62.617 Y168.337 E15.44571
G1 X62.535 Y167.7 E15.45852
G1 X62.476 Y167.177 E15.46903
G1 X62.413 Y166.282 E15.48693
G1 X62.404 Y165.956 E15.49344
G1 X62.4 Y165.663 E15.49929
G1 X62.401 Y54.555 E17.71657
G1 X62.411 Y53.858 E17.73048
G1 X62.456 Y53.025 E17.74713
G1 X62.477 Y52.8 E17.75164
G1 X62.516 Y52.441 E17.75884
G1 X62.608 Y51.721 E17.77333
G1 X62.842 Y50.482 E17.79849
G1 X63.104 Y49.599 E17.81687
G1 X63.442 Y48.743 E17.83524
G1 X63.663 Y48.278 E17.84551
G1 X64.131 Y47.353 E17.8662
G1 X64.36 Y46.92 E17.87597
G1 X64.696 Y46.301 E17.89003
G1 X65.17 Y45.512 E17.9084
G0 F6000 X65.513 Y45.718
G1 F1200 X66.045 Y44.988 E17.92642
G1 X66.64 Y44.309 E17.94444
G1 X67.292 Y43.684 E17.96246
G1 X68.086 Y43.056 E17.98267
G1 X68.708 Y42.612 E17.99792
G1 X69.346 Y42.172 E18.01338
G1 X69.926 Y41.785 E18.0273
G1 X70.698 Y41.318 E18.0453
G1 X71.509 Y40.921 E18.06332
G1 X72.352 Y40.596 E18.08135
G1 X73.593 Y40.267 E18.10697
G1 X74.205 Y40.145 E18.11943
G1 X74.478 Y40.094 E18.12497
G1 X75.29 Y39.955 E18.14141
G1 X76.186 Y39.842 E18.15943
G1 X76.723 Y39.813 E18.17016
G1 X77.042 Y39.804 E18.17653
G1 X77.33 Y39.8 E18.18228
G1 X142.293 Y39.8 E19.47869
G1 X143.143 Y39.811 E19.49565
G1 X143.513 Y39.822 E19.50304
G1 X143.783 Y39.837 E19.50844
G1 X144.154 Y39.862 E19.51586
G1 X145.051 Y39.963 E19.53387
G1 X145.936 Y40.142 E19.55189
G1 X146.921 Y40.441 E19.57243
G1 X147.691 Y40.718 E19.58876
G1 X148.384 Y40.98 E19.60355
G1 X149.022 Y41.233 E19.61724
G1 X149.846 Y41.603 E19.63527
G1 X150.634 Y42.044 E19.65329
G1 X151.38 Y42.553 E19.67131
G1 X152.078 Y43.127 E19.68935
G1 X152.788 Y43.83 E19.70928
G1 X153.373 Y44.472 E19.72662
G1 X153.8 Y44.954 E19.73947
G1 X154.253 Y45.479 E19.75331
G1 X154.812 Y46.188 E19.77132
G1 X155.306 Y46.944 E19.78935
G1 X155.731 Y47.74 E19.80735
G1 X156.085 Y48.571 E19.82538
G1 X156.396 Y49.551 E19.8459
G1 X156.594 Y50.305 E19.86145
G1 X156.766 Y51.002 E19.87578
G1 X156.926 Y51.691 E19.8899
G1 X157.091 Y52.579 E19.90792
G1 X157.186 Y53.714 E19.93065
G1 X157.196 Y54.073 E19.93782
G1 X157.2 Y54.357 E19.94348
G1 X157.199 Y165.416 E22.15979
G1 X157.189 Y166.136 E22.17416
G1 X157.137 Y167.037 E22.19217
G1 X156.977 Y168.07 E22.21303
G1 X156.908 Y168.402 E22.21979
G1 X156.82 Y168.784 E22.22762
G1 X156.572 Y169.781 E22.24812
G1 X156.402 Y170.431 E22.26153
G1 X156.135 Y171.294 E22.27956
G1 X155.793 Y172.129 E22.29756
G1 X155.378 Y172.932 E22.3156
G1 X154.894 Y173.694 E22.33362
G1 X154.274 Y174.494 E22.35381
G1 X153.771 Y175.08 E22.36922
G1 X153.254 Y175.663 E22.38477
G1 X152.818 Y176.141 E22.39769
G1 X152.227 Y176.738 E22.41445
G1 X151.54 Y177.324 E22.43247
G1 X150.804 Y177.847 E22.45049
G1 X150.024 Y178.304 E22.46853
G1 X149.026 Y178.763 E22.49045
G1 X148.169 Y179.102 E22.50884
G1 X147.668 Y179.291 E22.51953
G1 X146.967 Y179.546 E22.53441
G1 X146.105 Y179.817 E22.55245
G1 X145.223 Y180.011 E22.57047
G1 X144.47 Y180.113 E22.58563
G1 X144.02 Y180.15 E22.59464
G1 X143.709 Y180.169 E22.60086
G1 X143.38 Y180.184 E22.60743
G1 X142.963 Y180.196 E22.61576
G1 X142.67 Y180.2 E22.62161
G1 X77.562 Y180.199 E23.92091
G1 X76.86 Y180.189 E23.93492
G1 X75.958 Y180.136 E23.95295
G1 X75.144 Y180.019 E23.96936
G1 X74.121 Y179.836 E23.9901
G1 X73.639 Y179.742 E23.9999
G1 X72.761 Y179.53 E24.01792
G1 X71.905 Y179.242 E24.03595
G1 X71.078 Y178.878 E24.05398
G1 X69.927 Y178.214 E24.0805
G1 X69.262 Y177.77 E24.09645
G1 X68.696 Y177.379 E24.11018
G1 X68.119 Y176.97 E24.1243
G1 X67.406 Y176.416 E24.14231
G1 X66.745 Y175.801 E24.16033
G1 X66.141 Y175.13 E24.17835
G1 X65.599 Y174.407 E24.19638
G1 X65.061 Y173.528 E24.21695
G1 X64.591 Y172.663 E24.23659
G1 X64.333 Y172.167 E24.24775
G1 X64.021 Y171.549 E24.26157
G1 X63.65 Y170.725 E24.2796
G1 X63.353 Y169.872 E24.29762
G1 X63.133 Y168.997 E24.31563
G1 X63.013 Y168.285 E24.33004
G1 X62.955 Y167.845 E24.33889
G1 X62.873 Y167.132 E24.35322
G1 X62.813 Y166.27 E24.37046
G1 X62.804 Y165.944 E24.37697
G1 X62.8 Y165.663 E24.38258
G1 X62.801 Y54.561 E26.59974
G1 X62.811 Y53.864 E26.61365
G1 X62.854 Y53.062 E26.62968
G1 X62.875 Y52.837 E26.63419
G1 X62.913 Y52.492 E26.64111
G1 X63.005 Y51.772 E26.6556
G1 X63.231 Y50.579 E26.67983
G1 X63.488 Y49.714 E26.69784
G1 X63.821 Y48.874 E26.71587
G1 X64.02 Y48.458 E26.72507
G1 X64.485 Y47.54 E26.74561
G1 X64.712 Y47.111 E26.75529
G1 X65.048 Y46.492 E26.76935
G1 X65.513 Y45.718 E26.78737
G1 F2700 E21.78737
;MESH:top-plate.stl
G0 F6000 X72.347 Y166.653
G0 X72.453 Y167.12
G0 X73.495 Y169.105
G0 X75.34 Y170.379
G0 X76.347 Y170.653
G0 X143.653 Y170.653
G0 X145.66 Y169.854
G0 X147.147 Y168.176
G0 X147.664 Y166.08
G0 X147.665 Y165.224
G0 X142.345 Y165.224
G0 X142.484 Y167.639
;TYPE:WALL-INNER
G1 F2700 E26.78737
G1 F1200 X143.038 Y167.951 E26.80006
G1 X143.67 Y168.018 E26.81274
G1 X144.267 Y167.813 E26.82534
G1 X144.733 Y167.396 E26.83781
G1 X144.989 Y166.815 E26.85048
G1 X144.989 Y166.185 E26.86306
G1 X144.732 Y165.599 E26.87583
G1 X144.254 Y165.179 E26.88852
G1 X143.654 Y164.982 E26.90113
G1 X143.022 Y165.053 E26.91382
G1 X142.477 Y165.369 E26.92639
G1 X142.108 Y165.886 E26.93907
G1 X141.978 Y166.5 E26.95159
G1 X142.108 Y167.117 E26.96417
G1 X142.484 Y167.639 E26.97701
G0 F6000 X142.757 Y167.334
G1 F1200 X143.162 Y167.562 E26.98629
G1 X143.624 Y167.611 E26.99556
G1 X144.061 Y167.461 E27.00478
G1 X144.402 Y167.156 E27.01391
G1 X144.589 Y166.731 E27.02318
G1 X144.589 Y166.269 E27.0324
G1 X144.401 Y165.841 E27.04172
G1 X144.051 Y165.533 E27.05103
G1 X143.612 Y165.389 E27.06025
G1 X143.15 Y165.441 E27.06953
G1 X142.752 Y165.672 E27.07871
G1 X142.482 Y166.05 E27.08798
G1 X142.387 Y166.5 E27.09716
G1 X142.482 Y166.952 E27.10637
G1 X142.757 Y167.334 E27.11577
G0 F6000 X143.03 Y167.029
;TYPE:WALL-OUTER
G1 F1200 X143.286 Y167.173 E27.12163
G1 X143.578 Y167.204 E27.12749
G1 X143.855 Y167.109 E27.13333
G1 X144.071 Y166.916 E27.13911
G1 X144.189 Y166.647 E27.14498
G1 X144.189 Y166.353 E27.15084
G1 X144.07 Y166.083 E27.15673
G1 X143.848 Y165.887 E27.16264
G1 X143.57 Y165.796 E27.16848
G1 X143.278 Y165.829 E27.17434
G1 X143.027 Y165.975 E27.18014
G1 X142.856 Y166.214 E27.186
G1 X142.796 Y166.5 E27.19183
G1 X142.856 Y166.787 E27.19768
G1 X143.03 Y167.029 E27.20363
G0 F6000 X142.737 Y167.356
G1 F2700 E22.20363
G0 F6000 X141.93 Y165.808
G0 X141.93 Y170.665
G0 X128.772 Y158.401
G0 X122.965 Y158.337
G0 X123.364 Y156.654
G0 X126.836 Y156.597
G0 X118.404 Y148.738
G0 X118.337 Y147.965
G0 X117.602 Y148.003
G0 X117.597 Y147.653
G0 X117.179 Y147.597
G0 X108.404 Y139.419
G0 X108.337 Y144.035
G0 X106.796 Y143.597
G0 X106.594 Y137.732
G0 X98.404 Y130.099
G0 X98.337 Y125.965
G0 X96.654 Y126.36
G0 X96.595 Y128.412
G0 X87.337 Y119.785
G0 X89.172 Y120.381
G0 X87.305 Y122
;TYPE:WALL-INNER
G1 F2700 E27.20363
G1 F1200 X87.415 Y122.035 E27.20594
G1 X87.692 Y122.126 E27.21175
G1 X89 Y120.325 E27.25617
G1 X89 Y61.675 E28.4266
G1 X87.688 Y59.872 E28.4711
G1 X87.298 Y60 E28.47929
G1 X84.02 Y60 E28.5447
G1 X84.012 Y60.419 E28.55307
G1 X83.191 Y60.685 E28.57029
G1 X83.191 Y61 E28.57658
G1 X83 Y61 E28.58039
G1 X83 Y121 E29.77775
G1 X83.191 Y121 E29.78156
G1 X83.191 Y121.315 E29.78785
G1 X84 Y121.577 E29.80482
G1 X84 Y122 E29.81326
G1 X87.305 Y122 E29.87922
G0 F6000 X87.367 Y121.6
G1 F1200 X87.539 Y121.656 E29.88283
G1 X88.6 Y120.195 E29.91886
G1 X88.6 Y61.805 E31.0841
G1 X87.536 Y60.343 E31.12018
G1 X87.362 Y60.4 E31.12383
G1 X84.412 Y60.4 E31.1827
G1 X84.406 Y60.712 E31.18893
G1 X83.591 Y60.976 E31.20603
G1 X83.591 Y61.4 E31.21449
G1 X83.4 Y61.4 E31.2183
G1 X83.4 Y120.6 E32.3997
G1 X83.591 Y120.6 E32.40351
G1 X83.591 Y121.024 E32.41197
G1 X84.4 Y121.286 E32.42894
G1 X84.4 Y121.6 E32.43521
G1 X87.367 Y121.6 E32.49442
G0 F6000 X87.195 Y121.124
;TYPE:WALL-OUTER
G1 F1200 X87.386 Y121.186 E32.49843
G1 X88.2 Y120.065 E32.52607
G1 X88.2 Y61.935 E33.68612
G1 X87.384 Y60.814 E33.71379
G1 X87.188 Y60.878 E33.7179
G1 X87.184 Y60.8 E33.71946
G1 X84.804 Y60.8 E33.76696
G1 X84.8 Y61.004 E33.77103
G1 X83.991 Y61.267 E33.78801
G1 X83.991 Y61.8 E33.79864
G1 X83.8 Y61.8 E33.80246
G1 X83.8 Y120.2 E34.96789
G1 X83.991 Y120.2 E34.9717
G1 X83.991 Y120.733 E34.98234
G1 X84.8 Y120.996 E34.99931
G1 X84.8 Y121.2 E35.00339
G1 X87.192 Y121.2 E35.05112
G1 X87.195 Y121.124 E35.05264
G1 F2700 E30.05264
G0 F6000 X87.195 Y121.5
G0 X84.572 Y121.428
G0 X83.759 Y120.901
G0 X83.591 Y120.476
G0 X82.83 Y101.977
G0 X84.665 Y101.977
G0 X72.335 Y55.981
G0 X78.365 Y55.981
G0 X77.67 Y56.018
;TYPE:WALL-INNER
G1 F2700 E35.05264
G1 F1200 X78.267 Y55.813 E35.06524
G1 X78.733 Y55.396 E35.07771
G1 X78.989 Y54.815 E35.09038
G1 X78.989 Y54.185 E35.10296
G1 X78.732 Y53.599 E35.11573
