;FLAVOR:Marlin
;TIME:7590
;Filament used: 6.74944m
;Layer height: 0.28
;MINX:61
;MINY:37
;MINZ:0.28
;MAXX:159
;MAXY:183
;MAXZ:15.96
;Generated with Creality Slicer 4.8.2-191
M140 S50
M105
M190 S50
M104 S200
M105
M109 S200
M82 ;absolute extrusion mode

G28 ;Home

G92 E0 ;Reset Extruder
G1 Z2.0 F3000 ;Move Z Axis up
G1 X10.1 Y20 Z0.28 F5000.0 ;Move to start position
G1 X10.1 Y200.0 Z0.28 F1500.0 E15 ;Draw the first line
G1 X10.4 Y200.0 Z0.28 F5000.0 ;Move to side a little
G1 X10.4 Y20 Z0.28 F1500.0 E30 ;Draw the second line
G92 E0 ;Reset Extruder
G1 Z2.0 F3000 ;Move Z Axis up

G92 E0
G92 E0
G1 F2700 E-5
;LAYER_COUNT:57
;LAYER:0
M107
G0 F6000 X64.631 Y44.923 Z0.28
;TYPE:SKIRT
G1 F2700 E0
G1 F1200 X65.055 Y44.327 E0.03406
G1 X65.631 Y43.587 E0.07772
G1 X66.478 Y42.695 E0.135
G1 X66.734 Y42.454 E0.15137
G1 X66.976 Y42.233 E0.16663
G1 X67.744 Y41.554 E0.21437
G1 X68.303 Y41.074 E0.24868
G1 X69.04 Y40.493 E0.29237
G1 X70.112 Y39.812 E0.35151
G1 X70.433 Y39.633 E0.36863
G1 X70.682 Y39.498 E0.38182
G1 X71.585 Y39.026 E0.42926
G1 X72.179 Y38.724 E0.46029
G1 X73.032 Y38.335 E0.50394
G1 X74.254 Y37.921 E0.56402
G1 X74.593 Y37.828 E0.58039
G1 X74.871 Y37.755 E0.59377
G1 X75.86 Y37.513 E0.64118
G1 X76.566 Y37.35 E0.67492
G1 X77.488 Y37.178 E0.7186
G1 X77.998 Y37.118 E0.74251
G1 X78.493 Y37.078 E0.76563
G1 X79.379 Y37.027 E0.80696
G1 X79.701 Y37.013 E0.82196
G1 X80.02 Y37.004 E0.83682
G1 X80.33 Y37 E0.85126
G1 X139.293 Y37 E3.59682
G1 X140.155 Y37.011 E3.63697
G1 X140.473 Y37.02 E3.65178
G1 X140.821 Y37.035 E3.668
G1 X141.118 Y37.052 E3.68185
G1 X141.73 Y37.095 E3.71042
G1 X142.662 Y37.201 E3.7541
G1 X143.246 Y37.308 E3.78174
G1 X143.613 Y37.386 E3.79921
G1 X143.976 Y37.47 E3.81656
G1 X144.955 Y37.714 E3.86354
G1 X145.609 Y37.885 E3.89502
G1 X146.505 Y38.16 E3.93866
G1 X147.618 Y38.626 E3.99485
G1 X147.93 Y38.777 E4.01099
G1 X148.253 Y38.939 E4.02781
G1 X149.087 Y39.377 E4.07168
G1 X149.811 Y39.771 E4.11006
G1 X150.614 Y40.255 E4.15372
G1 X151.559 Y40.956 E4.20851
G1 X151.757 Y41.12 E4.22048
G1 X152.021 Y41.345 E4.23663
G1 X152.73 Y41.971 E4.28067
G1 X153.388 Y42.57 E4.3221
G1 X154.054 Y43.23 E4.36576
G1 X154.83 Y44.169 E4.42249
G1 X155.013 Y44.417 E4.43684
G1 X155.208 Y44.689 E4.45242
G1 X155.795 Y45.54 E4.50056
G1 X156.217 Y46.17 E4.53587
G1 X156.705 Y46.971 E4.57954
G1 X157.263 Y48.138 E4.63978
G1 X157.494 Y48.71 E4.6685
G1 X157.792 Y49.493 E4.70751
G1 X158.103 Y50.35 E4.74996
G1 X158.383 Y51.245 E4.79363
G1 X158.636 Y52.459 E4.85137
G1 X158.693 Y52.84 E4.86931
G1 X158.734 Y53.144 E4.8836
G1 X158.851 Y54.115 E4.92914
G1 X158.919 Y54.742 E4.9585
G1 X158.981 Y55.736 E5.00488
G1 X159 Y56.9 E5.05909
G1 X158.999 Y163.448 E10.02041
G1 X158.99 Y164.088 E10.05021
G1 X158.934 Y165.056 E10.09536
G1 X158.837 Y166.001 E10.1396
G1 X158.784 Y166.451 E10.16069
G1 X158.658 Y167.39 E10.20481
G1 X158.493 Y168.313 E10.24847
G1 X158.158 Y169.498 E10.30581
G1 X158.064 Y169.771 E10.31926
G1 X157.95 Y170.086 E10.33485
G1 X157.568 Y171.091 E10.38492
G1 X157.306 Y171.754 E10.41811
G1 X156.925 Y172.61 E10.46174
G1 X156.31 Y173.688 E10.51953
G1 X156.143 Y173.946 E10.53384
G1 X155.971 Y174.204 E10.54828
G1 X155.372 Y175.072 E10.59739
G1 X154.947 Y175.67 E10.63155
G1 X154.372 Y176.411 E10.67522
G1 X153.503 Y177.324 E10.73392
G1 X153.248 Y177.563 E10.75019
G1 X153.018 Y177.773 E10.76469
G1 X152.269 Y178.435 E10.81124
G1 X151.713 Y178.914 E10.84541
G1 X150.977 Y179.495 E10.88907
G1 X149.888 Y180.189 E10.9492
G1 X149.565 Y180.369 E10.96642
G1 X149.318 Y180.502 E10.97948
G1 X148.415 Y180.974 E11.02693
G1 X147.821 Y181.276 E11.05796
G1 X146.968 Y181.665 E11.10161
G1 X145.746 Y182.079 E11.16169
G1 X145.407 Y182.172 E11.17806
G1 X145.131 Y182.244 E11.19134
G1 X144.159 Y182.483 E11.23795
G1 X143.442 Y182.649 E11.27222
G1 X142.52 Y182.821 E11.31589
G1 X141.98 Y182.885 E11.34121
G1 X141.507 Y182.922 E11.36331
G1 X140.621 Y182.973 E11.40463
G1 X140.299 Y182.987 E11.41964
G1 X139.98 Y182.996 E11.4345
G1 X139.67 Y183 E11.44893
G1 X80.551 Y182.999 E14.20176
G1 X79.846 Y182.989 E14.23459
G1 X79.53 Y182.98 E14.24931
G1 X79.181 Y182.965 E14.26558
G1 X78.881 Y182.948 E14.27957
G1 X78.27 Y182.905 E14.30809
G1 X77.338 Y182.799 E14.35177
G1 X76.754 Y182.691 E14.37942
G1 X76.338 Y182.603 E14.39922
G1 X76.02 Y182.529 E14.41443
G1 X75.042 Y182.285 E14.46136
G1 X74.385 Y182.113 E14.49299
G1 X73.489 Y181.837 E14.53664
G1 X72.377 Y181.372 E14.59277
G1 X72.059 Y181.218 E14.60922
G1 X71.732 Y181.053 E14.62627
G1 X70.735 Y180.528 E14.67874
G1 X70.184 Y180.227 E14.70798
G1 X69.381 Y179.742 E14.75166
G1 X68.423 Y179.03 E14.80724
G1 X68.197 Y178.842 E14.82093
G1 X67.944 Y178.624 E14.83648
G1 X67.099 Y177.875 E14.88906
G1 X66.597 Y177.416 E14.92073
G1 X65.933 Y176.754 E14.96439
G1 X65.177 Y175.84 E15.01962
G1 X64.995 Y175.594 E15.03387
G1 X64.797 Y175.317 E15.04972
G1 X64.18 Y174.425 E15.10023
G1 X63.776 Y173.82 E15.1341
G1 X63.289 Y173.018 E15.17779
G1 X62.741 Y171.87 E15.23703
G1 X62.507 Y171.291 E15.26611
G1 X62.209 Y170.508 E15.30512
G1 X61.896 Y169.645 E15.34786
G1 X61.615 Y168.75 E15.39154
G1 X61.357 Y167.502 E15.45089
G1 X61.302 Y167.127 E15.46853
G1 X61.266 Y166.855 E15.48131
G1 X61.149 Y165.884 E15.52685
G1 X61.081 Y165.257 E15.55622
G1 X61.019 Y164.264 E15.60255
G1 X61 Y163.101 E15.65671
G1 X61.001 Y56.552 E20.61807
G1 X61.01 Y55.912 E20.64788
G1 X61.066 Y54.944 E20.69303
G1 X61.163 Y53.999 E20.73726
G1 X61.225 Y53.479 E20.76165
G1 X61.343 Y52.606 E20.80267
G1 X61.508 Y51.683 E20.84633
G1 X61.842 Y50.502 E20.90348
G1 X61.936 Y50.229 E20.91692
G1 X62.05 Y49.914 E20.93252
G1 X62.446 Y48.872 E20.98443
G1 X62.706 Y48.218 E21.0172
G1 X63.089 Y47.362 E21.06086
G1 X63.703 Y46.291 E21.11835
G1 X63.866 Y46.04 E21.13228
G1 X64.029 Y45.796 E21.14595
G1 X64.631 Y44.923 E21.19533
G0 F6000 X64.957 Y45.155
G1 F1200 X65.381 Y44.559 E21.22938
G1 X65.946 Y43.833 E21.27222
G1 X66.752 Y42.986 E21.32666
G1 X67.008 Y42.745 E21.34304
G1 X67.241 Y42.532 E21.35774
G1 X67.877 Y41.968 E21.39732
G1 X68.564 Y41.377 E21.43952
G1 X69.287 Y40.808 E21.48236
G1 X70.306 Y40.161 E21.53856
G1 X70.627 Y39.982 E21.55568
G1 X70.867 Y39.852 E21.56839
G1 X71.766 Y39.382 E21.61562
G1 X72.36 Y39.08 E21.64665
G1 X73.198 Y38.699 E21.68952
G1 X74.36 Y38.307 E21.74662
G1 X74.699 Y38.214 E21.76299
G1 X74.967 Y38.144 E21.77589
G1 X75.95 Y37.903 E21.82301
G1 X76.656 Y37.74 E21.85675
G1 X77.562 Y37.572 E21.89966
G1 X78.036 Y37.516 E21.92188
G1 X78.516 Y37.478 E21.9443
G1 X79.402 Y37.427 E21.98563
G1 X79.712 Y37.413 E22.00008
G1 X80.031 Y37.404 E22.01494
G1 X80.33 Y37.4 E22.02886
G1 X139.293 Y37.4 E24.77443
G1 X140.149 Y37.411 E24.81429
G1 X140.455 Y37.42 E24.82854
G1 X140.803 Y37.435 E24.84476
G1 X141.09 Y37.451 E24.85815
G1 X141.702 Y37.494 E24.88672
G1 X142.617 Y37.598 E24.9296
G1 X143.163 Y37.7 E24.95546
G1 X143.53 Y37.778 E24.97293
G1 X143.88 Y37.858 E24.98965
G1 X144.853 Y38.101 E25.03635
G1 X145.507 Y38.272 E25.06782
G1 X146.387 Y38.543 E25.1107
G1 X147.444 Y38.986 E25.16407
G1 X147.756 Y39.137 E25.18021
G1 X148.067 Y39.293 E25.19641
G1 X148.901 Y39.731 E25.24027
G1 X149.619 Y40.122 E25.27834
G1 X150.407 Y40.598 E25.32121
G1 X151.304 Y41.264 E25.37323
G1 X151.502 Y41.428 E25.3852
G1 X151.756 Y41.645 E25.40076
G1 X152.589 Y42.382 E25.45255
G1 X153.119 Y42.865 E25.48594
G1 X153.772 Y43.514 E25.52881
G1 X154.508 Y44.406 E25.58266
G1 X154.691 Y44.654 E25.59701
G1 X154.879 Y44.917 E25.61206
G1 X155.463 Y45.763 E25.65993
G1 X155.885 Y46.393 E25.69524
G1 X156.363 Y47.179 E25.73807
G1 X156.893 Y48.289 E25.79535
G1 X157.028 Y48.62 E25.81199
G1 X157.12 Y48.853 E25.82366
G1 X157.418 Y49.636 E25.86267
G1 X157.726 Y50.486 E25.90477
G1 X158.001 Y51.364 E25.94761
G1 X158.24 Y52.519 E26.00253
G1 X158.297 Y52.9 E26.02047
G1 X158.337 Y53.192 E26.03419
G1 X158.453 Y54.158 E26.0795
G1 X158.521 Y54.785 E26.10886
G1 X158.581 Y55.743 E26.15356
G1 X158.6 Y56.9 E26.20744
G1 X158.599 Y163.442 E31.16848
G1 X158.59 Y164.082 E31.19829
G1 X158.536 Y165.015 E31.2418
G1 X158.439 Y165.96 E31.28604
G1 X158.387 Y166.403 E31.30681
G1 X158.262 Y167.336 E31.35064
G1 X158.099 Y168.242 E31.39351
G1 X157.78 Y169.368 E31.448
G1 X157.686 Y169.641 E31.46144
G1 X157.576 Y169.945 E31.4765
G1 X157.196 Y170.944 E31.52627
G1 X156.934 Y171.607 E31.55946
G1 X156.559 Y172.447 E31.6023
G1 X155.975 Y173.471 E31.65719
G1 X155.808 Y173.729 E31.6715
G1 X155.641 Y173.978 E31.68546
G1 X155.046 Y174.841 E31.73427
G1 X154.621 Y175.439 E31.76843
G1 X154.056 Y176.165 E31.81127
G1 X153.23 Y177.032 E31.86703
G1 X152.975 Y177.271 E31.8833
G1 X152.753 Y177.473 E31.89728
G1 X152.008 Y178.132 E31.94359
G1 X151.452 Y178.611 E31.97776
G1 X150.729 Y179.181 E32.02063
G1 X149.693 Y179.839 E32.07778
G1 X149.37 Y180.019 E32.095
G1 X149.133 Y180.148 E32.10757
G1 X148.234 Y180.618 E32.1548
G1 X147.64 Y180.92 E32.18583
G1 X146.802 Y181.301 E32.2287
G1 X145.64 Y181.693 E32.2858
G1 X145.301 Y181.786 E32.30217
G1 X145.035 Y181.856 E32.31498
G1 X144.069 Y182.093 E32.36129
G1 X143.352 Y182.259 E32.39556
G1 X142.447 Y182.427 E32.43842
G1 X141.943 Y182.486 E32.46205
G1 X141.484 Y182.522 E32.48349
G1 X140.598 Y182.573 E32.52481
G1 X140.288 Y182.587 E32.53926
G1 X139.969 Y182.596 E32.55412
G1 X139.67 Y182.6 E32.56805
G1 X80.557 Y182.599 E35.32059
G1 X79.852 Y182.589 E35.35343
G1 X79.547 Y182.58 E35.36763
G1 X79.198 Y182.565 E35.3839
G1 X78.909 Y182.549 E35.39738
G1 X78.298 Y182.506 E35.4259
G1 X77.383 Y182.401 E35.46878
G1 X76.837 Y182.3 E35.49464
G1 X76.422 Y182.212 E35.51439
G1 X76.116 Y182.141 E35.52902
G1 X75.277 Y181.933 E35.56927
G1 X74.486 Y181.726 E35.60734
G1 X73.607 Y181.455 E35.65017
G1 X72.551 Y181.012 E35.7035
G1 X72.233 Y180.858 E35.71995
G1 X71.918 Y180.699 E35.73638
G1 X70.927 Y180.176 E35.78856
G1 X70.376 Y179.875 E35.81779
G1 X69.588 Y179.399 E35.86066
G1 X68.679 Y178.722 E35.91344
G1 X68.453 Y178.534 E35.92712
G1 X68.209 Y178.325 E35.94208
G1 X67.369 Y177.58 E35.99437
G1 X66.867 Y177.121 E36.02604
G1 X66.215 Y176.471 E36.06891
G1 X65.499 Y175.602 E36.12134
G1 X65.317 Y175.356 E36.13559
G1 X65.125 Y175.089 E36.1509
G1 X64.513 Y174.203 E36.20104
G1 X64.109 Y173.598 E36.23492
G1 X63.631 Y172.81 E36.27783
G1 X63.111 Y171.719 E36.33411
G1 X62.975 Y171.386 E36.35086
G1 X62.881 Y171.148 E36.36277
G1 X62.521 Y170.198 E36.41008
G1 X62.272 Y169.509 E36.44419
G1 X61.997 Y168.63 E36.48708
G1 X61.753 Y167.444 E36.54346
G1 X61.698 Y167.069 E36.56111
G1 X61.663 Y166.807 E36.57342
G1 X61.547 Y165.841 E36.61872
G1 X61.479 Y165.214 E36.64809
G1 X61.419 Y164.257 E36.69274
G1 X61.4 Y163.101 E36.74657
G1 X61.401 Y56.558 E41.70766
G1 X61.41 Y55.918 E41.73747
G1 X61.464 Y54.985 E41.78098
G1 X61.561 Y54.04 E41.82522
G1 X61.622 Y53.528 E41.84923
G1 X61.739 Y52.66 E41.89001
G1 X61.902 Y51.754 E41.93288
G1 X62.22 Y50.632 E41.98718
G1 X62.314 Y50.359 E42.00062
G1 X62.424 Y50.056 E42.01563
G1 X62.818 Y49.02 E42.06724
G1 X63.078 Y48.366 E42.10001
G1 X63.455 Y47.526 E42.14289
G1 X64.038 Y46.509 E42.19747
G1 X64.201 Y46.258 E42.21141
G1 X64.359 Y46.022 E42.22463
G1 X64.957 Y45.155 E42.27368
G0 F6000 X65.283 Y45.387
G1 F1200 X65.707 Y44.791 E42.30773
G1 X66.262 Y44.079 E42.34977
G1 X67.026 Y43.277 E42.40135
G1 X67.282 Y43.036 E42.41772
G1 X67.506 Y42.831 E42.43186
G1 X68.265 Y42.16 E42.47903
G1 X68.824 Y41.68 E42.51334
G1 X69.535 Y41.123 E42.5554
G1 X70.501 Y40.51 E42.60867
G1 X70.822 Y40.331 E42.62578
G1 X71.053 Y40.207 E42.63799
G1 X71.947 Y39.739 E42.68498
G1 X72.541 Y39.437 E42.71601
G1 X73.364 Y39.063 E42.7581
G1 X74.465 Y38.692 E42.8122
G1 X74.804 Y38.599 E42.82857
G1 X75.063 Y38.532 E42.84103
G1 X76.04 Y38.292 E42.88787
G1 X76.746 Y38.129 E42.92161
G1 X78.074 Y37.914 E42.98425
G1 X78.539 Y37.877 E43.00597
G1 X79.425 Y37.826 E43.0473
G1 X79.723 Y37.813 E43.06119
G1 X80.042 Y37.804 E43.07605
G1 X80.33 Y37.8 E43.08946
G1 X139.293 Y37.8 E45.83502
G1 X140.143 Y37.811 E45.87461
G1 X140.438 Y37.819 E45.88835
G1 X140.786 Y37.834 E45.90457
G1 X141.062 Y37.85 E45.91744
G1 X141.674 Y37.893 E45.94601
G1 X142.571 Y37.996 E45.98805
G1 X143.079 Y38.091 E46.01212
G1 X143.446 Y38.169 E46.02959
G1 X143.783 Y38.246 E46.04568
G1 X144.752 Y38.488 E46.09219
G1 X145.406 Y38.659 E46.12367
G1 X146.269 Y38.926 E46.16573
G1 X147.269 Y39.346 E46.21624
G1 X147.581 Y39.497 E46.23238
G1 X147.881 Y39.648 E46.24801
G1 X148.857 Y40.162 E46.29938
G1 X149.427 Y40.473 E46.32961
G1 X150.2 Y40.94 E46.37167
G1 X151.048 Y41.572 E46.42091
G1 X151.246 Y41.736 E46.43288
G1 X151.491 Y41.945 E46.44788
G1 X152.319 Y42.678 E46.49937
G1 X152.849 Y43.161 E46.53276
G1 X153.489 Y43.798 E46.57481
G1 X154.186 Y44.644 E46.62585
G1 X154.369 Y44.892 E46.6402
G1 X154.55 Y45.145 E46.65469
G1 X155.13 Y45.985 E46.70222
G1 X155.552 Y46.615 E46.73753
G1 X156.021 Y47.387 E46.77959
G1 X156.523 Y48.44 E46.83391
G1 X156.658 Y48.771 E46.85055
G1 X156.746 Y48.995 E46.86176
G1 X157.044 Y49.778 E46.90077
G1 X157.35 Y50.622 E46.94257
G1 X157.619 Y51.484 E46.98462
G1 X157.845 Y52.578 E47.03664
G1 X157.902 Y52.959 E47.05458
G1 X157.94 Y53.24 E47.06778
G1 X158.056 Y54.201 E47.11285
G1 X158.124 Y54.828 E47.14222
G1 X158.181 Y55.75 E47.18523
G1 X158.2 Y56.9 E47.23879
G1 X158.199 Y163.436 E52.19955
G1 X158.19 Y164.076 E52.22936
G1 X158.138 Y164.975 E52.27129
G1 X158.02 Y166.108 E52.32433
G1 X157.972 Y166.491 E52.3423
G1 X157.865 Y167.283 E52.37952
G1 X157.705 Y168.171 E52.42153
G1 X157.401 Y169.238 E52.47319
G1 X157.307 Y169.511 E52.48664
G1 X157.202 Y169.803 E52.50109
G1 X156.824 Y170.797 E52.55061
G1 X156.562 Y171.46 E52.5838
G1 X156.193 Y172.284 E52.62584
G1 X155.639 Y173.254 E52.67786
G1 X155.472 Y173.512 E52.69217
G1 X155.312 Y173.751 E52.70556
G1 X154.72 Y174.609 E52.7541
G1 X154.295 Y175.207 E52.78826
G1 X153.74 Y175.919 E52.8303
G1 X152.956 Y176.74 E52.88316
G1 X152.701 Y176.979 E52.89943
G1 X152.488 Y177.174 E52.91288
G1 X151.747 Y177.829 E52.95893
G1 X151.191 Y178.308 E52.9931
G1 X150.481 Y178.866 E53.03515
G1 X149.498 Y179.49 E53.08937
G1 X149.175 Y179.67 E53.10658
G1 X148.947 Y179.793 E53.11865
G1 X148.053 Y180.261 E53.16563
G1 X147.459 Y180.563 E53.19666
G1 X146.636 Y180.937 E53.23876
G1 X145.535 Y181.308 E53.29286
G1 X145.196 Y181.401 E53.30922
G1 X144.94 Y181.467 E53.32153
G1 X143.979 Y181.703 E53.36761
G1 X143.262 Y181.869 E53.40188
G1 X142.374 Y182.034 E53.44394
G1 X141.906 Y182.088 E53.46587
G1 X141.461 Y182.123 E53.48666
G1 X140.575 Y182.174 E53.52798
G1 X140.277 Y182.187 E53.54187
G1 X139.958 Y182.196 E53.55673
G1 X139.67 Y182.2 E53.57015
G1 X80.562 Y182.199 E56.32246
G1 X79.857 Y182.189 E56.35529
G1 X79.564 Y182.181 E56.36894
G1 X79.215 Y182.166 E56.38521
G1 X78.937 Y182.15 E56.39817
G1 X78.326 Y182.107 E56.42669
G1 X77.429 Y182.004 E56.46874
G1 X76.92 Y181.909 E56.49285
G1 X76.507 Y181.821 E56.51251
G1 X76.213 Y181.752 E56.52657
G1 X75.245 Y181.511 E56.57302
G1 X74.588 Y181.339 E56.60465
G1 X73.725 Y181.072 E56.64671
G1 X72.725 Y180.652 E56.69721
G1 X72.407 Y180.498 E56.71367
G1 X72.104 Y180.345 E56.72947
G1 X71.119 Y179.825 E56.78134
G1 X70.568 Y179.524 E56.81057
G1 X69.795 Y179.057 E56.85263
G1 X68.935 Y178.415 E56.9026
G1 X68.709 Y178.227 E56.91629
G1 X68.474 Y178.025 E56.93072
G1 X67.639 Y177.285 E56.98267
G1 X67.137 Y176.826 E57.01434
G1 X66.498 Y176.187 E57.05642
G1 X65.82 Y175.365 E57.10604
G1 X65.638 Y175.119 E57.12029
G1 X65.454 Y174.861 E57.13504
G1 X64.845 Y173.98 E57.18491
G1 X64.441 Y173.375 E57.21879
G1 X63.974 Y172.603 E57.2608
G1 X63.481 Y171.568 E57.31418
G1 X63.345 Y171.235 E57.33093
G1 X63.255 Y171.006 E57.34239
G1 X62.897 Y170.062 E57.3894
G1 X62.648 Y169.373 E57.42351
G1 X62.379 Y168.511 E57.46556
G1 X62.149 Y167.386 E57.51903
G1 X62.094 Y167.011 E57.53668
G1 X62.06 Y166.759 E57.54852
G1 X61.944 Y165.798 E57.59359
G1 X61.876 Y165.171 E57.62296
G1 X61.819 Y164.25 E57.66593
G1 X61.8 Y163.101 E57.71943
G1 X61.801 Y56.564 E62.68024
G1 X61.81 Y55.924 E62.71005
G1 X61.862 Y55.025 E62.75198
G1 X61.959 Y54.08 E62.79621
G1 X62.019 Y53.577 E62.8198
G1 X62.135 Y52.713 E62.86039
G1 X62.296 Y51.825 E62.90242
G1 X62.599 Y50.762 E62.95389
G1 X62.693 Y50.489 E62.96733
G1 X62.798 Y50.197 E62.98178
G1 X63.129 Y49.323 E63.0253
G1 X63.45 Y48.514 E63.06583
G1 X63.82 Y47.69 E63.10788
G1 X64.374 Y46.727 E63.15962
G1 X64.537 Y46.476 E63.17355
