;FLAVOR:Marlin
;TIME:10109
;Filament used: 9.34624m
;Layer height: 0.28
;MINX:65.335
;MINY:49.335
;MINZ:0.28
;MAXX:154.665
;MAXY:170.665
;MAXZ:15.96
;Generated with Creality Slicer 4.8.2-191
M140 S50
M105
M190 S50
M104 S200
M105
M109 S200
M82 ;absolute extrusion mode

G28 ;Home

G92 E0 ;Reset Extruder
G1 Z2.0 F3000 ;Move Z Axis up
G1 X10.1 Y20 Z0.28 F5000.0 ;Move to start position
G1 X10.1 Y200.0 Z0.28 F1500.0 E15 ;Draw the first line
G1 X10.4 Y200.0 Z0.28 F5000.0 ;Move to side a little
G1 X10.4 Y20 Z0.28 F1500.0 E30 ;Draw the second line
G92 E0 ;Reset Extruder
G1 Z2.0 F3000 ;Move Z Axis up

G92 E0
G92 E0
G1 F2700 E-5
;LAYER_COUNT:57
;LAYER:0
M107
;MESH:top-plate.stl
G0 F6000 X88.363 Y129.6 Z0.28
;TYPE:WALL-INNER
G1 F2700 E0
G1 F1200 X88.537 Y129.657 E0.00853
G1 X89.6 Y128.195 E0.0927
G1 X89.6 Y69.805 E2.81158
G1 X88.537 Y68.343 E2.89575
G1 X88.364 Y68.4 E2.90423
G1 X85.428 Y68.4 E3.04094
G1 X85.413 Y68.709 E3.05535
G1 X84.592 Y68.976 E3.09555
G1 X84.591 Y69.4 E3.11529
G1 X84.4 Y69.4 E3.12418
G1 X84.4 Y128.6 E5.88078
G1 X84.591 Y128.6 E5.88968
G1 X84.591 Y129.024 E5.90942
G1 X85.4 Y129.286 E5.94902
G1 X85.4 Y129.6 E5.96364
G1 X88.363 Y129.6 E6.10161
G0 F6000 X88.189 Y129.122
;TYPE:WALL-OUTER
G1 F1200 X88.385 Y129.186 E6.11121
G1 X89.2 Y128.065 E6.17575
G1 X89.2 Y69.935 E8.88252
G1 X88.385 Y68.814 E8.94706
G1 X88.171 Y68.884 E8.95754
G1 X88.161 Y68.8 E8.96148
G1 X85.809 Y68.8 E9.071
G1 X85.799 Y69.004 E9.08051
G1 X84.991 Y69.267 E9.12008
G1 X84.99 Y69.8 E9.1449
G1 X84.8 Y69.8 E9.15374
G1 X84.8 Y128.2 E11.87309
G1 X84.991 Y128.2 E11.88199
G1 X84.991 Y128.733 E11.9068
G1 X85.8 Y128.996 E11.94641
G1 X85.8 Y129.2 E11.95591
G1 X88.182 Y129.2 E12.06683
G1 X88.189 Y129.122 E12.07048
G1 F2700 E7.07048
G0 F6000 X88.189 Y129.5
G0 X89.791 Y128.257
G0 X88.337 Y127.785
G0 X97.772 Y133.61
G0 X98.12 Y133.825
G0 X98.408 Y134.004
G0 X130.254 Y153.672
G0 X128.924 Y154.269
G0 X130.64 Y156.671
G0 X132.252 Y158.477
G0 X134.014 Y159.6
;TYPE:WALL-INNER
G1 F2700 E12.07048
G1 F1200 X135.986 Y159.6 E12.1623
G1 X137.849 Y158.605 E12.26065
G1 X139.493 Y156.764 E12.37558
G1 X140.902 Y154.191 E12.51217
G1 X142.049 Y150.989 E12.67055
G1 X142.899 Y147.286 E12.84746
G1 X143.423 Y143.232 E13.0378
G1 X143.6 Y139 E13.23504
G1 X143.423 Y134.768 E13.43227
G1 X142.899 Y130.714 E13.62261
G1 X142.049 Y127.011 E13.79952
G1 X140.902 Y123.809 E13.9579
G1 X139.493 Y121.236 E14.09449
G1 X137.849 Y119.395 E14.20942
G1 X135.986 Y118.4 E14.30777
G1 X134.014 Y118.4 E14.39959
G1 X132.151 Y119.395 E14.49794
G1 X130.507 Y121.236 E14.61287
G1 X129.098 Y123.809 E14.74947
G1 X127.951 Y127.011 E14.90784
G1 X127.101 Y130.714 E15.08476
G1 X126.577 Y134.768 E15.2751
G1 X126.4 Y139 E15.47233
G1 X126.577 Y143.232 E15.66956
G1 X127.101 Y147.286 E15.8599
G1 X127.951 Y150.989 E16.03681
G1 X129.098 Y154.191 E16.19519
G1 X130.507 Y156.764 E16.33179
G1 X132.151 Y158.605 E16.44672
G1 X134.014 Y159.6 E16.54506
G0 F6000 X134.114 Y159.2
;TYPE:WALL-OUTER
G1 F1200 X135.886 Y159.2 E16.62758
G1 X137.598 Y158.286 E16.71794
G1 X139.164 Y156.532 E16.82743
G1 X140.536 Y154.027 E16.96042
G1 X141.664 Y150.876 E17.11627
G1 X142.505 Y147.215 E17.29118
G1 X143.024 Y143.198 E17.47978
G1 X143.2 Y139 E17.67543
G1 X143.024 Y134.802 E17.87108
G1 X142.505 Y130.785 E18.05968
G1 X141.664 Y127.124 E18.23459
G1 X140.536 Y123.973 E18.39043
G1 X139.164 Y121.468 E18.52343
G1 X137.598 Y119.714 E18.63292
G1 X135.886 Y118.8 E18.72328
G1 X134.114 Y118.8 E18.80579
G1 X132.402 Y119.714 E18.89616
G1 X130.836 Y121.468 E19.00565
G1 X129.464 Y123.973 E19.13864
G1 X128.336 Y127.124 E19.29449
G1 X127.495 Y130.785 E19.4694
G1 X126.976 Y134.802 E19.658
G1 X126.8 Y139 E19.85365
G1 X126.976 Y143.198 E20.0493
G1 X127.495 Y147.215 E20.2379
G1 X128.336 Y150.876 E20.41281
G1 X129.464 Y154.027 E20.56865
G1 X130.836 Y156.532 E20.70165
G1 X132.402 Y158.286 E20.81114
G1 X134.114 Y159.2 E20.9015
G0 F6000 X134.008 Y159.626
G1 F2700 E15.9015
G0 F6000 X132.252 Y158.477
G0 X130.64 Y156.671
G0 X129.245 Y154.125
G0 X128.106 Y150.943
G0 X127.259 Y147.257
G0 X126.738 Y143.218
G0 X126.56 Y139
G0 X126.738 Y134.782
G0 X127.259 Y130.743
G0 X128.106 Y127.057
G0 X129.245 Y123.875
G0 X130.64 Y121.329
G0 X132.252 Y119.523
G0 X134.014 Y118.21
G0 X134.329 Y119.663
G0 X134.329 Y108.337
G0 X134.014 Y109.79
G0 X134.014 Y109.6
;TYPE:WALL-INNER
G1 F2700 E20.9015
G1 F1200 X135.986 Y109.6 E20.99333
G1 X137.849 Y108.605 E21.09167
G1 X139.493 Y106.764 E21.2066
G1 X140.902 Y104.191 E21.3432
G1 X142.049 Y100.989 E21.50158
G1 X142.899 Y97.286 E21.67849
G1 X143.423 Y93.232 E21.86883
G1 X143.6 Y89 E22.06606
G1 X143.423 Y84.768 E22.26329
G1 X142.899 Y80.714 E22.45364
G1 X142.049 Y77.011 E22.63055
G1 X140.902 Y73.809 E22.78892
G1 X139.493 Y71.236 E22.92552
G1 X137.849 Y69.395 E23.04045
G1 X135.986 Y68.4 E23.1388
G1 X134.014 Y68.4 E23.23062
G1 X132.151 Y69.395 E23.32897
G1 X130.507 Y71.236 E23.4439
G1 X129.098 Y73.809 E23.58049
G1 X127.951 Y77.011 E23.73887
G1 X127.101 Y80.714 E23.91578
G1 X126.577 Y84.768 E24.10612
G1 X126.4 Y89 E24.30336
G1 X126.577 Y93.232 E24.50059
G1 X127.101 Y97.286 E24.69093
G1 X127.951 Y100.989 E24.86784
G1 X129.098 Y104.191 E25.02622
G1 X130.507 Y106.764 E25.16281
G1 X132.151 Y108.605 E25.27774
G1 X134.014 Y109.6 E25.37609
G0 F6000 X134.114 Y109.2
;TYPE:WALL-OUTER
G1 F1200 X135.886 Y109.2 E25.4586
G1 X137.598 Y108.286 E25.54897
G1 X139.164 Y106.532 E25.65846
G1 X140.536 Y104.027 E25.79145
G1 X141.664 Y100.876 E25.94729
G1 X142.505 Y97.215 E26.1222
G1 X143.024 Y93.198 E26.31081
G1 X143.2 Y89 E26.50646
G1 X143.024 Y84.802 E26.7021
G1 X142.505 Y80.785 E26.89071
G1 X141.664 Y77.124 E27.06562
G1 X140.536 Y73.973 E27.22146
G1 X139.164 Y71.468 E27.35445
G1 X137.598 Y69.714 E27.46394
G1 X135.886 Y68.8 E27.55431
G1 X134.114 Y68.8 E27.63682
G1 X132.402 Y69.714 E27.72719
G1 X130.836 Y71.468 E27.83668
G1 X129.464 Y73.973 E27.96967
G1 X128.336 Y77.124 E28.12551
G1 X127.495 Y80.785 E28.30042
G1 X126.976 Y84.802 E28.48903
G1 X126.8 Y89 E28.68467
G1 X126.976 Y93.198 E28.88032
G1 X127.495 Y97.215 E29.06893
G1 X128.336 Y100.876 E29.24384
G1 X129.464 Y104.027 E29.39968
G1 X130.836 Y106.532 E29.53267
G1 X132.402 Y108.286 E29.64216
G1 X134.114 Y109.2 E29.73253
G0 F6000 X134.008 Y109.626
G1 F2700 E24.73253
G0 F6000 X132.031 Y108.758
G0 X132.943 Y107.595
G0 X119.335 Y108.758
G0 X120.79 Y108.758
G0 X120.438 Y128.392
G0 X119.99 Y129.003
G0 X119.502 Y129.6
;TYPE:WALL-INNER
G1 F2700 E29.73253
G1 F1200 X119.711 Y129.668 E29.74276
G1 X120.6 Y128.445 E29.81317
G1 X120.6 Y69.555 E32.55533
G1 X119.85 Y68.522 E32.61477
G1 X119.85 Y68.4 E32.62045
G1 X119.762 Y68.4 E32.62455
G1 X119.713 Y68.333 E32.62842
G1 X119.503 Y68.4 E32.63638
G1 X117.15 Y68.4 E32.74595
G1 X117.15 Y68.677 E32.75884
G1 X116.543 Y68.873 E32.78855
G1 X116.543 Y69.21 E32.80424
G1 X116.4 Y69.231 E32.81097
G1 X116.4 Y128.85 E35.58708
G1 X116.543 Y128.85 E35.59374
G1 X116.543 Y129.127 E35.60664
G1 X117.15 Y129.323 E35.63634
G1 X117.15 Y129.6 E35.64924
G1 X119.502 Y129.6 E35.75875
G0 F6000 X119.435 Y129.158
;TYPE:WALL-OUTER
G1 F1200 X119.558 Y129.198 E35.76478
G1 X120.2 Y128.315 E35.81561
G1 X120.2 Y69.685 E38.54567
G1 X119.559 Y68.802 E38.59648
G1 X119.45 Y68.837 E38.60181
G1 X119.45 Y68.8 E38.60353
G1 X117.55 Y68.8 E38.692
G1 X117.55 Y68.967 E38.69978
G1 X116.943 Y69.164 E38.7295
G1 X116.943 Y69.556 E38.74775
G1 X116.8 Y69.577 E38.75448
G1 X116.8 Y128.45 E41.49585
G1 X116.943 Y128.45 E41.50251
G1 X116.943 Y128.836 E41.52048
G1 X117.55 Y129.033 E41.5502
G1 X117.55 Y129.2 E41.55798
G1 X119.431 Y129.2 E41.64556
G1 X119.435 Y129.158 E41.64753
G1 F2700 E36.64753
G0 F6000 X119.435 Y129.5
G0 X117.322 Y129.428
G0 X116.361 Y129.032
G0 X117.8 Y128.214
G0 X105.337 Y127.535
G0 X106.791 Y128.007
G0 X105.23 Y129.6
;TYPE:WALL-INNER
G1 F2700 E41.64753
G1 F1200 X105.365 Y129.644 E41.65414
G1 X106.6 Y127.945 E41.75195
G1 X106.6 Y70.055 E44.44755
G1 X105.364 Y68.355 E44.54542
G1 X105.227 Y68.4 E44.55213
G1 X101.65 Y68.4 E44.71869
G1 X101.65 Y68.752 E44.73508
G1 X100.639 Y69.079 E44.78456
G1 X100.639 Y69.65 E44.81115
G1 X100.4 Y69.65 E44.82228
G1 X100.4 Y128.35 E47.55559
G1 X100.639 Y128.35 E47.56672
G1 X100.639 Y128.921 E47.59331
G1 X101.65 Y129.248 E47.64279
G1 X101.65 Y129.6 E47.65918
G1 X105.23 Y129.6 E47.82588
G0 F6000 X104.942 Y129.086
;TYPE:WALL-OUTER
G1 F1200 X105.212 Y129.174 E47.8391
G1 X106.2 Y127.815 E47.91734
G1 X106.2 Y70.185 E50.60083
G1 X105.212 Y68.826 E50.67907
G1 X104.95 Y68.912 E50.69191
G1 X104.95 Y68.8 E50.69712
G1 X102.05 Y68.8 E50.83216
G1 X102.05 Y69.042 E50.84343
G1 X101.039 Y69.37 E50.89292
G1 X101.039 Y70.05 E50.92459
G1 X100.8 Y70.05 E50.93571
G1 X100.8 Y127.95 E53.63178
G1 X101.039 Y127.95 E53.64291
G1 X101.039 Y128.63 E53.67457
G1 X102.05 Y128.958 E53.72407
G1 X102.05 Y129.2 E53.73533
G1 X104.931 Y129.2 E53.86949
G1 X104.942 Y129.086 E53.87482
G1 F2700 E48.87482
G0 F6000 X104.942 Y129.5
G0 X101.454 Y129.796
G0 X102.023 Y128.04
G0 X97.906 Y148.346
G0 X98.13 Y150.079
G0 X98.438 Y151.108
G0 X98.438 Y164.892
G0 X98.144 Y165.429
G0 X96.856 Y165.465
;TYPE:WALL-INNER
G1 F2700 E53.87482
G1 F1200 X96.941 Y165.6 E53.88225
G1 X98.299 Y165.6 E53.94548
G1 X98.324 Y165.324 E53.95838
G1 X98.6 Y164.945 E53.98022
G1 X98.6 Y151.055 E54.62699
G1 X98.056 Y150.307 E54.67006
G1 X97.768 Y150.4 E54.68415
G1 X96.77 Y150.4 E54.73062
G1 X96.731 Y150.576 E54.73902
G1 X96.448 Y150.668 E54.75287
G1 X96.448 Y150.734 E54.75595
G1 X96.4 Y150.742 E54.75821
G1 X96.4 Y165.35 E55.43842
G1 X96.501 Y165.35 E55.44313
G1 X96.856 Y165.465 E55.4605
G0 F6000 X96.86 Y164.95
;TYPE:WALL-OUTER
G1 F1200 X96.866 Y165.048 E55.46507
G1 X97.118 Y165.13 E55.47741
G1 X97.162 Y165.2 E55.48126
G1 X97.832 Y165.2 E55.51246
G1 X97.934 Y165.2 E55.51721
G1 X97.936 Y165.178 E55.51824
G1 X98.2 Y164.815 E55.53914
G1 X98.2 Y151.185 E56.17381
G1 X97.903 Y150.777 E56.19731
G1 X97.832 Y150.8 E56.20078
G1 X97.09 Y150.8 E56.23533
G1 X97.071 Y150.885 E56.23939
G1 X96.848 Y150.958 E56.25032
G1 X96.848 Y151.073 E56.25567
G1 X96.8 Y151.081 E56.25794
G1 X96.8 Y164.95 E56.90374
G1 X96.86 Y164.95 E56.90653
G1 F2700 E51.90653
G0 F6000 X96.5 Y164.95
G0 X96.57 Y150.886
G0 X96.85 Y150.612
G0 X98.124 Y150.098
G0 X97.906 Y148.346
G0 X86.352 Y162.193
G0 X87.791 Y162.757
G0 X86.827 Y163.475
G0 X85.072 Y163.428
G0 X84.495 Y163.1
;TYPE:WALL-INNER
G1 F2700 E56.90653
G1 F1200 X84.495 Y163.231 E56.91263
G1 X84.9 Y163.362 E56.93245
G1 X84.9 Y163.6 E56.94353
G1 X86.632 Y163.6 E57.02418
G1 X86.897 Y163.664 E57.03688
G1 X87.6 Y162.695 E57.09262
G1 X87.6 Y149.305 E57.71611
G1 X86.883 Y148.316 E57.773
G1 X86.632 Y148.4 E57.78532
G1 X85.023 Y148.4 E57.86024
G1 X84.973 Y148.615 E57.87052
G1 X84.495 Y148.77 E57.89392
G1 X84.495 Y148.968 E57.90314
G1 X84.4 Y148.982 E57.90761
G1 X84.4 Y163.1 E58.565
G1 X84.495 Y163.1 E58.56943
G0 F6000 X84.895 Y162.7
;TYPE:WALL-OUTER
G1 F1200 X84.895 Y162.94 E58.5806
G1 X85.3 Y163.071 E58.60042
G1 X85.3 Y163.2 E58.60643
G1 X86.682 Y163.2 E58.67078
G1 X86.731 Y163.212 E58.67313
G1 X87.2 Y162.565 E58.71034
G1 X87.2 Y149.435 E59.32173
G1 X86.731 Y148.788 E59.35894
G1 X86.695 Y148.8 E59.3607
G1 X85.341 Y148.8 E59.42375
G1 X85.312 Y148.926 E59.42977
G1 X84.895 Y149.061 E59.45018
G1 X84.895 Y149.313 E59.46192
G1 X84.8 Y149.327 E59.46639
G1 X84.8 Y162.7 E60.08909
G1 X84.895 Y162.7 E60.09351
G1 F2700 E55.09351
G0 F6000 X84.595 Y162.97
G0 X84.3 Y148.8
G0 X84.704 Y147.796
G0 X84.495 Y147.1
;TYPE:WALL-INNER
G1 F2700 E60.09351
G1 F1200 X84.495 Y147.231 E60.09961
G1 X84.9 Y147.362 E60.11943
G1 X84.9 Y147.6 E60.13052
G1 X86.632 Y147.6 E60.21117
G1 X86.897 Y147.664 E60.22386
G1 X87.6 Y146.695 E60.2796
G1 X87.6 Y133.305 E60.9031
G1 X86.883 Y132.316 E60.95998
G1 X86.632 Y132.4 E60.97231
G1 X85.023 Y132.4 E61.04723
G1 X84.973 Y132.615 E61.05751
G1 X84.495 Y132.77 E61.0809
G1 X84.495 Y132.968 E61.09012
G1 X84.4 Y132.982 E61.0946
G1 X84.4 Y147.1 E61.75199
G1 X84.495 Y147.1 E61.75641
G0 F6000 X84.895 Y146.7
;TYPE:WALL-OUTER
G1 F1200 X84.895 Y146.94 E61.76759
G1 X85.3 Y147.071 E61.78741
G1 X85.3 Y147.2 E61.79341
G1 X86.682 Y147.2 E61.85777
G1 X86.731 Y147.212 E61.86012
G1 X87.2 Y146.565 E61.89733
G1 X87.2 Y133.435 E62.50871
G1 X86.731 Y132.788 E62.54592
G1 X86.695 Y132.8 E62.54769
G1 X85.341 Y132.8 E62.61074
G1 X85.312 Y132.926 E62.61676
G1 X84.895 Y133.061 E62.63717
G1 X84.895 Y133.313 E62.6489
G1 X84.8 Y133.327 E62.65337
G1 X84.8 Y146.7 E63.27608
G1 X84.895 Y146.7 E63.2805
G1 F2700 E58.2805
G0 F6000 X84.595 Y146.97
G0 X85.072 Y147.428
G0 X86.827 Y147.475
G0 X87.791 Y146.757
G0 X86.352 Y146.193
G0 X97.665 Y146.757
G0 X96.21 Y146.757
G0 X96.495 Y149.1
;TYPE:WALL-INNER
G1 F2700 E63.2805
G1 F1200 X96.495 Y149.231 E63.2866
G1 X96.9 Y149.362 E63.30642
G1 X96.9 Y149.6 E63.3175
G1 X98.632 Y149.6 E63.39815
G1 X98.897 Y149.664 E63.41085
G1 X99.6 Y148.695 E63.46659
G1 X99.6 Y133.305 E64.18321
G1 X98.883 Y132.316 E64.24009
G1 X98.632 Y132.4 E64.25242
G1 X97.023 Y132.4 E64.32734
G1 X96.973 Y132.615 E64.33762
G1 X96.495 Y132.77 E64.36102
G1 X96.495 Y132.968 E64.37024
G1 X96.4 Y132.982 E64.37471
G1 X96.4 Y149.1 E65.12523
G1 X96.495 Y149.1 E65.12965
G0 F6000 X96.895 Y148.7
;TYPE:WALL-OUTER
G1 F1200 X96.895 Y148.94 E65.14083
G1 X97.3 Y149.071 E65.16065
G1 X97.3 Y149.2 E65.16666
G1 X98.682 Y149.2 E65.23101
G1 X98.731 Y149.212 E65.23336
G1 X99.2 Y148.565 E65.27057
G1 X99.2 Y133.435 E65.97508
G1 X98.731 Y132.788 E66.01229
G1 X98.695 Y132.8 E66.01406
G1 X97.341 Y132.8 E66.07711
G1 X97.312 Y132.926 E66.08313
G1 X96.895 Y133.061 E66.10354
G1 X96.895 Y133.313 E66.11527
G1 X96.8 Y133.327 E66.11974
G1 X96.8 Y148.7 E66.83557
G1 X96.895 Y148.7 E66.84
G1 F2700 E61.84
G0 F6000 X96.595 Y148.97
G0 X97.072 Y149.428
G0 X98.827 Y149.475
G0 X99.376 Y148.726
G0 X99.79 Y147.465
G0 X106.21 Y147.465
G0 X106.856 Y147.465
;TYPE:WALL-INNER
G1 F2700 E66.84
G1 F1200 X106.941 Y147.6 E66.84743
G1 X108.299 Y147.6 E66.91066
G1 X108.324 Y147.324 E66.92356
G1 X108.6 Y146.945 E66.9454
G1 X108.6 Y133.055 E67.59217
G1 X108.056 Y132.307 E67.63524
G1 X107.768 Y132.4 E67.64933
G1 X106.77 Y132.4 E67.6958
G1 X106.731 Y132.576 E67.7042
G1 X106.448 Y132.668 E67.71805
G1 X106.448 Y132.734 E67.72113
G1 X106.4 Y132.742 E67.72339
G1 X106.4 Y147.35 E68.4036
G1 X106.501 Y147.35 E68.40831
G1 X106.856 Y147.465 E68.42568
G0 F6000 X106.86 Y146.95
;TYPE:WALL-OUTER
G1 F1200 X106.866 Y147.048 E68.43025
G1 X107.118 Y147.13 E68.44259
G1 X107.162 Y147.2 E68.44644
G1 X107.832 Y147.2 E68.47764
G1 X107.934 Y147.2 E68.48239
G1 X107.936 Y147.178 E68.48342
G1 X108.2 Y146.815 E68.50432
G1 X108.2 Y133.185 E69.13899
G1 X107.903 Y132.777 E69.16249
G1 X107.832 Y132.8 E69.16596
G1 X107.09 Y132.8 E69.20051
G1 X107.071 Y132.885 E69.20457
G1 X106.848 Y132.958 E69.2155
G1 X106.848 Y133.073 E69.22085
G1 X106.8 Y133.081 E69.22312
G1 X106.8 Y146.95 E69.86892
G1 X106.86 Y146.95 E69.87171
G1 F2700 E64.87171
G0 F6000 X106.5 Y146.95
G0 X107.032 Y147.434
G0 X108.144 Y147.429
G0 X108.791 Y147.007
G0 X116.21 Y147.007
G0 X116.856 Y147.465
;TYPE:WALL-INNER
G1 F2700 E69.87171
G1 F1200 X116.941 Y147.6 E69.87914
G1 X118.299 Y147.6 E69.94237
G1 X118.324 Y147.324 E69.95528
G1 X118.6 Y146.945 E69.97711
G1 X118.6 Y133.055 E70.62388
G1 X118.056 Y132.307 E70.66695
G1 X117.768 Y132.4 E70.68104
G1 X116.77 Y132.4 E70.72752
G1 X116.731 Y132.576 E70.73591
G1 X116.448 Y132.668 E70.74977
G1 X116.448 Y132.734 E70.75284
G1 X116.4 Y132.742 E70.7551
G1 X116.4 Y147.35 E71.43531
G1 X116.501 Y147.35 E71.44002
G1 X116.856 Y147.465 E71.45739
G0 F6000 X116.86 Y146.95
;TYPE:WALL-OUTER
G1 F1200 X116.866 Y147.048 E71.46197
G1 X117.118 Y147.13 E71.47431
G1 X117.162 Y147.2 E71.47815
G1 X117.832 Y147.2 E71.50935
G1 X117.934 Y147.2 E71.5141
G1 X117.936 Y147.178 E71.51513
G1 X118.2 Y146.815 E71.53603
G1 X118.2 Y133.185 E72.1707
G1 X117.903 Y132.777 E72.1942
G1 X117.832 Y132.8 E72.19768
G1 X117.09 Y132.8 E72.23223
G1 X117.071 Y132.885 E72.23628
G1 X116.848 Y132.958 E72.24721
G1 X116.848 Y133.073 E72.25256
G1 X116.8 Y133.081 E72.25483
G1 X116.8 Y146.95 E72.90063
G1 X116.86 Y146.95 E72.90342
G1 F2700 E67.90342
G0 F6000 X116.5 Y146.95
G0 X116.834 Y147.793
G0 X116.834 Y150.21
G0 X116.57 Y150.886
G0 X116.572 Y165.178
G0 X116.856 Y165.465
;TYPE:WALL-INNER
G1 F2700 E72.90342
G1 F1200 X116.941 Y165.6 E72.91085
