;FLAVOR:Marlin
;TIME:8693
;Filament used: 7.54688m
;Layer height: 0.28
;MINX:62
;MINY:39
;MINZ:0.28
;MAXX:158
;MAXY:181
;MAXZ:15.96
;Generated with Creality Slicer 4.8.2-191
M140 S50
M105
M190 S50
M104 S200
M105
M109 S200
M82 ;absolute extrusion mode

G28 ;Home

G92 E0 ;Reset Extruder
G1 Z2.0 F3000 ;Move Z Axis up
G1 X10.1 Y20 Z0.28 F5000.0 ;Move to start position
G1 X10.1 Y200.0 Z0.28 F1500.0 E15 ;Draw the first line
G1 X10.4 Y200.0 Z0.28 F5000.0 ;Move to side a little
G1 X10.4 Y20 Z0.28 F1500.0 E30 ;Draw the second line
G92 E0 ;Reset Extruder
G1 Z2.0 F3000 ;Move Z Axis up

G92 E0
G92 E0
G1 F2700 E-5
;LAYER_COUNT:57
;LAYER:0
M107
G0 F6000 X64.827 Y45.306 Z0.28
;TYPE:SKIRT
G1 F2700 E0
G1 F1200 X65.376 Y44.545 E0.04369
G1 X65.987 Y43.835 E0.08731
G1 X66.657 Y43.178 E0.13101
G1 X67.621 Y42.405 E0.18854
G1 X68.393 Y41.856 E0.23265
G1 X68.902 Y41.507 E0.26139
G1 X69.482 Y41.12 E0.29386
G1 X70.283 Y40.633 E0.33751
G1 X71.123 Y40.216 E0.38118
G1 X71.996 Y39.873 E0.42485
G1 X72.895 Y39.605 E0.46853
G1 X73.437 Y39.482 E0.49441
G1 X74.049 Y39.36 E0.52347
G1 X74.343 Y39.306 E0.53739
G1 X75.155 Y39.167 E0.57575
G1 X76.085 Y39.048 E0.61941
G1 X76.701 Y39.013 E0.64814
G1 X77.02 Y39.004 E0.663
G1 X77.33 Y39 E0.67743
G1 X142.293 Y39 E3.70238
G1 X143.155 Y39.011 E3.74253
G1 X143.652 Y39.029 E3.76568
G1 X144.123 Y39.057 E3.78765
G1 X145.056 Y39.153 E3.83133
G1 X145.977 Y39.328 E3.87498
G1 X147.208 Y39.693 E3.93477
G1 X148.131 Y40.027 E3.98047
G1 X148.524 Y40.176 E4.00004
G1 X149.317 Y40.49 E4.03976
G1 X150.173 Y40.872 E4.08341
G1 X150.994 Y41.326 E4.12709
G1 X151.773 Y41.849 E4.17078
G1 X152.504 Y42.436 E4.21444
G1 X153.378 Y43.29 E4.27134
G1 X153.971 Y43.94 E4.31231
G1 X154.405 Y44.431 E4.34282
G1 X154.858 Y44.956 E4.37511
G1 X155.44 Y45.691 E4.41876
G1 X155.957 Y46.474 E4.46245
G1 X156.406 Y47.298 E4.50615
G1 X156.783 Y48.156 E4.54979
G1 X157.169 Y49.348 E4.60813
G1 X157.407 Y50.259 E4.65197
G1 X157.545 Y50.821 E4.67892
G1 X157.705 Y51.51 E4.71186
G1 X157.878 Y52.432 E4.75554
G1 X157.986 Y53.692 E4.81442
G1 X157.996 Y54.051 E4.83115
G1 X158 Y54.357 E4.8454
G1 X157.999 Y165.427 E10.01728
G1 X157.989 Y166.147 E10.05081
G1 X157.936 Y167.083 E10.09447
G1 X157.76 Y168.232 E10.14859
G1 X157.691 Y168.564 E10.16438
G1 X157.597 Y168.977 E10.1841
G1 X157.346 Y169.983 E10.23238
G1 X157.176 Y170.633 E10.26367
G1 X156.9 Y171.53 E10.30737
G1 X156.549 Y172.399 E10.35101
G1 X156.125 Y173.236 E10.3947
G1 X155.632 Y174.033 E10.43834
G1 X154.881 Y175.015 E10.4959
G1 X154.262 Y175.734 E10.54008
G1 X153.845 Y176.202 E10.56927
G1 X153.409 Y176.68 E10.59939
G1 X152.773 Y177.323 E10.64151
G1 X152.06 Y177.933 E10.6852
G1 X151.299 Y178.48 E10.72884
G1 X150.493 Y178.96 E10.77252
G1 X149.321 Y179.507 E10.83274
G1 X148.454 Y179.849 E10.87614
G1 X147.941 Y180.043 E10.90168
G1 X147.24 Y180.298 E10.93642
G1 X146.346 Y180.581 E10.98008
G1 X145.431 Y180.787 E11.02375
G1 X144.548 Y180.909 E11.06526
G1 X144.069 Y180.949 E11.08764
G1 X143.758 Y180.968 E11.10215
G1 X143.403 Y180.983 E11.11869
G1 X142.986 Y180.995 E11.13812
G1 X142.67 Y181 E11.15284
G1 X77.55 Y180.999 E14.1851
G1 X76.848 Y180.989 E14.21779
G1 X75.912 Y180.936 E14.26144
G1 X74.998 Y180.805 E14.30444
G1 X73.967 Y180.622 E14.35319
G1 X73.485 Y180.528 E14.37606
G1 X72.573 Y180.309 E14.41973
G1 X71.683 Y180.014 E14.46339
G1 X70.822 Y179.643 E14.50705
G1 X69.995 Y179.201 E14.55071
G1 X69.483 Y178.879 E14.57888
G1 X68.668 Y178.333 E14.62456
G1 X68.234 Y178.032 E14.64915
G1 X67.657 Y177.623 E14.68208
G1 X66.915 Y177.049 E14.72576
G1 X66.226 Y176.413 E14.76943
G1 X65.593 Y175.721 E14.8131
G1 X65.021 Y174.978 E14.85676
G1 X64.358 Y173.911 E14.91525
G1 X63.882 Y173.034 E14.96172
G1 X63.618 Y172.527 E14.98833
G1 X63.306 Y171.909 E15.02057
G1 X62.92 Y171.055 E15.06421
G1 X62.607 Y170.171 E15.10788
G1 X62.371 Y169.263 E15.15156
G1 X62.22 Y168.39 E15.19281
G1 X62.137 Y167.745 E15.2231
G1 X62.078 Y167.222 E15.2476
G1 X62.013 Y166.293 E15.29097
G1 X62.004 Y165.967 E15.30615
G1 X62 Y165.663 E15.32031
G1 X62.001 Y54.549 E20.49424
G1 X62.011 Y53.852 E20.5267
G1 X62.058 Y52.988 E20.56699
G1 X62.079 Y52.763 E20.57751
G1 X62.12 Y52.391 E20.59494
G1 X62.212 Y51.671 E20.62874
G1 X62.454 Y50.385 E20.68967
G1 X62.72 Y49.486 E20.73333
G1 X63.062 Y48.612 E20.77703
G1 X63.305 Y48.097 E20.80355
G1 X63.688 Y47.338 E20.84313
G1 X64.008 Y46.729 E20.87517
G1 X64.344 Y46.11 E20.90796
G1 X64.827 Y45.306 E20.95164
G0 F6000 X65.17 Y45.512
G1 F1200 X65.711 Y44.767 E20.99451
G1 X66.314 Y44.071 E21.03739
G1 X66.975 Y43.431 E21.08023
G1 X67.853 Y42.731 E21.13252
G1 X68.62 Y42.185 E21.17636
G1 X69.124 Y41.84 E21.2048
G1 X69.704 Y41.453 E21.23726
G1 X70.491 Y40.975 E21.28014
G1 X71.317 Y40.568 E21.32302
G1 X72.175 Y40.234 E21.36589
G1 X73.058 Y39.976 E21.40873
G1 X73.515 Y39.875 E21.43052
G1 X74.127 Y39.753 E21.45958
G1 X74.41 Y39.7 E21.47298
G1 X75.222 Y39.561 E21.51134
G1 X76.136 Y39.445 E21.55425
G1 X76.712 Y39.413 E21.58111
G1 X77.031 Y39.404 E21.59597
G1 X77.33 Y39.4 E21.60989
G1 X142.293 Y39.4 E24.63484
G1 X143.149 Y39.411 E24.6747
G1 X143.628 Y39.429 E24.69702
G1 X144.099 Y39.457 E24.71899
G1 X145.015 Y39.551 E24.76187
G1 X145.919 Y39.725 E24.80474
G1 X147.072 Y40.069 E24.86076
G1 X147.989 Y40.401 E24.90618
G1 X148.531 Y40.608 E24.93319
G1 X149.169 Y40.861 E24.96515
G1 X150.01 Y41.238 E25.00807
G1 X150.814 Y41.685 E25.0509
G1 X151.577 Y42.201 E25.09379
G1 X152.292 Y42.781 E25.13666
G1 X153.083 Y43.56 E25.18836
G1 X153.672 Y44.206 E25.22906
G1 X154.102 Y44.692 E25.25928
G1 X154.555 Y45.217 E25.29157
G1 X155.126 Y45.94 E25.33447
G1 X155.632 Y46.709 E25.37733
G1 X156.069 Y47.519 E25.42019
G1 X156.434 Y48.364 E25.46305
G1 X156.782 Y49.45 E25.51615
G1 X157.019 Y50.354 E25.55966
G1 X157.155 Y50.911 E25.58636
G1 X157.315 Y51.6 E25.6193
G1 X157.484 Y52.505 E25.66217
G1 X157.586 Y53.703 E25.71815
G1 X157.596 Y54.062 E25.73488
G1 X157.6 Y54.357 E25.74861
G1 X157.599 Y165.421 E30.92022
G1 X157.589 Y166.141 E30.95375
G1 X157.536 Y167.06 E30.99661
G1 X157.368 Y168.151 E31.04801
G1 X157.299 Y168.483 E31.0638
G1 X157.209 Y168.88 E31.08276
G1 X156.959 Y169.882 E31.13085
G1 X156.789 Y170.532 E31.16213
G1 X156.518 Y171.412 E31.20501
G1 X156.171 Y172.265 E31.24789
G1 X155.752 Y173.084 E31.29072
G1 X155.263 Y173.864 E31.33359
G1 X154.577 Y174.754 E31.38591
G1 X153.962 Y175.468 E31.42979
G1 X153.549 Y175.932 E31.45872
G1 X153.113 Y176.41 E31.48885
G1 X152.5 Y177.03 E31.52944
G1 X151.8 Y177.629 E31.57234
G1 X151.051 Y178.164 E31.6152
G1 X150.258 Y178.632 E31.65808
G1 X149.173 Y179.135 E31.71377
G1 X148.312 Y179.476 E31.75689
G1 X147.805 Y179.667 E31.78212
G1 X147.104 Y179.922 E31.81685
G1 X146.226 Y180.199 E31.85972
G1 X145.327 Y180.399 E31.9026
G1 X144.509 Y180.511 E31.94105
G1 X144.044 Y180.549 E31.96277
G1 X143.733 Y180.568 E31.97728
G1 X143.392 Y180.584 E31.99318
G1 X142.975 Y180.596 E32.0126
G1 X142.67 Y180.6 E32.02681
G1 X77.556 Y180.599 E35.05879
G1 X76.854 Y180.589 E35.09148
G1 X75.935 Y180.536 E35.13434
G1 X75.071 Y180.412 E35.17499
G1 X74.044 Y180.229 E35.22356
G1 X73.562 Y180.135 E35.24643
G1 X72.667 Y179.92 E35.28929
G1 X71.794 Y179.628 E35.33215
G1 X70.949 Y179.261 E35.37505
G1 X70.14 Y178.822 E35.41791
G1 X69.705 Y178.547 E35.44187
G1 X69.04 Y178.103 E35.47911
G1 X68.465 Y177.706 E35.51164
G1 X67.888 Y177.297 E35.54457
G1 X67.161 Y176.732 E35.58745
G1 X66.485 Y176.107 E35.63032
G1 X65.867 Y175.425 E35.67317
G1 X65.309 Y174.692 E35.71607
G1 X64.709 Y173.719 E35.7693
G1 X64.237 Y172.849 E35.81539
G1 X63.976 Y172.347 E35.84173
G1 X63.664 Y171.729 E35.87397
G1 X63.285 Y170.89 E35.91684
G1 X62.98 Y170.021 E35.95972
G1 X62.752 Y169.129 E36.00259
G1 X62.617 Y168.337 E36.04
G1 X62.535 Y167.7 E36.06991
G1 X62.476 Y167.177 E36.09442
G1 X62.413 Y166.282 E36.13619
G1 X62.404 Y165.956 E36.15138
G1 X62.4 Y165.663 E36.16502
G1 X62.401 Y54.555 E41.33868
G1 X62.411 Y53.858 E41.37114
G1 X62.456 Y53.025 E41.40998
G1 X62.477 Y52.8 E41.4205
G1 X62.516 Y52.441 E41.43732
G1 X62.608 Y51.721 E41.47112
G1 X62.842 Y50.482 E41.52983
G1 X63.104 Y49.599 E41.57272
G1 X63.442 Y48.743 E41.61557
G1 X63.663 Y48.278 E41.63954
G1 X64.131 Y47.353 E41.68782
G1 X64.36 Y46.92 E41.71062
G1 X64.696 Y46.301 E41.74342
G1 X65.17 Y45.512 E41.78628
G0 F6000 X65.513 Y45.718
G1 F1200 X66.045 Y44.988 E41.82834
G1 X66.64 Y44.309 E41.87038
G1 X67.292 Y43.684 E41.91243
G1 X68.086 Y43.056 E41.95957
G1 X68.708 Y42.612 E41.99516
G1 X69.346 Y42.172 E42.03125
G1 X69.926 Y41.785 E42.06371
G1 X70.698 Y41.318 E42.10573
G1 X71.509 Y40.921 E42.14777
G1 X72.352 Y40.596 E42.18984
G1 X73.593 Y40.267 E42.24962
G1 X74.205 Y40.145 E42.27868
G1 X74.478 Y40.094 E42.29161
G1 X75.29 Y39.955 E42.32997
G1 X76.186 Y39.842 E42.37203
G1 X76.723 Y39.813 E42.39707
G1 X77.042 Y39.804 E42.41193
G1 X77.33 Y39.8 E42.42534
G1 X142.293 Y39.8 E45.45029
G1 X143.143 Y39.811 E45.48987
G1 X143.604 Y39.828 E45.51135
G1 X144.075 Y39.856 E45.53332
G1 X144.974 Y39.949 E45.57541
G1 X145.86 Y40.122 E45.61744
G1 X146.937 Y40.445 E45.6698
G1 X147.847 Y40.775 E45.71487
G1 X148.384 Y40.98 E45.74164
G1 X149.022 Y41.233 E45.77359
G1 X149.846 Y41.603 E45.81565
G1 X150.634 Y42.044 E45.8577
G1 X151.38 Y42.553 E45.89975
G1 X152.078 Y43.127 E45.94183
G1 X152.788 Y43.83 E45.98836
G1 X153.373 Y44.472 E46.0288
G1 X153.8 Y44.954 E46.05879
G1 X154.253 Y45.479 E46.09108
G1 X154.812 Y46.188 E46.13312
G1 X155.306 Y46.944 E46.17517
G1 X155.731 Y47.74 E46.21719
G1 X156.085 Y48.571 E46.25925
G1 X156.396 Y49.551 E46.30712
G1 X156.594 Y50.305 E46.34342
G1 X156.766 Y51.002 E46.37685
G1 X156.926 Y51.691 E46.40979
G1 X157.091 Y52.579 E46.45184
G1 X157.186 Y53.714 E46.50488
G1 X157.196 Y54.073 E46.5216
G1 X157.2 Y54.357 E46.53483
G1 X157.199 Y165.416 E51.7062
G1 X157.189 Y166.136 E51.73973
G1 X157.137 Y167.037 E51.78175
G1 X156.977 Y168.07 E51.83043
G1 X156.908 Y168.402 E51.84622
G1 X156.82 Y168.784 E51.86447
G1 X156.572 Y169.781 E51.91231
G1 X156.402 Y170.431 E51.94359
G1 X156.135 Y171.294 E51.98566
G1 X155.793 Y172.129 E52.02767
G1 X155.378 Y172.932 E52.06976
G1 X154.894 Y173.694 E52.1118
G1 X154.274 Y174.494 E52.15893
G1 X153.771 Y175.08 E52.19489
G1 X153.254 Y175.663 E52.23117
G1 X152.818 Y176.141 E52.2613
G1 X152.227 Y176.738 E52.30041
G1 X151.54 Y177.324 E52.34246
G1 X150.804 Y177.847 E52.3845
G1 X150.024 Y178.304 E52.4266
G1 X149.026 Y178.763 E52.47775
G1 X148.169 Y179.102 E52.52066
G1 X147.668 Y179.291 E52.5456
G1 X146.967 Y179.546 E52.58033
G1 X146.105 Y179.817 E52.6224
G1 X145.223 Y180.011 E52.66446
G1 X144.47 Y180.113 E52.69984
G1 X144.02 Y180.15 E52.72086
G1 X143.709 Y180.169 E52.73537
G1 X143.38 Y180.184 E52.75071
G1 X142.963 Y180.196 E52.77013
G1 X142.67 Y180.2 E52.78378
G1 X77.562 Y180.199 E55.81548
G1 X76.86 Y180.189 E55.84817
G1 X75.958 Y180.136 E55.89024
G1 X75.144 Y180.019 E55.92854
G1 X74.121 Y179.836 E55.97693
G1 X73.639 Y179.742 E55.99979
G1 X72.761 Y179.53 E56.04185
G1 X71.905 Y179.242 E56.08391
G1 X71.078 Y178.878 E56.12598
G1 X69.927 Y178.214 E56.18785
G1 X69.262 Y177.77 E56.22509
G1 X68.696 Y177.379 E56.25712
G1 X68.119 Y176.97 E56.29005
G1 X67.406 Y176.416 E56.3321
G1 X66.745 Y175.801 E56.37414
G1 X66.141 Y175.13 E56.41618
G1 X65.599 Y174.407 E56.45825
G1 X65.061 Y173.528 E56.50624
G1 X64.591 Y172.663 E56.55208
G1 X64.333 Y172.167 E56.57811
G1 X64.021 Y171.549 E56.61035
G1 X63.65 Y170.725 E56.65243
G1 X63.353 Y169.872 E56.69449
G1 X63.133 Y168.997 E56.7365
G1 X63.013 Y168.285 E56.77012
G1 X62.955 Y167.845 E56.79078
G1 X62.873 Y167.132 E56.8242
G1 X62.813 Y166.27 E56.86444
G1 X62.804 Y165.944 E56.87962
G1 X62.8 Y165.663 E56.89271
G1 X62.801 Y54.561 E62.06608
G1 X62.811 Y53.864 E62.09854
G1 X62.854 Y53.062 E62.13594
G1 X62.875 Y52.837 E62.14646
G1 X62.913 Y52.492 E62.16263
G1 X63.005 Y51.772 E62.19642
G1 X63.231 Y50.579 E62.25296
G1 X63.488 Y49.714 E62.29498
G1 X63.821 Y48.874 E62.33706
G1 X64.02 Y48.458 E62.35853
G1 X64.485 Y47.54 E62.40645
G1 X64.712 Y47.111 E62.42905
G1 X65.048 Y46.492 E62.46184
G1 X65.513 Y45.718 E62.50389
G1 F2700 E57.50389
;MESH:top-plate.stl
G0 F6000 X72.347 Y166.653
G0 X72.453 Y167.12
G0 X73.495 Y169.105
G0 X75.34 Y170.379
G0 X76.347 Y170.653
G0 X143.653 Y170.653
G0 X145.66 Y169.854
G0 X147.147 Y168.176
G0 X147.504 Y166.73
G0 X142.622 Y165.528
G0 X142.559 Y166.402
G0 X142.766 Y167.338
;TYPE:WALL-INNER
G1 F2700 E62.50389
G1 F1200 X143.169 Y167.564 E62.5254
G1 X143.631 Y167.608 E62.54701
G1 X144.068 Y167.459 E62.56851
G1 X144.403 Y167.155 E62.58958
G1 X144.589 Y166.731 E62.61113
G1 X144.589 Y166.269 E62.63265
G1 X144.4 Y165.841 E62.65443
G1 X144.045 Y165.528 E62.67647
G1 X143.602 Y165.389 E62.69809
G1 X143.144 Y165.444 E62.71957
G1 X142.753 Y165.673 E62.74067
G1 X142.482 Y166.049 E62.76225
G1 X142.387 Y166.5 E62.78371
G1 X142.482 Y166.956 E62.8054
G1 X142.766 Y167.338 E62.82757
G0 F6000 X143.036 Y167.031
;TYPE:WALL-OUTER
G1 F1200 X143.291 Y167.174 E62.84118
G1 X143.583 Y167.202 E62.85484
G1 X143.86 Y167.107 E62.86848
G1 X144.071 Y166.916 E62.88173
G1 X144.189 Y166.647 E62.89541
G1 X144.189 Y166.353 E62.9091
G1 X144.07 Y166.083 E62.92283
G1 X143.844 Y165.884 E62.93686
G1 X143.564 Y165.796 E62.95052
G1 X143.274 Y165.831 E62.96412
G1 X143.028 Y165.975 E62.9774
G1 X142.856 Y166.214 E62.99111
G1 X142.796 Y166.5 E63.00472
G1 X142.856 Y166.788 E63.01841
G1 X143.036 Y167.031 E63.0325
G0 F6000 X142.746 Y167.361
G1 F2700 E58.0325
G0 F6000 X142.304 Y165.97
G0 X142.304 Y170.665
G0 X128.884 Y158.401
G0 X122.965 Y158.337
G0 X123.32 Y156.655
G0 X126.911 Y156.597
G0 X118.404 Y148.823
G0 X118.337 Y147.965
G0 X117.602 Y148.003
G0 X117.199 Y147.664
G0 X108.404 Y139.685
G0 X108.337 Y144.035
G0 X106.796 Y143.597
G0 X106.594 Y138.03
G0 X98.404 Y130.546
G0 X98.337 Y125.965
G0 X96.655 Y126.316
G0 X96.595 Y128.892
G0 X87.058 Y120.178
G0 X87.611 Y121.885
G0 X87.363 Y121.6
;TYPE:WALL-INNER
G1 F2700 E63.0325
G1 F1200 X87.537 Y121.657 E63.04102
G1 X88.6 Y120.195 E63.12519
G1 X88.6 Y61.805 E65.84407
G1 X87.537 Y60.343 E65.92824
G1 X87.364 Y60.4 E65.93673
G1 X84.428 Y60.4 E66.07344
G1 X84.413 Y60.709 E66.08784
G1 X83.592 Y60.976 E66.12804
G1 X83.591 Y61.4 E66.14779
G1 X83.4 Y61.4 E66.15668
G1 X83.4 Y120.6 E68.91328
G1 X83.591 Y120.6 E68.92217
G1 X83.591 Y121.024 E68.94192
G1 X84.4 Y121.286 E68.98151
G1 X84.4 Y121.6 E68.99613
G1 X87.363 Y121.6 E69.1341
G0 F6000 X87.189 Y121.122
;TYPE:WALL-OUTER
G1 F1200 X87.385 Y121.186 E69.14371
G1 X88.2 Y120.065 E69.20824
G1 X88.2 Y61.935 E71.91502
G1 X87.385 Y60.814 E71.97955
G1 X87.171 Y60.884 E71.99004
G1 X87.161 Y60.8 E71.99398
G1 X84.809 Y60.8 E72.1035
G1 X84.799 Y61.004 E72.11301
G1 X83.991 Y61.267 E72.15257
G1 X83.99 Y61.8 E72.17739
G1 X83.8 Y61.8 E72.18624
G1 X83.8 Y120.2 E74.90559
G1 X83.991 Y120.2 E74.91448
G1 X83.991 Y120.733 E74.9393
G1 X84.8 Y120.996 E74.97891
G1 X84.8 Y121.2 E74.98841
G1 X87.182 Y121.2 E75.09933
G1 X87.189 Y121.122 E75.10297
G1 F2700 E70.10297
G0 F6000 X87.189 Y121.5
G0 X84.572 Y121.428
G0 X83.759 Y120.901
G0 X83.591 Y120.476
G0 X83.21 Y61.21
G0 X78.167 Y55.627
G0 X77.631 Y55.608
;TYPE:WALL-INNER
G1 F2700 E75.10297
G1 F1200 X78.068 Y55.459 E75.12447
G1 X78.403 Y55.155 E75.14554
G1 X78.589 Y54.731 E75.16709
G1 X78.589 Y54.269 E75.18861
G1 X78.4 Y53.841 E75.21039
G1 X78.045 Y53.528 E75.23243
G1 X77.602 Y53.389 E75.25405
G1 X77.144 Y53.444 E75.27553
G1 X76.753 Y53.673 E75.29663
G1 X76.482 Y54.049 E75.31821
G1 X76.387 Y54.5 E75.33967
G1 X76.482 Y54.956 E75.36136
G1 X76.766 Y55.338 E75.38353
G1 X77.169 Y55.564 E75.40504
G1 X77.631 Y55.608 E75.42665
G0 F6000 X77.583 Y55.202
;TYPE:WALL-OUTER
G1 F1200 X77.86 Y55.107 E75.44029
G1 X78.071 Y54.916 E75.45354
G1 X78.189 Y54.647 E75.46722
G1 X78.189 Y54.353 E75.48091
G1 X78.07 Y54.083 E75.49465
G1 X77.844 Y53.884 E75.50867
G1 X77.564 Y53.796 E75.52234
G1 X77.274 Y53.831 E75.53594
G1 X77.028 Y53.975 E75.54921
G1 X76.856 Y54.214 E75.56292
G1 X76.796 Y54.5 E75.57653
G1 X76.856 Y54.788 E75.59023
G1 X77.036 Y55.031 E75.60431
G1 X77.291 Y55.174 E75.61792
G1 X77.583 Y55.202 E75.63158
G0 F6000 X77.634 Y55.638
G1 F2700 E70.63158
G0 F6000 X78.78 Y54.771
G0 X78.78 Y49.335
G0 X143.564 Y49.351
G0 X145.66 Y50.146
G0 X147.147 Y51.824
G0 X147.664 Y53.92
G0 X147.665 Y55.036
G0 X142.304 Y55.036
G0 X143.169 Y55.564
;TYPE:WALL-INNER
