;FLAVOR:Marlin
;TIME:19135
;Filament used: 18.4269m
;Layer height: 0.28
;MINX:30.5
;MINY:9.5
;MINZ:0.28
;MAXX:204.5
;MAXY:225.5
;MAXZ:11.76
;Generated with Cura_SteamEngine 5.4.0
M140 S50
M105
M190 S50
M104 S200
M105
M109 S200
M82 ;absolute extrusion mode
; Ender 3 Custom Start G-code
G92 E0 ; Reset Extruder
G28 ; Home all axes
G1 Z2.0 F3000 ; Move Z Axis up little to prevent scratching of Heat Bed
G1 X0.1 Y20 Z0.3 F5000.0 ; Move to start position
G1 X0.1 Y200.0 Z0.3 F1500.0 E15 ; Draw the first line
G1 X0.4 Y200.0 Z0.3 F5000.0 ; Move to side a little
G1 X0.4 Y20 Z0.3 F1500.0 E30 ; Draw the second line
G92 E0 ; Reset Extruder
G1 Z2.0 F3000 ; Move Z Axis up little to prevent scratching of Heat Bed
G1 X5 Y20 Z0.3 F5000.0 ; Move over to prevent blob squish
G92 E0
G92 E0
G1 F2700 E-5
;LAYER_COUNT:42
;LAYER:0
M107
G0 F6000 X30.929 Y9.5 Z0.28
;TYPE:SKIRT
G1 F2700 E0
G1 F1200 X30.716 Y10.39 E0.04261
G1 X30.57 Y11.352 E0.08792
G1 X30.512 Y12.325 E0.13331
G1 X30.501 Y13.025 E0.16591
G1 X30.5 Y222.158 E9.90402
G1 X30.514 Y222.809 E9.93434
G1 X30.612 Y223.988 E9.98942
G1 X30.79 Y224.957 E10.0353
G1 X30.94 Y225.5 E10.06153
G1 F2700 E5.06153
G0 F6000 X31.34 Y9.5
G1 F2700 E10.06153
G1 F1200 X31.105 Y10.483 E10.10859
G1 X30.966 Y11.411 E10.15229
G1 X30.911 Y12.348 E10.19599
G1 X30.901 Y13.031 E10.2278
G1 X30.9 Y222.158 E19.96563
G1 X30.913 Y222.776 E19.99441
G1 X31.011 Y223.955 E20.0495
G1 X31.183 Y224.884 E20.09349
G1 X31.355 Y225.5 E20.12327
G1 F2700 E15.12327
G0 F6000 X31.77 Y9.5
G1 F2700 E20.12327
G1 F1200 X31.704 Y9.698 E20.13299
G1 X31.494 Y10.576 E20.17503
G1 X31.362 Y11.469 E20.21706
G1 X31.31 Y12.371 E20.25913
G1 X31.301 Y13.036 E20.2901
G1 X31.3 Y222.158 E30.0277
G1 X31.313 Y222.767 E30.05606
G1 X31.41 Y223.922 E30.11003
G1 X31.576 Y224.81 E30.1521
G1 X31.77 Y225.5 E30.18547
G1 F2700 E25.18547
G0 F6000 X204.07 Y225.5
G1 F2700 E30.18547
G1 F1200 X204.286 Y224.599 E30.22862
G1 X204.431 Y223.636 E30.27396
G1 X204.488 Y222.663 E30.31935
G1 X204.499 Y221.9 E30.35488
G1 X204.5 Y12.83 E40.09005
G1 X204.485 Y12.155 E40.12149
G1 X204.39 Y11.025 E40.1743
G1 X204.213 Y10.059 E40.22003
G1 X204.059 Y9.5 E40.24703
G0 F6000 X203.645 Y9.5
G1 F1200 X203.82 Y10.132 E40.27756
G1 X203.991 Y11.059 E40.32145
G1 X204.086 Y12.189 E40.37426
G1 X204.1 Y12.83 E40.40411
G1 X204.099 Y221.895 E50.13905
G1 X204.089 Y222.64 E50.17375
G1 X204.035 Y223.577 E50.21745
G1 X203.897 Y224.506 E50.26118
G1 X203.659 Y225.5 E50.30878
G1 F2700 E45.30878
G0 F6000 X203.23 Y9.5
G1 F2700 E50.30878
G1 F1200 X203.427 Y10.205 E50.34286
G1 X203.592 Y11.093 E50.38492
G1 X203.687 Y12.223 E50.43772
G1 X203.7 Y12.83 E50.46599
G1 X203.699 Y221.89 E60.2007
G1 X203.69 Y222.617 E60.23456
G1 X203.639 Y223.519 E60.27663
G1 X203.508 Y224.413 E60.3187
G1 X203.299 Y225.291 E60.36072
G1 X203.229 Y225.5 E60.37099
G1 F2700 E55.37099
;MESH:body-4t-top-front.stl
G0 F6000 X177.594 Y214.479
G0 X153.095 Y211.334
G0 X150.358 Y210.654
;TYPE:WALL-INNER
G1 F2700 E60.37099
G1 F1200 X149.977 Y209.942 E60.40859
G1 X149.815 Y209.412 E60.4344
G1 X149.752 Y209.114 E60.44858
G1 F1197 X149.701 Y208.753 E60.4656
G1 F1194 X149.701 Y180.774 E61.77493
G1 F1188.1 X149.701 Y152.795 E63.09078
G1 F1191.1 X149.817 Y152.232 E63.11775
G1 F1200 X149.901 Y151.961 E63.13096
G1 X150.127 Y151.399 E63.15916
G1 X150.502 Y150.82 E63.19128
G1 X150.87 Y150.422 E63.21652
G1 X151.336 Y150.034 E63.24476
G1 X151.969 Y149.679 E63.27855
G1 X152.33 Y149.546 E63.29647
G1 X152.997 Y149.391 E63.32835
G1 X153.293 Y149.367 E63.34218
G1 F1191.1 X165.548 Y149.367 E63.91711
G1 F1173.6 X177.803 Y149.368 E64.50059
G1 F1182.3 X178.223 Y149.436 E64.5207
G1 F1200 X178.506 Y149.505 E64.53426
G1 X179.006 Y149.671 E64.55879
G1 X179.654 Y150.027 E64.59322
G1 X180.13 Y150.422 E64.62202
G1 X180.304 Y150.606 E64.63382
G1 X180.599 Y150.976 E64.65585
G1 X180.773 Y151.239 E64.67053
G1 X180.969 Y151.617 E64.69036
G1 X181.071 Y151.877 E64.70337
G1 X181.223 Y152.402 E64.72882
G1 X181.298 Y152.944 E64.75429
G1 X181.298 Y208.677 E67.34946
G1 X181.272 Y208.988 E67.36399
G1 X181.126 Y209.725 E67.39897
G1 X180.743 Y210.488 E67.43873
G1 X180.598 Y210.692 E67.45038
G1 X180.176 Y211.207 E67.48138
G1 X179.719 Y211.592 E67.50921
G1 X179.508 Y211.745 E67.52134
G1 X179.269 Y211.87 E67.5339
G1 X178.731 Y212.101 E67.56117
G1 X178.421 Y212.209 E67.57645
G1 X177.71 Y212.298 E67.60982
G1 X153.219 Y212.295 E68.75022
G1 X152.848 Y212.264 E68.76756
G1 X152.209 Y212.07 E68.79865
G1 X151.901 Y211.945 E68.81413
G1 X151.416 Y211.684 E68.83978
G1 X150.815 Y211.203 E68.87562
G1 X150.358 Y210.654 E68.90888
G0 F6000 X150.706 Y210.448
G1 F1200 X150.35 Y209.795 E68.94351
G1 X150.164 Y209.185 E68.97321
G1 X150.102 Y208.653 E68.99815
G1 X150.106 Y152.874 E71.59545
G1 X150.223 Y152.235 E71.6257
G1 X150.483 Y151.587 E71.65821
G1 X150.815 Y151.071 E71.68678
G1 X151.148 Y150.711 E71.70962
G1 X151.563 Y150.365 E71.73478
G1 X152.146 Y150.038 E71.7659
G1 X152.427 Y149.934 E71.77986
G1 X153.135 Y149.767 E71.81373
G1 X177.766 Y149.772 E72.96065
G1 X178.264 Y149.847 E72.9841
G1 X178.854 Y150.042 E73.01304
G1 X179.433 Y150.362 E73.04384
G1 X179.928 Y150.773 E73.0738
G1 X180.367 Y151.339 E73.10715
G1 X180.653 Y151.874 E73.1354
G1 X180.831 Y152.485 E73.16503
G1 X180.898 Y152.972 E73.18792
G1 X180.892 Y208.852 E75.78993
G1 X180.731 Y209.624 E75.82665
G1 X180.369 Y210.326 E75.86343
G1 X179.952 Y210.863 E75.89509
G1 X179.461 Y211.286 E75.92527
G1 X179.239 Y211.447 E75.93804
G1 X178.573 Y211.733 E75.97179
G1 X178.262 Y211.826 E75.9869
G1 X177.686 Y211.898 E76.01393
G1 X153.219 Y211.895 E77.15322
G1 X152.932 Y211.871 E77.16663
G1 X152.325 Y211.687 E77.19616
G1 X152.085 Y211.59 E77.20822
G1 X151.64 Y211.352 E77.23171
G1 X151.1 Y210.92 E77.26392
G1 X150.706 Y210.448 E77.29254
G0 F6000 X151.378 Y210.631
G1 F1200 X151.022 Y210.194 E77.31879
G1 X150.721 Y209.642 E77.34807
G1 F1203 X150.555 Y209.095 E77.37462
G1 X150.502 Y208.636 E77.39608
G1 F1200 X150.504 Y152.907 E79.99106
G1 X150.609 Y152.345 E80.01768
G1 X150.843 Y151.764 E80.04684
G1 X151.131 Y151.32 E80.07149
G1 X151.425 Y150.999 E80.09175
G1 X151.773 Y150.704 E80.113
G1 X152.406 Y150.351 E80.14675
G1 X153.184 Y150.167 E80.18397
G1 X177.729 Y150.17 E81.32689
G1 X178.183 Y150.24 E81.34828
G1 X178.728 Y150.428 E81.37513
G1 X179.208 Y150.695 E81.4007
G1 X179.638 Y151.052 E81.42673
G1 X180.035 Y151.553 E81.45649
G1 X180.281 Y152.028 E81.4814
G1 X180.44 Y152.568 E81.50761
G1 X180.498 Y153.001 E81.52795
G1 X180.494 Y208.776 E84.12507
G1 X180.352 Y209.492 E84.15906
G1 X180.032 Y210.11 E84.19147
G1 X179.632 Y210.612 E84.22135
G1 X179.094 Y211.073 E84.25434
G1 X178.286 Y211.42 E84.29529
G1 X177.66 Y211.498 E84.32467
G1 X153.068 Y211.495 E85.46977
G1 X152.35 Y211.277 E85.50471
G1 X151.901 Y211.039 E85.52838
G1 X151.378 Y210.631 E85.55926
G0 F6000 X151.381 Y210.01
G1 F1200 X151.106 Y209.514 E85.58567
G1 X150.949 Y209.017 E85.60994
G1 X150.902 Y208.619 E85.6286
G1 X150.903 Y152.94 E88.22125
G1 X150.995 Y152.458 E88.2441
G1 X151.198 Y151.952 E88.26948
G1 X151.43 Y151.593 E88.28939
G1 X151.702 Y151.287 E88.30845
G1 X152.035 Y151.016 E88.32844
G1 X152.548 Y150.729 E88.35582
G1 X153.223 Y150.567 E88.38814
G1 X177.693 Y150.569 E89.52756
G1 X178.081 Y150.629 E89.54585
G1 X178.558 Y150.787 E89.56924
G1 X179.007 Y151.047 E89.5934
G1 X179.348 Y151.331 E89.61407
G1 X179.695 Y151.772 E89.6402
G1 X179.907 Y152.173 E89.66132
G1 X180.049 Y152.651 E89.68454
G1 X180.094 Y152.998 E89.70083
G1 X180.096 Y208.737 E92.29627
G1 X179.969 Y209.371 E92.32638
G1 X179.695 Y209.894 E92.35387
G1 X179.349 Y210.334 E92.37994
G1 X178.854 Y210.742 E92.40981
G1 X178.178 Y211.026 E92.44395
G1 X177.668 Y211.094 E92.46791
G1 X153.143 Y211.095 E93.60989
G1 X152.506 Y210.907 E93.64082
G1 X152.114 Y210.7 E93.66146
G1 X151.664 Y210.343 E93.68821
G1 X151.381 Y210.01 E93.70856
G1 F2700 E88.70856
G0 F6000 X151.152 Y210.202
G0 X146.239 Y211.264
G0 X120.864 Y212.265
G1 F2700 E93.70856
G1 F1200 X120.026 Y212.022 E93.74919
G1 X119.773 Y211.9 E93.76227
G1 X119.016 Y211.392 E93.80472
G1 X118.742 Y211.123 E93.8226
G1 X118.342 Y210.622 E93.85245
G1 X117.977 Y209.944 E93.8883
G1 X117.816 Y209.413 E93.91414
G1 X117.752 Y209.114 E93.92838
G1 F1197 X117.701 Y208.753 E93.9454
G1 F1194 X117.701 Y194.775 E94.59952
G1 F1185.2 X117.701 Y180.797 E95.25853
G1 F1179.4 X117.701 Y166.819 E95.9208
G1 F1170.7 X117.701 Y152.841 E96.58795
G1 F1182.3 X117.832 Y152.149 E96.62123
G1 F1200 X117.921 Y151.822 E96.63701
G1 X118.359 Y151.013 E96.67985
G1 X118.862 Y150.424 E96.71592
G1 X119.216 Y150.132 E96.73728
G1 X119.453 Y149.97 E96.75065
G1 X119.964 Y149.681 E96.77799
G1 X120.326 Y149.547 E96.79596
G1 F1203 X120.998 Y149.391 E96.828
G1 X121.294 Y149.367 E96.8418
G1 F1191.1 X133.549 Y149.367 E97.41672
G1 F1173.6 X145.804 Y149.368 E98.00021
G1 F1182.3 X146.223 Y149.436 E98.02027
G1 F1200 X146.506 Y149.505 E98.03383
G1 X147.006 Y149.671 E98.05836
G1 X147.654 Y150.027 E98.09279
G1 X148.19 Y150.472 E98.12523
G1 X148.7 Y151.103 E98.16301
G1 X148.962 Y151.6 E98.18917
G1 X149.071 Y151.877 E98.20303
G1 X149.198 Y152.303 E98.22373
G1 F1197 X149.249 Y152.553 E98.23564
G1 F1179.4 X149.292 Y152.849 E98.24981
G1 F1170.7 X149.295 Y180.852 E99.58635
G1 F1182.3 X149.299 Y208.855 E100.90984
G1 F1194 X149.168 Y209.511 E100.94115
G1 F1200 X149.077 Y209.841 E100.95709
G1 X148.703 Y210.555 E100.99462
G1 X148.228 Y211.155 E101.03025
G1 X147.69 Y211.615 E101.06321
G1 X147.402 Y211.806 E101.0793
G1 X146.731 Y212.101 E101.11344
G1 X146.421 Y212.209 E101.12872
G1 X145.71 Y212.298 E101.16209
G1 X121.222 Y212.295 E102.30235
G1 X120.864 Y212.265 E102.31908
G0 F6000 X121.053 Y211.895
G1 F1200 X120.261 Y211.674 E102.35737
G1 X119.969 Y211.551 E102.37212
G1 X119.265 Y211.079 E102.41159
G1 X119.052 Y210.869 E102.42552
G1 X118.683 Y210.41 E102.45294
G1 X118.351 Y209.799 E102.48532
G1 X118.164 Y209.186 E102.51516
G1 X118.102 Y208.653 E102.54015
G1 X118.106 Y152.824 E105.13978
G1 X118.225 Y152.226 E105.16817
G1 X118.323 Y151.919 E105.18318
G1 X118.712 Y151.213 E105.22071
G1 X119.172 Y150.687 E105.25325
G1 X119.556 Y150.371 E105.2764
G1 X120.142 Y150.039 E105.30777
G1 X120.424 Y149.935 E105.32176
G1 F1203 X121.135 Y149.767 E105.3557
G1 X145.766 Y149.772 E106.49975
G1 F1200 X146.264 Y149.847 E106.5232
G1 X146.854 Y150.042 E106.55214
G1 X147.433 Y150.362 E106.58294
G1 X147.907 Y150.756 E106.61164
G1 X148.365 Y151.325 E106.64565
G1 X148.65 Y151.866 E106.67413
G1 X148.838 Y152.494 E106.70465
G1 X148.897 Y153.014 E106.72902
G1 F1203 X148.893 Y208.794 E109.31988
G1 X148.776 Y209.433 E109.35005
G1 F1200 X148.705 Y209.688 E109.36238
G1 X148.368 Y210.333 E109.39626
G1 X147.936 Y210.88 E109.42872
G1 X147.439 Y211.304 E109.45914
G1 X147.196 Y211.462 E109.47263
G1 X146.573 Y211.733 E109.50427
G1 X146.262 Y211.826 E109.51938
G1 X145.686 Y211.898 E109.54641
G1 X121.053 Y211.895 E110.69343
G0 F6000 X121.1 Y211.495
G1 F1200 X120.239 Y211.252 E110.73509
G1 X119.443 Y210.718 E110.77972
G1 X119.041 Y210.219 E110.80956
G1 X118.721 Y209.643 E110.84024
G1 F1203 X118.556 Y209.097 E110.86673
G1 X118.502 Y208.636 E110.88829
G1 F1200 X118.504 Y152.907 E113.48327
G1 X118.643 Y152.163 E113.51851
G1 X119.049 Y151.427 E113.55765
G1 X119.443 Y150.981 E113.58536
G1 X119.777 Y150.707 E113.60548
G1 F1203 X120.404 Y150.35 E113.63899
G1 X121.185 Y150.167 E113.67625
G1 X145.729 Y150.17 E114.81626
G1 F1200 X146.183 Y150.24 E114.83765
G1 X146.728 Y150.428 E114.8645
G1 X147.207 Y150.695 E114.89003
G1 X147.62 Y151.036 E114.91497
G1 X148.036 Y151.555 E114.94594
G1 X148.279 Y152.023 E114.9705
G1 X148.443 Y152.571 E114.99713
G1 X148.498 Y153.031 E115.01871
G1 X148.496 Y208.796 E117.61536
G1 X148.354 Y209.498 E117.64871
G1 X148.012 Y210.141 E117.68262
G1 X147.646 Y210.602 E117.71003
G1 X147.096 Y211.071 E117.74369
G1 X146.287 Y211.42 E117.78471
G1 X145.66 Y211.498 E117.81413
G1 X121.1 Y211.495 E118.95775
G0 F6000 X121.147 Y211.095
G1 F1200 X120.405 Y210.883 E118.99368
G1 X119.72 Y210.424 E119.03208
G1 X119.371 Y209.993 E119.0579
G1 X119.106 Y209.514 E119.08339
G1 X118.949 Y209.019 E119.10757
G1 X118.902 Y208.619 E119.12633
G1 X118.903 Y152.94 E121.71897
G1 X119.039 Y152.266 E121.75099
G1 X119.381 Y151.659 E121.78343
G1 X119.691 Y151.298 E121.80559
G1 X120.003 Y151.038 E121.8245
G1 F1203 X120.547 Y150.728 E121.85358
G1 X121.224 Y150.567 E121.88591
G1 X145.693 Y150.569 E123.02244
G1 F1200 X146.081 Y150.629 E123.04072
G1 X146.558 Y150.787 E123.06412
G1 X147.007 Y151.047 E123.08828
G1 X147.353 Y151.341 E123.10942
G1 X147.712 Y151.8 E123.13655
G1 X147.905 Y152.168 E123.1559
G1 X148.04 Y152.618 E123.17778
G1 X148.098 Y153.048 E123.19798
G1 F1203 X148.096 Y208.727 E125.78415
G1 X147.979 Y209.338 E125.81304
G1 X147.697 Y209.898 E125.84216
G1 X147.336 Y210.343 E125.86878
G1 F1200 X146.879 Y210.73 E125.89666
G1 X146.178 Y211.026 E125.9321
G1 X145.668 Y211.094 E125.95606
G1 X121.147 Y211.095 E127.09786
G0 F6000 X121.146 Y211.395
G0 X120.627 Y214.253
G1 F1200 X120.159 Y214.143 E127.12024
G1 X119.589 Y213.978 E127.14787
G1 X119.178 Y213.831 E127.1682
G1 X118.794 Y213.644 E127.18809
G1 X118.577 Y213.512 E127.19991
G1 X118.018 Y213.138 E127.23123
G1 X117.774 Y212.96 E127.24529
G1 X117.491 Y212.716 E127.26269
G1 X117.218 Y212.971 E127.28009
G1 X116.981 Y213.158 E127.29415
G1 X116.593 Y213.405 E127.31556
G1 X116.027 Y213.711 E127.34552
G1 X115.662 Y213.885 E127.36435
G1 X115.271 Y214.02 E127.38361
G1 X114.938 Y214.116 E127.39975
G1 X114.543 Y214.206 E127.41861
G1 X114.066 Y214.271 E127.44103
G1 X113.601 Y214.298 E127.46272
G1 X89.222 Y214.295 E128.59791
G1 X88.627 Y214.253 E128.62568
G1 X88.159 Y214.143 E128.64807
G1 X87.589 Y213.978 E128.6757
G1 X87.178 Y213.831 E128.69603
G1 X86.794 Y213.644 E128.71591
G1 X86.577 Y213.512 E128.72774
G1 X86.018 Y213.138 E128.75906
G1 X85.774 Y212.96 E128.77312
G1 X85.491 Y212.716 E128.79052
G1 X85.218 Y212.971 E128.80792
G1 X84.981 Y213.158 E128.82197
G1 X84.593 Y213.405 E128.84339
G1 X84.027 Y213.711 E128.87335
G1 X83.662 Y213.885 E128.89218
G1 X83.271 Y214.02 E128.91144
G1 X82.938 Y214.116 E128.92758
G1 X82.543 Y214.206 E128.94644
G1 X82.066 Y214.271 E128.96886
G1 X81.601 Y214.298 E128.99055
G1 X57.222 Y214.295 E130.12574
G1 X56.627 Y214.253 E130.15351
G1 X56.159 Y214.143 E130.1759
G1 X55.589 Y213.978 E130.20353
G1 X55.035 Y213.768 E130.23112
G1 X54.537 Y213.486 E130.25776
G1 X54.018 Y213.138 E130.28686
G1 X53.71 Y212.908 E130.30476
G1 X53.436 Y212.657 E130.32206
G1 X53.196 Y212.391 E130.33875
G1 X52.842 Y211.956 E130.36486
G1 X52.536 Y211.486 E130.39098
G1 X52.323 Y211.099 E130.41154
G1 X52.152 Y210.746 E130.42981
G1 X52.016 Y210.369 E130.44847
G1 X51.902 Y209.993 E130.46677
G1 X51.795 Y209.547 E130.48812
G1 X51.731 Y209.066 E130.51072
G1 X51.702 Y208.594 E130.53274
G1 X51.702 Y152.99 E133.12189
G1 X51.719 Y152.62 E133.13914
G1 X51.758 Y152.333 E133.15263
G1 X51.87 Y151.763 E133.17968
G1 X52.005 Y151.262 E133.20384
G1 X52.201 Y150.794 E133.22746
G1 X52.658 Y149.975 E133.27113
G1 X52.826 Y149.733 E133.28485
G1 X52.987 Y149.533 E133.29681
G1 X53.298 Y149.178 E133.31878
G1 X53.133 Y148.985 E133.33061
G1 X52.815 Y148.577 E133.35469
G1 X52.568 Y148.234 E133.37438
G1 X52.228 Y147.582 E133.40862
G1 X52.015 Y147.034 E133.43599
G1 X51.901 Y146.657 E133.45433
G1 X51.795 Y146.214 E133.47554
G1 X51.731 Y145.733 E133.49814
G1 X51.702 Y145.261 E133.52016
G1 X51.702 Y89.739 E136.10549
G1 X51.731 Y89.267 E136.12751
G1 X51.768 Y88.971 E136.1414
G1 X51.821 Y88.651 E136.15651
G1 X51.902 Y88.34 E136.17147
G1 X52.016 Y87.964 E136.18977
G1 X52.229 Y87.417 E136.2171
G1 X52.492 Y86.92 E136.24328
G1 X52.627 Y86.688 E136.25578
G1 X52.824 Y86.406 E136.2718
G1 X53.278 Y85.831 E136.30591
G1 X52.818 Y85.249 E136.34046
G1 X52.619 Y84.968 E136.35649
G1 X52.481 Y84.738 E136.36898
G1 X52.229 Y84.252 E136.39447
G1 X52.012 Y83.694 E136.42235
G1 X51.899 Y83.318 E136.44063
G1 X51.795 Y82.881 E136.46155
G1 X51.731 Y82.4 E136.48414
G1 X51.702 Y81.928 E136.50616
G1 X51.702 Y26.323 E139.09536
G1 X51.719 Y25.949 E139.1128
G1 X51.758 Y25.666 E139.1261
G1 X51.87 Y25.099 E139.15301
G1 X51.956 Y24.752 E139.16966
G1 X52.073 Y24.419 E139.18609
G1 X52.217 Y24.104 E139.20222
G1 X52.426 Y23.696 E139.22357
