;FLAVOR:Marlin
;TIME:3214
;Filament used: 3.1588m
;Layer height: 0.28
;MINX:73
;MINY:60.5
;MINZ:0.28
;MAXX:162
;MAXY:174.5
;MAXZ:12.04
;Generated with Cura_SteamEngine 5.4.0
M140 S50
M105
M190 S50
M104 S200
M105
M109 S200
M82 ;absolute extrusion mode
; Ender 3 Custom Start G-code
G92 E0 ; Reset Extruder
G28 ; Home all axes
G1 Z2.0 F3000 ; Move Z Axis up little to prevent scratching of Heat Bed
G1 X0.1 Y20 Z0.3 F5000.0 ; Move to start position
G1 X0.1 Y200.0 Z0.3 F1500.0 E15 ; Draw the first line
G1 X0.4 Y200.0 Z0.3 F5000.0 ; Move to side a little
G1 X0.4 Y20 Z0.3 F1500.0 E30 ; Draw the second line
G92 E0 ; Reset Extruder
G1 Z2.0 F3000 ; Move Z Axis up little to prevent scratching of Heat Bed
G1 X5 Y20 Z0.3 F5000.0 ; Move over to prevent blob squish
G92 E0
G92 E0
G1 F2700 E-5
;LAYER_COUNT:43
;LAYER:0
M107
G0 F6000 X75.731 Y64.265 Z0.28
;TYPE:SKIRT
G1 F2700 E0
G1 F1200 X76.456 Y63.513 E0.04864
G1 X77.192 Y62.876 E0.09396
G1 X77.924 Y62.346 E0.13605
G1 X78.821 Y61.811 E0.18468
G1 X79.699 Y61.39 E0.23002
G1 X80.612 Y61.048 E0.27542
G1 X81.549 Y60.789 E0.32068
G1 X82.516 Y60.611 E0.36647
G1 X83.655 Y60.515 E0.41969
G1 X84.312 Y60.5 E0.45029
G1 X150.304 Y60.5 E3.52316
G1 X151.184 Y60.513 E3.56414
G1 X152.156 Y60.572 E3.60948
G1 X153.119 Y60.718 E3.65484
G1 X154.066 Y60.949 E3.70022
G1 X154.954 Y61.249 E3.74387
G1 X155.846 Y61.639 E3.7892
G1 X156.729 Y62.126 E3.83616
G1 X157.48 Y62.628 E3.87822
G1 X158.295 Y63.286 E3.92699
G1 X158.993 Y63.964 E3.9723
G1 X159.629 Y64.701 E4.01763
G1 X160.199 Y65.491 E4.06299
G1 X160.661 Y66.267 E4.10505
G1 X161.115 Y67.209 E4.15374
G1 X161.444 Y68.087 E4.1974
G1 X161.713 Y69.059 E4.24436
G1 X161.89 Y70.025 E4.29009
G1 X161.985 Y71.155 E4.34289
G1 X162 Y71.83 E4.37433
G1 X161.999 Y110.927 E6.19485
G1 X161.987 Y111.682 E6.23001
G1 X161.929 Y112.657 E6.27549
G1 X161.782 Y113.618 E6.32076
G1 X161.552 Y114.565 E6.36614
G1 X161.243 Y115.48 E6.41111
G1 X160.957 Y116.149 E6.44499
G1 X160.733 Y116.63 E6.4697
G1 X159.912 Y118.319 E6.55714
G1 X158.885 Y120.596 E6.67345
G1 X157.908 Y122.934 E6.79144
G1 X157.007 Y125.275 E6.90825
G1 X156.165 Y127.662 E7.02611
G1 X155.399 Y130.049 E7.14284
G1 X154.697 Y132.464 E7.25995
G1 X154.067 Y134.89 E7.37666
G1 X153.497 Y137.376 E7.49542
G1 X153.007 Y139.819 E7.61144
G1 X152.579 Y142.319 E7.72955
G1 X152.231 Y144.779 E7.84523
G1 X151.946 Y147.294 E7.96309
G1 X151.734 Y149.775 E8.07904
G1 X151.594 Y152.256 E8.19475
G1 X151.511 Y156.2 E8.37844
G1 X151.51 Y162.916 E8.69116
G1 X151.498 Y163.677 E8.7266
G1 X151.44 Y164.65 E8.77199
G1 X151.294 Y165.613 E8.81734
G1 X151.063 Y166.56 E8.86273
G1 X150.75 Y167.482 E8.90807
G1 X150.358 Y168.373 E8.9534
G1 X149.906 Y169.195 E8.99708
G1 X149.344 Y170.033 E9.04406
G1 X148.754 Y170.763 E9.08777
G1 X148.051 Y171.489 E9.13483
G1 X147.315 Y172.125 E9.18012
G1 X146.525 Y172.695 E9.22548
G1 X145.749 Y173.158 E9.26756
G1 X144.809 Y173.611 E9.31615
G1 X143.896 Y173.953 E9.36154
G1 X142.958 Y174.212 E9.40686
G1 X141.992 Y174.389 E9.45259
G1 X140.856 Y174.485 E9.50567
G1 X140.117 Y174.5 E9.54009
G1 X138.398 Y174.49 E9.62013
G1 X137.712 Y174.462 E9.6521
G1 X136.865 Y174.402 E9.69164
G1 X134.313 Y174.256 E9.81067
G1 X131.749 Y174.183 E9.93011
G1 X129.258 Y174.183 E10.0461
G1 X126.723 Y174.254 E10.16419
G1 X124.164 Y174.398 E10.28353
G1 X123.298 Y174.461 E10.32396
G1 X122.805 Y174.487 E10.34695
G1 X122.181 Y174.5 E10.37601
G1 X120.038 Y174.499 E10.4758
G1 X119.307 Y174.487 E10.50984
G1 X118.419 Y174.437 E10.55126
G1 X115.278 Y174.163 E10.69807
G1 X112.772 Y174.022 E10.81495
G1 X110.246 Y173.951 E10.93261
G1 X107.752 Y173.951 E11.04874
G1 X105.194 Y174.023 E11.1679
G1 X102.743 Y174.163 E11.28222
G1 X99.431 Y174.451 E11.43702
G1 X98.805 Y174.487 E11.46622
G1 X98.181 Y174.5 E11.49528
G1 X95.053 Y174.499 E11.64093
G1 X94.32 Y174.488 E11.67507
G1 X93.348 Y174.431 E11.72041
G1 X92.385 Y174.285 E11.76576
G1 X91.439 Y174.056 E11.81108
G1 X90.515 Y173.744 E11.85649
G1 X89.625 Y173.352 E11.90178
G1 X88.802 Y172.901 E11.94548
G1 X87.963 Y172.34 E11.99247
G1 X87.259 Y171.774 E12.03454
G1 X86.506 Y171.049 E12.08321
G1 X85.869 Y170.313 E12.12853
G1 X85.339 Y169.582 E12.17058
G1 X84.803 Y168.685 E12.21923
G1 X84.381 Y167.807 E12.26459
G1 X84.039 Y166.895 E12.30995
G1 X83.779 Y165.957 E12.35527
G1 X83.601 Y164.988 E12.40115
G1 X83.502 Y163.785 E12.45735
G1 X83.489 Y163.176 E12.48572
G1 X83.489 Y156.143 E12.8132
G1 X83.452 Y153.549 E12.934
G1 X83.343 Y151.003 E13.05267
G1 X83.168 Y148.523 E13.16843
G1 X82.923 Y146.056 E13.28387
G1 X82.594 Y143.491 E13.40429
G1 X82.208 Y141.03 E13.52028
G1 X81.752 Y138.576 E13.63651
G1 X81.216 Y136.093 E13.75479
G1 X80.619 Y133.654 E13.87171
G1 X79.951 Y131.221 E13.98919
G1 X79.227 Y128.861 E14.10414
G1 X78.402 Y126.416 E14.2243
G1 X77.537 Y124.068 E14.34081
G1 X76.613 Y121.771 E14.4561
G1 X75.585 Y119.411 E14.57596
G1 X74.455 Y117 E14.69995
G1 X74.112 Y116.296 E14.73641
G1 X73.72 Y115.385 E14.78259
G1 X73.436 Y114.528 E14.82463
G1 X73.196 Y113.511 E14.87329
G1 X73.068 Y112.617 E14.91534
G1 X73.015 Y111.827 E14.95221
G1 X73 Y111.17 E14.98281
G1 X73.001 Y72.025 E16.80557
G1 X73.012 Y71.325 E16.83817
G1 X73.07 Y70.352 E16.88355
G1 X73.216 Y69.389 E16.92891
G1 X73.446 Y68.443 E16.97424
G1 X73.759 Y67.52 E17.01962
G1 X74.151 Y66.63 E17.06491
G1 X74.621 Y65.777 E17.11026
G1 X75.164 Y64.969 E17.15559
G1 X75.731 Y64.265 E17.19768
G0 F6000 X76.043 Y64.516
G1 F1200 X76.718 Y63.815 E17.24299
G1 X77.427 Y63.2 E17.2867
G1 X78.159 Y62.67 E17.32878
G1 X78.995 Y62.171 E17.37411
G1 X79.84 Y61.764 E17.41779
G1 X80.719 Y61.433 E17.46152
G1 X81.622 Y61.182 E17.50516
G1 X82.55 Y61.01 E17.54911
G1 X83.689 Y60.914 E17.60234
G1 X84.321 Y60.9 E17.63177
G1 X150.298 Y60.9 E20.70394
G1 X151.16 Y60.912 E20.74408
G1 X152.097 Y60.968 E20.78779
G1 X153.025 Y61.107 E20.83148
G1 X153.938 Y61.328 E20.87522
G1 X154.794 Y61.616 E20.91728
G1 X155.686 Y62.006 E20.96261
G1 X156.507 Y62.459 E21.00627
G1 X157.258 Y62.961 E21.04833
G1 X158.017 Y63.573 E21.09373
G1 X158.691 Y64.226 E21.13743
G1 X159.305 Y64.935 E21.1811
G1 X159.855 Y65.696 E21.22483
G1 X160.317 Y66.472 E21.26688
G1 X160.74 Y67.349 E21.31222
G1 X161.069 Y68.227 E21.35588
G1 X161.32 Y69.132 E21.39961
G1 X161.491 Y70.059 E21.4435
G1 X161.586 Y71.189 E21.4963
G1 X161.6 Y71.83 E21.52616
G1 X161.599 Y110.921 E23.3464
G1 X161.588 Y111.659 E23.38077
G1 X161.533 Y112.597 E23.42452
G1 X161.393 Y113.524 E23.46817
G1 X161.173 Y114.437 E23.5119
G1 X160.875 Y115.323 E23.55543
G1 X160.594 Y115.98 E23.5887
G1 X160.373 Y116.455 E23.6131
G1 X159.552 Y118.144 E23.70055
G1 X158.52 Y120.432 E23.81742
G1 X157.539 Y122.78 E23.93591
G1 X156.634 Y125.131 E24.05322
G1 X155.788 Y127.529 E24.17162
G1 X155.018 Y129.927 E24.2889
G1 X154.313 Y132.352 E24.40649
G1 X153.68 Y134.789 E24.52373
G1 X153.107 Y137.287 E24.64307
G1 X152.615 Y139.74 E24.75957
G1 X152.185 Y142.252 E24.87824
G1 X151.835 Y144.723 E24.99445
G1 X151.547 Y147.26 E25.11334
G1 X151.336 Y149.741 E25.22928
G1 X151.194 Y152.248 E25.34621
G1 X151.111 Y156.192 E25.5299
G1 X151.11 Y162.91 E25.84271
G1 X151.099 Y163.654 E25.87736
G1 X151.044 Y164.591 E25.92107
G1 X150.905 Y165.519 E25.96476
G1 X150.684 Y166.432 E26.0085
G1 X150.384 Y167.321 E26.05219
G1 X150.007 Y168.18 E26.09587
G1 X149.555 Y169.002 E26.13955
G1 X149.032 Y169.782 E26.18328
G1 X148.466 Y170.485 E26.22531
G1 X147.789 Y171.187 E26.27072
G1 X147.081 Y171.801 E26.31436
G1 X146.32 Y172.351 E26.35808
G1 X145.544 Y172.814 E26.40016
G1 X144.668 Y173.237 E26.44545
G1 X143.789 Y173.568 E26.48919
G1 X142.885 Y173.819 E26.53287
G1 X141.958 Y173.99 E26.57677
G1 X140.822 Y174.086 E26.62985
G1 X140.119 Y174.1 E26.66259
G1 X138.414 Y174.09 E26.74199
G1 X137.74 Y174.063 E26.7734
G1 X136.893 Y174.003 E26.81294
G1 X134.324 Y173.856 E26.93275
G1 X131.76 Y173.783 E27.05219
G1 X129.247 Y173.783 E27.16921
G1 X126.712 Y173.854 E27.2873
G1 X124.135 Y173.999 E27.40748
G1 X123.277 Y174.062 E27.44754
G1 X122.797 Y174.087 E27.46992
G1 X122.181 Y174.1 E27.49861
G1 X120.044 Y174.099 E27.59812
G1 X119.329 Y174.088 E27.63142
G1 X118.454 Y174.039 E27.67223
G1 X115.303 Y173.764 E27.81951
G1 X112.783 Y173.622 E27.93703
G1 X110.257 Y173.551 E28.0547
G1 X107.741 Y173.551 E28.17186
G1 X105.183 Y173.623 E28.29102
G1 X102.719 Y173.764 E28.40594
G1 X99.408 Y174.052 E28.56069
G1 X98.797 Y174.087 E28.58919
G1 X98.181 Y174.1 E28.61788
G1 X95.059 Y174.099 E28.76325
G1 X94.343 Y174.089 E28.7966
G1 X93.407 Y174.035 E28.84025
G1 X92.478 Y173.896 E28.88399
G1 X91.566 Y173.677 E28.92767
G1 X90.676 Y173.378 E28.97139
G1 X89.817 Y173.001 E29.01507
G1 X88.994 Y172.55 E29.05877
G1 X88.214 Y172.028 E29.10247
G1 X87.51 Y171.462 E29.14453
G1 X86.808 Y170.787 E29.18988
G1 X86.193 Y170.078 E29.23358
G1 X85.663 Y169.347 E29.27563
G1 X85.163 Y168.511 E29.32099
G1 X84.755 Y167.666 E29.36468
G1 X84.424 Y166.788 E29.40837
G1 X84.172 Y165.884 E29.45207
G1 X84 Y164.955 E29.49606
G1 X83.902 Y163.776 E29.55115
G1 X83.889 Y163.167 E29.57952
G1 X83.889 Y156.143 E29.90658
G1 X83.852 Y153.543 E30.02766
G1 X83.743 Y150.986 E30.14683
G1 X83.567 Y148.495 E30.26311
G1 X83.32 Y146.005 E30.37963
G1 X82.991 Y143.44 E30.50004
G1 X82.603 Y140.968 E30.61656
G1 X82.145 Y138.503 E30.73331
G1 X81.605 Y135.998 E30.85263
G1 X81.008 Y133.559 E30.96955
G1 X80.336 Y131.115 E31.08758
G1 X79.606 Y128.733 E31.20358
G1 X78.781 Y126.288 E31.32374
G1 X77.912 Y123.93 E31.44076
G1 X76.98 Y121.611 E31.55713
G1 X75.952 Y119.251 E31.677
G1 X74.817 Y116.83 E31.8015
G1 X74.472 Y116.121 E31.83822
G1 X74.1 Y115.259 E31.88194
G1 X73.816 Y114.402 E31.92398
G1 X73.592 Y113.454 E31.96933
G1 X73.464 Y112.56 E32.01139
G1 X73.415 Y111.818 E32.04601
G1 X73.4 Y111.17 E32.07619
G1 X73.401 Y72.031 E33.89867
G1 X73.411 Y71.348 E33.93048
G1 X73.466 Y70.411 E33.97418
G1 X73.605 Y69.483 E34.01788
G1 X73.825 Y68.571 E34.06156
G1 X74.125 Y67.681 E34.10529
G1 X74.502 Y66.822 E34.14898
G1 X74.953 Y66 E34.19263
G1 X75.476 Y65.22 E34.23636
G1 X76.043 Y64.516 E34.27845
G0 F6000 X76.355 Y64.767
G1 F1200 X76.981 Y64.117 E34.32048
G1 X77.662 Y63.524 E34.36252
G1 X78.394 Y62.994 E34.4046
G1 X79.169 Y62.531 E34.44664
G1 X79.982 Y62.138 E34.48869
G1 X80.827 Y61.818 E34.53076
G1 X81.696 Y61.575 E34.57278
G1 X82.584 Y61.409 E34.61484
G1 X83.723 Y61.313 E34.66807
G1 X84.33 Y61.3 E34.69634
G1 X150.293 Y61.3 E37.76785
G1 X151.137 Y61.311 E37.80716
G1 X152.039 Y61.364 E37.84923
G1 X152.932 Y61.496 E37.89126
G1 X153.81 Y61.707 E37.93331
G1 X154.666 Y61.995 E37.97537
G1 X155.493 Y62.357 E38.0174
G1 X156.285 Y62.792 E38.05948
G1 X157.036 Y63.294 E38.10154
G1 X157.739 Y63.861 E38.14359
G1 X158.389 Y64.488 E38.18565
G1 X158.981 Y65.17 E38.2277
G1 X159.511 Y65.901 E38.26974
G1 X159.973 Y66.677 E38.3118
G1 X160.366 Y67.49 E38.35384
G1 X160.684 Y68.335 E38.39589
G1 X160.927 Y69.205 E38.43795
G1 X161.092 Y70.093 E38.48
G1 X161.187 Y71.223 E38.53281
G1 X161.2 Y71.83 E38.56108
G1 X161.199 Y110.915 E40.38104
G1 X161.189 Y111.636 E40.41461
G1 X161.137 Y112.538 E40.45669
G1 X161.004 Y113.431 E40.49873
G1 X160.794 Y114.31 E40.54081
G1 X160.507 Y115.166 E40.58285
G1 X160.232 Y115.811 E40.6155
G1 X160.013 Y116.28 E40.6396
G1 X159.192 Y117.969 E40.72705
G1 X158.155 Y120.267 E40.84444
G1 X157.17 Y122.626 E40.96348
G1 X156.261 Y124.987 E41.08128
G1 X155.411 Y127.396 E41.20023
G1 X154.637 Y129.805 E41.31805
G1 X153.929 Y132.24 E41.43613
G1 X153.293 Y134.688 E41.55391
G1 X152.717 Y137.197 E41.67377
G1 X152.223 Y139.661 E41.79079
G1 X151.791 Y142.185 E41.91003
G1 X151.439 Y144.667 E42.02676
G1 X151.148 Y147.226 E42.14668
G1 X150.938 Y149.707 E42.26262
G1 X150.794 Y152.24 E42.38076
G1 X150.711 Y156.184 E42.56445
G1 X150.71 Y162.904 E42.87736
G1 X150.7 Y163.631 E42.91122
G1 X150.648 Y164.533 E42.95329
G1 X150.516 Y165.426 E42.99532
G1 X150.305 Y166.305 E43.03741
G1 X150.018 Y167.161 E43.07945
G1 X149.656 Y167.988 E43.12149
G1 X149.222 Y168.78 E43.16354
G1 X148.72 Y169.531 E43.2056
G1 X148.154 Y170.234 E43.24763
G1 X147.527 Y170.885 E43.28972
G1 X146.846 Y171.477 E43.33173
G1 X146.115 Y172.007 E43.37378
G1 X145.339 Y172.47 E43.41585
G1 X144.526 Y172.863 E43.4579
G1 X143.681 Y173.183 E43.49998
G1 X142.812 Y173.426 E43.54199
G1 X141.924 Y173.591 E43.58405
G1 X140.788 Y173.687 E43.63713
G1 X140.121 Y173.7 E43.6682
G1 X138.43 Y173.69 E43.74694
G1 X137.768 Y173.664 E43.77779
G1 X136.921 Y173.604 E43.81733
G1 X134.335 Y173.456 E43.93794
G1 X131.771 Y173.383 E44.05738
G1 X129.236 Y173.383 E44.17542
G1 X126.701 Y173.454 E44.29351
G1 X124.105 Y173.6 E44.41458
G1 X123.257 Y173.663 E44.45417
G1 X122.788 Y173.687 E44.47604
G1 X122.181 Y173.7 E44.50431
G1 X120.05 Y173.699 E44.60354
G1 X119.351 Y173.689 E44.63609
G1 X118.493 Y173.641 E44.67611
G1 X117.944 Y173.587 E44.70179
G1 X115.337 Y173.366 E44.82362
G1 X112.794 Y173.222 E44.94222
G1 X110.268 Y173.151 E45.05989
G1 X107.73 Y173.151 E45.17807
G1 X105.172 Y173.223 E45.29723
G1 X102.695 Y173.365 E45.41276
G1 X99.385 Y173.653 E45.56747
G1 X98.788 Y173.687 E45.59531
G1 X98.181 Y173.7 E45.62358
G1 X95.064 Y173.699 E45.76872
G1 X94.366 Y173.69 E45.80123
G1 X93.465 Y173.639 E45.84325
G1 X92.571 Y173.507 E45.88533
G1 X91.693 Y173.298 E45.92735
G1 X90.836 Y173.011 E45.96944
G1 X90.009 Y172.65 E46.01146
G1 X89.216 Y172.217 E46.05353
G1 X88.465 Y171.716 E46.09556
G1 X87.761 Y171.15 E46.13763
G1 X87.11 Y170.524 E46.17968
G1 X86.517 Y169.843 E46.22173
G1 X85.987 Y169.112 E46.26377
G1 X85.523 Y168.337 E46.30583
G1 X85.129 Y167.524 E46.3479
G1 X84.809 Y166.68 E46.38993
G1 X84.565 Y165.81 E46.432
G1 X84.399 Y164.922 E46.47407
G1 X84.302 Y163.767 E46.52804
G1 X84.289 Y163.158 E46.5564
G1 X84.289 Y156.143 E46.88305
G1 X84.252 Y153.537 E47.00441
G1 X84.143 Y150.969 E47.1241
G1 X83.966 Y148.467 E47.24089
G1 X83.717 Y145.954 E47.35848
G1 X83.388 Y143.389 E47.47889
G1 X82.998 Y140.906 E47.59593
G1 X82.538 Y138.43 E47.7132
G1 X81.994 Y135.903 E47.83356
G1 X81.397 Y133.464 E47.95048
G1 X80.721 Y131.009 E48.06905
G1 X79.985 Y128.605 E48.18612
G1 X79.16 Y126.16 E48.30628
G1 X78.287 Y123.792 E48.4238
G1 X77.347 Y121.451 E48.54126
G1 X76.319 Y119.091 E48.66113
G1 X75.179 Y116.66 E48.78615
G1 X74.839 Y115.962 E48.82231
G1 X74.48 Y115.133 E48.86437
G1 X74.196 Y114.276 E48.90641
G1 X73.988 Y113.397 E48.94847
G1 X73.86 Y112.503 E48.99052
G1 X73.815 Y111.809 E49.02291
G1 X73.8 Y111.17 E49.05267
G1 X73.801 Y72.036 E50.87491
G1 X73.81 Y71.371 E50.90588
G1 X73.862 Y70.469 E50.94795
G1 X73.994 Y69.576 E50.98999
G1 X74.204 Y68.698 E51.03202
G1 X74.491 Y67.841 E51.07411
G1 X74.853 Y67.014 E51.11614
G1 X75.286 Y66.222 E51.15817
G1 X75.788 Y65.471 E51.20024
G1 X76.355 Y64.767 E51.24233
G1 F2700 E46.24233
;MESH:landscape_issue_18.stl
G0 F6000 X83.335 Y71.914
G0 X84.414 Y71.914
G0 X85 Y103.5
;TYPE:WALL-INNER
G1 F2700 E51.24233
G1 F1200 X85 Y110.5 E51.56828
G1 F2700 E46.56828
G0 F6000 X85.172 Y102.672
G0 X120.317 Y102.672
G0 X120.359 Y162.63
G0 X120.089 Y162.9
G1 F2700 E51.56828
G1 F1200 X121.911 Y162.9 E51.65312
G1 X121.911 Y103.5 E54.41903
G1 X121.98 Y103.219 E54.4325
G1 X122.098 Y103.064 E54.44157
G1 X122.298 Y102.938 E54.45258
G1 X122.454 Y102.902 E54.46003
G1 X138.581 Y102.906 E55.21098
G1 X138.805 Y102.989 E55.2221
G1 X138.956 Y103.122 E55.23147
G1 X139.089 Y103.5 E55.25013
G1 X139.089 Y162.9 E58.01604
G1 X139.911 Y162.9 E58.05432
G1 X139.911 Y103.5 E60.82023
G1 X140.044 Y103.122 E60.83889
G1 X140.195 Y102.989 E60.84826
G1 X140.419 Y102.906 E60.85938
G1 X149 Y102.9 E61.25895
G1 X149.232 Y102.945 E61.26995
G1 X149.481 Y103.139 E61.28465
G1 X149.6 Y103.5 E61.30235
G1 X149.6 Y110.9 E61.64692
G1 X150.4 Y110.9 E61.68418
G1 X150.4 Y72.1 E63.49087
G1 X84.6 Y72.1 E66.55479
G1 X84.6 Y110.9 E68.36148
G1 X85.4 Y110.9 E68.39873
G1 X85.4 Y103.5 E68.74331
G1 X85.519 Y103.139 E68.76101
G1 X85.769 Y102.946 E68.77571
G1 X86 Y102.9 E68.78668
G1 X94.54 Y102.902 E69.18434
G1 X94.767 Y102.967 E69.19533
G1 X94.966 Y103.134 E69.20743
G1 X95.05 Y103.284 E69.21544
G1 X95.089 Y103.5 E69.22566
G1 X95.089 Y162.9 E71.99157
G1 X97.911 Y162.9 E72.12297
G1 X97.911 Y103.5 E74.88889
G1 X97.95 Y103.284 E74.89911
G1 X98.117 Y103.047 E74.91261
G1 X98.271 Y102.949 E74.92111
G1 X98.48 Y102.9 E74.9311
G1 X119.518 Y102.9 E75.91072
G1 X119.702 Y102.938 E75.91947
