;FLAVOR:Marlin
;TIME:7231
;Filament used: 5.01179m
;Layer height: 0.16
;MINX:68.5
;MINY:85.5
;MINZ:0.2
;MAXX:166.5
;MAXY:149.5
;MAXZ:7.8
;Generated with Cura_SteamEngine 5.4.0
M140 S50
M105
M190 S50
M104 S200
M105
M109 S200
M82 ;absolute extrusion mode
; Ender 3 Custom Start G-code
G92 E0 ; Reset Extruder
G28 ; Home all axes
G1 Z2.0 F3000 ; Move Z Axis up little to prevent scratching of Heat Bed
G1 X0.1 Y20 Z0.3 F5000.0 ; Move to start position
G1 X0.1 Y200.0 Z0.3 F1500.0 E15 ; Draw the first line
G1 X0.4 Y200.0 Z0.3 F5000.0 ; Move to side a little
G1 X0.4 Y20 Z0.3 F1500.0 E30 ; Draw the second line
G92 E0 ; Reset Extruder
G1 Z2.0 F3000 ; Move Z Axis up little to prevent scratching of Heat Bed
G1 X5 Y20 Z0.3 F5000.0 ; Move over to prevent blob squish
G92 E0
G92 E0
G1 F2700 E-5
;LAYER_COUNT:39
;LAYER:0
M107
G0 F6000 X73.095 Y88.187 Z0.2
;TYPE:SKIRT
G1 F2700 E0
G1 F1200 X73.569 Y87.82 E0.01994
G1 X74.367 Y87.261 E0.05234
G1 X75.21 Y86.775 E0.08471
G1 X76.092 Y86.364 E0.11707
G1 X76.941 Y86.054 E0.14713
G1 X77.957 Y85.783 E0.18211
G1 X79.135 Y85.589 E0.22182
G1 X80.206 Y85.513 E0.25753
G1 X80.812 Y85.5 E0.27769
G1 X153.804 Y85.5 E2.70541
G1 X154.685 Y85.513 E2.73472
G1 X155.656 Y85.572 E2.76707
G1 X156.619 Y85.718 E2.79947
G1 X157.497 Y85.929 E2.8295
G1 X158.08 Y86.112 E2.84982
G1 X158.737 Y86.339 E2.87294
G1 X159.64 Y86.699 E2.90528
G1 X160.447 Y87.104 E2.93531
G1 X161.338 Y87.655 E2.97015
G1 X162.116 Y88.241 E3.00255
G1 X162.838 Y88.893 E3.0349
G1 X163.478 Y89.58 E3.06613
G1 X164.097 Y90.377 E3.0997
G1 X164.618 Y91.183 E3.13162
G1 X164.89 Y91.678 E3.1504
G1 X165.259 Y92.423 E3.17805
G1 X165.501 Y92.947 E3.19725
G1 X165.841 Y93.784 E3.2273
G1 X166.146 Y94.783 E3.26204
G1 X166.346 Y95.737 E3.29446
G1 X166.46 Y96.692 E3.32645
G1 X166.488 Y97.313 E3.34712
G1 X166.5 Y98.067 E3.37221
G1 X166.499 Y136.908 E4.66406
G1 X166.487 Y137.682 E4.68981
G1 X166.429 Y138.655 E4.72223
G1 X166.283 Y139.618 E4.75462
G1 X166.053 Y140.564 E4.787
G1 X165.755 Y141.45 E4.8181
G1 X165.481 Y142.1 E4.84156
G1 X165.178 Y142.746 E4.86529
G1 X164.943 Y143.216 E4.88277
G1 X164.467 Y144.067 E4.9152
G1 X163.918 Y144.87 E4.94755
G1 X163.324 Y145.596 E4.97875
G1 X162.619 Y146.319 E5.01234
G1 X161.934 Y146.907 E5.04236
G1 X161.082 Y147.515 E5.07718
G1 X160.243 Y148.005 E5.10949
G1 X159.399 Y148.405 E5.14056
G1 X158.713 Y148.669 E5.165
G1 X158.052 Y148.897 E5.18826
G1 X157.119 Y149.171 E5.2206
G1 X156.234 Y149.351 E5.25064
G1 X154.794 Y149.487 E5.29875
G1 X154.17 Y149.5 E5.31951
G1 X81.049 Y149.499 E7.75152
G1 X80.312 Y149.487 E7.77604
G1 X79.129 Y149.408 E7.81547
G1 X78.047 Y149.234 E7.85192
G1 X77.103 Y148.995 E7.88431
G1 X76.185 Y148.673 E7.91667
G1 X75.329 Y148.287 E7.9479
G1 X74.448 Y147.791 E7.98152
G1 X73.653 Y147.244 E8.01362
G1 X72.994 Y146.733 E8.04136
G1 X72.587 Y146.396 E8.05893
G1 X71.866 Y145.742 E8.09131
G1 X71.205 Y145.026 E8.12372
G1 X70.609 Y144.254 E8.15616
G1 X70.087 Y143.435 E8.18846
G1 X69.636 Y142.571 E8.22088
G1 X69.26 Y141.656 E8.25378
G1 X68.891 Y140.402 E8.29725
G1 X68.773 Y139.883 E8.31496
G1 X68.603 Y138.918 E8.34755
G1 X68.514 Y137.814 E8.38439
G1 X68.5 Y137.156 E8.40628
G1 X68.501 Y97.997 E9.70871
G1 X68.514 Y97.286 E9.73236
G1 X68.577 Y96.304 E9.76509
G1 X68.767 Y95.144 E9.80419
G1 X68.881 Y94.636 E9.8215
G1 X69.139 Y93.697 E9.85389
G1 X69.477 Y92.783 E9.8863
G1 X69.863 Y91.967 E9.91633
G1 X70.393 Y91.065 E9.95112
G1 X70.961 Y90.273 E9.98354
G1 X71.603 Y89.528 E10.01625
G1 X72.485 Y88.69 E10.05671
G1 X73.095 Y88.187 E10.08301
G0 F6000 X73.34 Y88.503
G1 F1200 X73.799 Y88.147 E10.10233
G1 X74.567 Y87.607 E10.13356
G1 X75.379 Y87.137 E10.16476
G1 X76.229 Y86.74 E10.19596
G1 X77.078 Y86.43 E10.22603
G1 X78.022 Y86.178 E10.25852
G1 X79.2 Y85.984 E10.29823
G1 X80.215 Y85.913 E10.33207
G1 X80.821 Y85.9 E10.35223
G1 X153.798 Y85.9 E12.77946
G1 X154.661 Y85.912 E12.80816
G1 X155.597 Y85.968 E12.83935
G1 X156.526 Y86.107 E12.87059
G1 X157.404 Y86.318 E12.90063
G1 X157.949 Y86.49 E12.91964
G1 X158.589 Y86.711 E12.94216
G1 X159.461 Y87.057 E12.97336
G1 X160.268 Y87.462 E13.00339
G1 X161.098 Y87.975 E13.03584
G1 X161.848 Y88.538 E13.06703
G1 X162.545 Y89.166 E13.09824
G1 X163.185 Y89.853 E13.12947
G1 X163.761 Y90.594 E13.16068
G1 X164.267 Y91.376 E13.19166
G1 X164.539 Y91.871 E13.21045
G1 X164.896 Y92.59 E13.23715
G1 X165.13 Y93.098 E13.25575
G1 X165.47 Y93.935 E13.2858
G1 X165.755 Y94.866 E13.31818
G1 X165.949 Y95.785 E13.34942
G1 X166.06 Y96.71 E13.38041
G1 X166.088 Y97.319 E13.40068
G1 X166.1 Y98.067 E13.42557
G1 X166.099 Y136.902 E14.71722
G1 X166.088 Y137.659 E14.7424
G1 X166.033 Y138.596 E14.77362
G1 X165.894 Y139.524 E14.80483
G1 X165.674 Y140.436 E14.83604
G1 X165.376 Y141.322 E14.86713
G1 X165.119 Y141.93 E14.88908
G1 X164.82 Y142.567 E14.91249
G1 X164.593 Y143.021 E14.92937
G1 X164.136 Y143.842 E14.96062
G1 X163.608 Y144.617 E14.99181
G1 X163.014 Y145.343 E15.02301
G1 X162.358 Y146.015 E15.05424
G1 X161.673 Y146.603 E15.08427
G1 X160.88 Y147.17 E15.11669
G1 X160.071 Y147.644 E15.14788
G1 X159.255 Y148.032 E15.17793
G1 X158.583 Y148.291 E15.20188
G1 X157.939 Y148.513 E15.22454
G1 X157.039 Y148.779 E15.25576
G1 X156.154 Y148.959 E15.28579
G1 X154.786 Y149.087 E15.33149
G1 X154.17 Y149.1 E15.35198
G1 X81.055 Y149.099 E17.7838
G1 X80.338 Y149.088 E17.80765
G1 X79.192 Y149.013 E17.84585
G1 X78.145 Y148.846 E17.88111
G1 X77.235 Y148.617 E17.91232
G1 X76.349 Y148.308 E17.94353
G1 X75.493 Y147.922 E17.97476
G1 X74.675 Y147.461 E18.00599
G1 X73.88 Y146.914 E18.03809
G1 X73.249 Y146.424 E18.06466
G1 X72.855 Y146.099 E18.08165
G1 X72.159 Y145.47 E18.11285
G1 X71.521 Y144.781 E18.14408
G1 X70.946 Y144.039 E18.1753
G1 X70.441 Y143.249 E18.20649
G1 X70.006 Y142.418 E18.23769
G1 X69.644 Y141.543 E18.26918
G1 X69.275 Y140.289 E18.31266
G1 X69.167 Y139.813 E18.32889
G1 X69.002 Y138.886 E18.36021
G1 X68.914 Y137.805 E18.39628
G1 X68.9 Y137.156 E18.41787
G1 X68.901 Y98.004 E19.72007
G1 X68.913 Y97.311 E19.74313
G1 X68.972 Y96.369 E19.77452
G1 X69.162 Y95.209 E19.81361
G1 X69.267 Y94.741 E19.82957
G1 X69.514 Y93.835 E19.8608
G1 X69.839 Y92.954 E19.89203
G1 X70.225 Y92.138 E19.92206
G1 X70.718 Y91.298 E19.95445
G1 X71.264 Y90.534 E19.98568
G1 X71.879 Y89.818 E20.01708
G1 X72.761 Y88.98 E20.05754
G1 X73.34 Y88.503 E20.08249
G0 F6000 X73.037 Y89.27
G1 F1200 X73.585 Y88.819 E20.1061
G1 X74.03 Y88.474 E20.12483
G1 X74.768 Y87.953 E20.15487
G1 X75.549 Y87.499 E20.18492
G1 X76.366 Y87.116 E20.21493
G1 X77.215 Y86.806 E20.24499
G1 X78.087 Y86.573 E20.27501
G1 X79.265 Y86.379 E20.31472
G1 X80.224 Y86.313 E20.34669
G1 X80.83 Y86.3 E20.36685
G1 X153.793 Y86.3 E22.79361
G1 X154.638 Y86.311 E22.82172
G1 X155.539 Y86.364 E22.85174
G1 X156.433 Y86.496 E22.88179
G1 X157.311 Y86.707 E22.91183
G1 X157.819 Y86.868 E22.92955
G1 X158.442 Y87.083 E22.95147
G1 X159.282 Y87.415 E22.98151
G1 X160.089 Y87.82 E23.01155
G1 X160.858 Y88.295 E23.04161
G1 X161.581 Y88.836 E23.07164
G1 X162.253 Y89.439 E23.10167
G1 X162.87 Y90.099 E23.13172
G1 X163.425 Y90.811 E23.16175
G1 X163.916 Y91.569 E23.19179
G1 X164.188 Y92.064 E23.21057
G1 X164.533 Y92.757 E23.23632
G1 X164.759 Y93.249 E23.25433
G1 X165.099 Y94.086 E23.28438
G1 X165.364 Y94.949 E23.3144
G1 X165.552 Y95.833 E23.34446
G1 X165.66 Y96.729 E23.37448
G1 X165.688 Y97.325 E23.39432
G1 X165.7 Y98.067 E23.41901
G1 X165.699 Y136.897 E24.7105
G1 X165.689 Y137.636 E24.73508
G1 X165.637 Y138.538 E24.76513
G1 X165.505 Y139.431 E24.79515
G1 X165.295 Y140.309 E24.82518
G1 X165.008 Y141.166 E24.85524
G1 X164.757 Y141.76 E24.87669
G1 X164.462 Y142.388 E24.89976
G1 X164.243 Y142.827 E24.91608
G1 X163.805 Y143.617 E24.94612
G1 X163.298 Y144.364 E24.97615
G1 X162.727 Y145.064 E25.0062
G1 X162.097 Y145.711 E25.03623
G1 X161.412 Y146.299 E25.06626
G1 X160.677 Y146.825 E25.09632
G1 X159.899 Y147.283 E25.12635
G1 X159.083 Y147.671 E25.1564
G1 X158.452 Y147.913 E25.17888
G1 X157.825 Y148.13 E25.20095
G1 X156.959 Y148.387 E25.23099
G1 X156.074 Y148.567 E25.26103
G1 X154.777 Y148.687 E25.30435
G1 X154.17 Y148.7 E25.32454
G1 X81.061 Y148.699 E27.75616
G1 X80.364 Y148.689 E27.77934
G1 X79.254 Y148.618 E27.81634
G1 X78.242 Y148.458 E27.85042
G1 X77.366 Y148.239 E27.88045
G1 X76.513 Y147.943 E27.91048
G1 X75.689 Y147.573 E27.94052
G1 X74.902 Y147.131 E27.97054
G1 X74.107 Y146.584 E28.00264
G1 X73.503 Y146.115 E28.02807
G1 X73.123 Y145.802 E28.04445
G1 X72.452 Y145.198 E28.07447
G1 X71.837 Y144.536 E28.10453
G1 X71.283 Y143.823 E28.13456
G1 X70.795 Y143.063 E28.1646
G1 X70.375 Y142.264 E28.19462
G1 X70.028 Y141.43 E28.22467
G1 X69.659 Y140.176 E28.26814
G1 X69.561 Y139.742 E28.28294
G1 X69.401 Y138.853 E28.31298
G1 X69.314 Y137.796 E28.34826
G1 X69.3 Y137.156 E28.36955
G1 X69.301 Y98.011 E29.67152
G1 X69.312 Y97.335 E29.69401
G1 X69.367 Y96.434 E29.72403
G1 X69.557 Y95.274 E29.76313
G1 X69.653 Y94.845 E29.77775
G1 X69.889 Y93.973 E29.80779
G1 X70.201 Y93.125 E29.83785
G1 X70.587 Y92.309 E29.86787
G1 X71.044 Y91.53 E29.89791
G1 X71.568 Y90.794 E29.92796
G1 X72.155 Y90.108 E29.95799
G1 X73.037 Y89.27 E29.99845
G1 F2700 E24.99845
;MESH:landscape-half.stl
G0 F6000 X79.343 Y96.421
G0 X80.017 Y97.267
G0 X82.901 Y100.675
;TYPE:WALL-INNER
G1 F2700 E29.99845
G1 F1191.1 X83.242 Y100.248 E30.01676
G1 X83.677 Y99.901 E30.03541
G1 X82.901 Y99.901 E30.06141
G1 X82.901 Y100.675 E30.08735
G0 F6000 X82.5 Y103
G1 F1200 X82.697 Y101.926 E30.12367
G1 X83.029 Y101.15 E30.15174
G1 X83.52 Y100.538 E30.17784
G1 X83.933 Y100.207 E30.19544
G1 X84.454 Y99.928 E30.2151
G1 F1185.2 X85.182 Y99.608 E30.24188
G1 F1121.5 X85.478 Y99.522 E30.25285
G1 X85.168 Y99.505 E30.2639
G1 F1185.2 X82.5 Y99.5 E30.35374
G1 F1200 X82.5 Y103 E30.47015
G1 F2700 E25.47015
G0 F6000 X85.172 Y101.672
G0 X86.972 Y101.543
G0 X97.969 Y101.543
G0 X98.328 Y101.672
G0 X104.238 Y107.267
G0 X105.373 Y106.662
G0 X106.627 Y106.662
G0 X107.762 Y107.267
G0 X108.69 Y108.304
G0 X109.445 Y109.683
G0 X113.519 Y121.738
G0 X113.957 Y123.646
G0 X114.556 Y125.317
G0 X115.31 Y126.696
G0 X116.238 Y127.733
G0 X117.373 Y128.338
G0 X118.627 Y128.338
G0 X119.762 Y127.733
G0 X125.672 Y133.328
G0 X127.471 Y133.453
G0 X134.672 Y133.328
G0 X140.116 Y134.518
G0 X152.9 Y135.9
G1 F2700 E30.47015
G1 F1200 X152.9 Y99.1 E31.69413
G1 X82.1 Y99.1 E34.04894
G1 X82.1 Y135.9 E35.27292
G1 X152.9 Y135.9 E37.62774
G0 F6000 X153.3 Y136.3
G1 F1200 X153.3 Y98.7 E38.87832
G1 X81.7 Y98.7 E41.25974
G1 X81.7 Y136.3 E42.51032
G1 X153.3 Y136.3 E44.89175
G0 F6000 X153.7 Y136.7
G1 F1200 X153.7 Y98.3 E46.16894
G1 X81.3 Y98.3 E48.57697
G1 X81.3 Y136.7 E49.85416
G1 X153.7 Y136.7 E52.26219
G0 F6000 X154.1 Y137.1
G1 F1200 X154.1 Y97.9 E53.56599
G1 X80.939 Y97.904 E55.99934
G1 X80.9 Y98 E56.00278
G1 X80.9 Y137 E57.29993
G1 X80.939 Y137.096 E57.30337
G1 X154.1 Y137.1 E59.73672
G1 F2700 E54.73672
G0 F6000 X80.5 Y137.123
G1 F2700 E59.73672
G1 F1200 X80.535 Y137.147 E59.73813
G1 X80.595 Y137.431 E59.74779
G1 X80.837 Y137.5 E59.75615
G1 X154.164 Y137.5 E62.19502
G1 X154.182 Y137.475 E62.19605
G1 X154.429 Y137.414 E62.20451
G1 X154.5 Y137.268 E62.20991
G1 X154.5 Y97.732 E63.52488
G1 X154.429 Y97.586 E63.53028
G1 X154.182 Y97.525 E63.53874
G1 X154.164 Y97.5 E63.53977
G1 X80.837 Y97.5 E65.97863
G1 X80.595 Y97.569 E65.987
G1 X80.535 Y97.853 E65.99666
G1 X80.5 Y97.877 E65.99807
G1 X80.5 Y137.123 E67.3034
G1 F2700 E62.3034
G0 F6000 X154.201 Y137.569
G0 X154.276 Y137.9
G1 F2700 E67.3034
G1 F1200 X154.309 Y137.855 E67.30525
G1 X154.706 Y137.761 E67.31882
G1 X154.9 Y137.359 E67.33367
G1 X154.9 Y97.641 E68.65469
G1 X154.706 Y97.239 E68.66954
G1 X154.309 Y97.145 E68.68311
G1 X154.276 Y97.1 E68.68496
G1 X80.724 Y97.1 E71.13131
G1 X80.693 Y97.144 E71.1331
G1 X80.437 Y97.167 E71.14165
G1 X80.199 Y97.356 E71.15176
G1 X80.186 Y97.695 E71.16304
G1 X80.1 Y97.754 E71.16651
G1 X80.1 Y137.246 E72.48002
G1 X80.186 Y137.305 E72.48349
G1 X80.2 Y137.644 E72.49478
G1 X80.437 Y137.833 E72.50486
G1 X80.693 Y137.856 E72.51341
G1 X80.724 Y137.9 E72.5152
G1 X154.276 Y137.9 E74.96155
G0 F6000 X154.201 Y137.569
G0 X151.323 Y135.087
G1 F1126.8 X152.087 Y135.087 E74.98861
G1 X152.087 Y134.246 E75.0184
G1 X151.715 Y134.734 E75.04013
G1 X151.323 Y135.087 E75.05882
G0 F6000 X149.678 Y135.466
G1 F1100.9 X150.332 Y135.5 E75.08256
G1 F1200 X152.5 Y135.5 E75.15467
G1 X152.5 Y132.979 E75.23852
G1 F1137.4 X152.478 Y132.523 E75.25454
G1 X152.347 Y132.954 E75.27035
G1 F1200 X151.924 Y133.77 E75.30092
G1 X151.577 Y134.244 E75.32045
G1 X151.405 Y134.46 E75.32964
G1 X150.911 Y134.908 E75.35182
G1 X150.284 Y135.255 E75.37565
G1 F1100.9 X149.678 Y135.466 E75.39892
G1 X149 Y135.5 E75.42353
G1 F1200 X147.5 Y135.5 E75.47342
G1 F1048 X146.668 Y135.443 E75.50518
G0 F6000 X146.792 Y135.003
G1 F1200 X146.081 Y134.689 E75.53103
G1 X145.508 Y134.355 E75.55309
G1 X145.072 Y133.929 E75.57336
G1 X144.774 Y133.468 E75.59162
G1 X144.596 Y133.015 E75.60781
G1 X144.486 Y132.667 E75.61995
G1 X144.422 Y132.342 E75.63096
G1 X144.4 Y132 E75.64236
G1 X144.4 Y103 E76.60691
G1 X144.422 Y102.657 E76.61834
G1 X144.486 Y102.333 E76.62932
G1 X144.596 Y101.985 E76.64146
G1 X144.774 Y101.532 E76.65765
G1 X145.072 Y101.071 E76.67591
G1 X145.509 Y100.645 E76.6962
G1 X146.16 Y100.271 E76.72118
G1 F1203 X146.792 Y99.998 E76.74402
G1 X147.051 Y99.938 E76.75284
G1 F1200 X147.5 Y99.9 E76.76782
G1 X149 Y99.9 E76.81771
G1 X149.472 Y99.941 E76.83347
G1 X150.115 Y100.106 E76.85555
G1 X150.67 Y100.409 E76.87658
G1 X151.152 Y100.846 E76.89822
G1 X151.604 Y101.47 E76.92385
G1 X151.967 Y102.175 E76.95022
G1 X152.1 Y102.999 E76.97798
G1 X152.1 Y132.001 E77.94259
G1 X152.063 Y132.451 E77.95761
G1 X151.967 Y132.827 E77.97052
G1 X151.601 Y133.535 E77.99703
G1 X151.138 Y134.166 E78.02306
G1 X150.677 Y134.583 E78.04373
G1 X150.134 Y134.884 E78.06438
G1 X149.544 Y135.054 E78.0848
G1 X149 Y135.1 E78.10296
G1 X147.5 Y135.1 E78.15285
G1 X146.792 Y135.003 E78.17662
G0 F6000 X146.901 Y134.618
G1 F1200 X146.305 Y134.361 E78.19821
G1 X145.752 Y134.038 E78.21951
G1 X145.383 Y133.678 E78.23666
G1 X145.131 Y133.287 E78.25213
G1 X144.977 Y132.892 E78.26623
G1 X144.873 Y132.565 E78.27764
G1 X144.818 Y132.29 E78.28697
G1 X144.8 Y132 E78.29663
G1 X144.8 Y103 E79.26118
G1 X144.818 Y102.71 E79.27084
G1 X144.873 Y102.435 E79.28017
G1 X144.981 Y102.096 E79.292
G1 X145.131 Y101.713 E79.30568
G1 X145.383 Y101.322 E79.32115
G1 X145.753 Y100.962 E79.33832
G1 X146.304 Y100.64 E79.35955
G1 F1203 X146.992 Y100.343 E79.38441
G1 X147.5 Y100.3 E79.40133
G1 F1200 X149 Y100.3 E79.45122
G1 X149.423 Y100.339 E79.46535
G1 X149.967 Y100.478 E79.48402
G1 X150.437 Y100.734 E79.50182
G1 X150.84 Y101.1 E79.51993
G1 X151.28 Y101.705 E79.54481
G1 X151.588 Y102.302 E79.56715
G1 X151.7 Y102.999 E79.59063
G1 X151.7 Y132.001 E80.55524
G1 X151.668 Y132.382 E80.56796
G1 X151.588 Y132.7 E80.57887
G1 X151.278 Y133.299 E80.6013
G1 X150.836 Y133.903 E80.62619
G1 X150.443 Y134.259 E80.64383
G1 X149.983 Y134.514 E80.66132
G1 X149.475 Y134.66 E80.6789
G1 X149 Y134.7 E80.69476
G1 X147.5 Y134.7 E80.74465
G1 X146.901 Y134.618 E80.76476
G0 F6000 X147.01 Y134.233
G1 F1200 X146.491 Y134.009 E80.78356
G1 X145.996 Y133.721 E80.8026
G1 X145.695 Y133.426 E80.81662
G1 X145.488 Y133.107 E80.82927
G1 X145.362 Y132.783 E80.84083
G1 X145.26 Y132.462 E80.85203
G1 X145.2 Y132.162 E80.86221
G1 X145.2 Y102.837 E81.83756
G1 X145.26 Y102.538 E81.84771
G1 X145.365 Y102.207 E81.85926
G1 X145.488 Y101.893 E81.87047
G1 X145.695 Y101.574 E81.88312
G1 X145.997 Y101.279 E81.89716
G1 X146.49 Y100.991 E81.91615
G1 F1203 X147.085 Y100.735 E81.93764
G1 X147.5 Y100.7 E81.95146
G1 F1200 X149 Y100.7 E82.00135
G1 X149.374 Y100.736 E82.01385
G1 X149.819 Y100.849 E82.02912
G1 X150.204 Y101.059 E82.0437
G1 X150.537 Y101.363 E82.0587
G1 X150.956 Y101.94 E82.08242
G1 X151.208 Y102.429 E82.10071
G1 X151.3 Y102.999 E82.11992
G1 X151.3 Y132.001 E83.08453
G1 X151.274 Y132.312 E83.09491
G1 X151.208 Y132.573 E83.10386
G1 X150.954 Y133.063 E83.12222
G1 X150.505 Y133.666 E83.14722
G1 X150.209 Y133.935 E83.16053
G1 X149.832 Y134.143 E83.17485
G1 X149.406 Y134.266 E83.1896
G1 X149 Y134.3 E83.20315
G1 X147.5 Y134.3 E83.25304
G1 X147.01 Y134.233 E83.26949
G0 F6000 X147.119 Y133.848
G1 F1200 X146.778 Y133.701 E83.28184
G1 X146.549 Y133.584 E83.29039
