;FLAVOR:Marlin
;TIME:4871
;Filament used: 4.53762m
;Layer height: 0.28
;MINX:66.5
;MINY:74.5
;MINZ:0.28
;MAXX:168.5
;MAXY:160.5
;MAXZ:11.76
;Generated with Cura_SteamEngine 5.4.0
M140 S50
M105
M190 S50
M104 S200
M105
M109 S200
M82 ;absolute extrusion mode
; Ender 3 Custom Start G-code
G92 E0 ; Reset Extruder
G28 ; Home all axes
G1 Z2.0 F3000 ; Move Z Axis up little to prevent scratching of Heat Bed
G1 X0.1 Y20 Z0.3 F5000.0 ; Move to start position
G1 X0.1 Y200.0 Z0.3 F1500.0 E15 ; Draw the first line
G1 X0.4 Y200.0 Z0.3 F5000.0 ; Move to side a little
G1 X0.4 Y20 Z0.3 F1500.0 E30 ; Draw the second line
G92 E0 ; Reset Extruder
G1 Z2.0 F3000 ; Move Z Axis up little to prevent scratching of Heat Bed
G1 X5 Y20 Z0.3 F5000.0 ; Move over to prevent blob squish
G92 E0
G92 E0
G1 F2700 E-5
;LAYER_COUNT:42
;LAYER:0
M107
G0 F6000 X69.956 Y77.513 Z0.28
;TYPE:SKIRT
G1 F2700 E0
G1 F1200 X70.692 Y76.876 E0.04532
G1 X71.424 Y76.346 E0.08741
G1 X72.321 Y75.811 E0.13604
G1 X73.199 Y75.39 E0.18138
G1 X74.112 Y75.048 E0.22678
G1 X75.049 Y74.789 E0.27204
G1 X76.016 Y74.611 E0.31783
G1 X77.155 Y74.515 E0.37105
G1 X77.812 Y74.5 E0.40165
G1 X156.804 Y74.5 E4.07985
G1 X157.684 Y74.513 E4.12083
G1 X158.656 Y74.572 E4.16618
G1 X159.619 Y74.718 E4.21153
G1 X160.566 Y74.949 E4.25692
G1 X161.454 Y75.249 E4.30056
G1 X162.346 Y75.639 E4.3459
G1 X163.229 Y76.126 E4.39285
G1 X163.98 Y76.628 E4.43491
G1 X164.795 Y77.286 E4.48369
G1 X165.493 Y77.964 E4.529
G1 X166.129 Y78.701 E4.57433
G1 X166.699 Y79.491 E4.61969
G1 X167.161 Y80.267 E4.66174
G1 X167.615 Y81.209 E4.71043
G1 X167.944 Y82.087 E4.75409
G1 X168.213 Y83.059 E4.80106
G1 X168.39 Y84.025 E4.84679
G1 X168.485 Y85.155 E4.89959
G1 X168.5 Y85.83 E4.93103
G1 X168.499 Y148.9 E7.86783
G1 X168.488 Y149.663 E7.90336
G1 X168.431 Y150.636 E7.94875
G1 X168.286 Y151.599 E7.99409
G1 X168.057 Y152.545 E8.03942
G1 X167.746 Y153.469 E8.08481
G1 X167.354 Y154.36 E8.13014
G1 X166.886 Y155.212 E8.1754
G1 X166.364 Y155.993 E8.21915
G1 X165.731 Y156.778 E8.2661
G1 X165.106 Y157.429 E8.30812
G1 X164.317 Y158.117 E8.35687
G1 X163.557 Y158.667 E8.40055
G1 X162.69 Y159.184 E8.44756
G1 X161.812 Y159.606 E8.49292
G1 X160.901 Y159.948 E8.53823
G1 X159.962 Y160.209 E8.58361
G1 X158.996 Y160.387 E8.62935
G1 X157.845 Y160.485 E8.68314
G1 X157.17 Y160.5 E8.71457
G1 X78.064 Y160.499 E12.39808
G1 X77.331 Y160.488 E12.43222
G1 X76.359 Y160.431 E12.47756
G1 X75.396 Y160.285 E12.52291
G1 X74.45 Y160.056 E12.56823
G1 X73.526 Y159.744 E12.61364
G1 X72.636 Y159.352 E12.65893
G1 X71.813 Y158.901 E12.70263
G1 X70.974 Y158.34 E12.74962
G1 X70.27 Y157.774 E12.79168
G1 X69.517 Y157.049 E12.84036
G1 X68.88 Y156.313 E12.88568
G1 X68.35 Y155.582 E12.92773
G1 X67.814 Y154.685 E12.97638
G1 X67.392 Y153.807 E13.02174
G1 X67.05 Y152.895 E13.0671
G1 X66.79 Y151.957 E13.11242
G1 X66.612 Y150.988 E13.1583
G1 X66.514 Y149.809 E13.21339
G1 X66.5 Y149.158 E13.24371
G1 X66.501 Y86.025 E16.18344
G1 X66.512 Y85.325 E16.21604
G1 X66.57 Y84.352 E16.26143
G1 X66.716 Y83.389 E16.30678
G1 X66.946 Y82.443 E16.35212
G1 X67.259 Y81.52 E16.3975
G1 X67.651 Y80.63 E16.44278
G1 X68.121 Y79.777 E16.48813
G1 X68.664 Y78.969 E16.53346
G1 X69.231 Y78.265 E16.57555
G1 X69.956 Y77.513 E16.62419
G0 F6000 X70.218 Y77.815
G1 F1200 X70.927 Y77.2 E16.6679
G1 X71.659 Y76.67 E16.70998
G1 X72.495 Y76.171 E16.75531
G1 X73.34 Y75.764 E16.79899
G1 X74.219 Y75.433 E16.84272
G1 X75.122 Y75.182 E16.88636
G1 X76.05 Y75.01 E16.93031
G1 X77.189 Y74.914 E16.98354
G1 X77.821 Y74.9 E17.01297
G1 X156.798 Y74.9 E20.69047
G1 X157.66 Y74.912 E20.73061
G1 X158.597 Y74.968 E20.77432
G1 X159.525 Y75.107 E20.81802
G1 X160.438 Y75.328 E20.86176
G1 X161.294 Y75.616 E20.90381
G1 X162.186 Y76.006 E20.94914
G1 X163.007 Y76.459 E20.9928
G1 X163.758 Y76.961 E21.03487
G1 X164.517 Y77.573 E21.08027
G1 X165.191 Y78.226 E21.12397
G1 X165.805 Y78.935 E21.16764
G1 X166.355 Y79.696 E21.21136
G1 X166.817 Y80.472 E21.25341
G1 X167.24 Y81.349 E21.29875
G1 X167.569 Y82.227 E21.34241
G1 X167.82 Y83.132 E21.38614
G1 X167.991 Y84.059 E21.43004
G1 X168.086 Y85.189 E21.48284
G1 X168.1 Y85.83 E21.51269
G1 X168.099 Y148.895 E24.44926
G1 X168.089 Y149.64 E24.48396
G1 X168.035 Y150.577 E24.52766
G1 X167.897 Y151.506 E24.57139
G1 X167.678 Y152.418 E24.61507
G1 X167.38 Y153.308 E24.65877
G1 X167.003 Y154.168 E24.70249
G1 X166.553 Y154.99 E24.74613
G1 X166.031 Y155.771 E24.78987
G1 X165.442 Y156.501 E24.83355
G1 X164.817 Y157.152 E24.87557
G1 X164.082 Y157.793 E24.92098
G1 X163.322 Y158.343 E24.96467
G1 X162.516 Y158.824 E25.00837
G1 X161.671 Y159.232 E25.05207
G1 X160.793 Y159.563 E25.09576
G1 X159.889 Y159.816 E25.13947
G1 X158.962 Y159.988 E25.18337
G1 X157.811 Y160.086 E25.23716
G1 X157.17 Y160.1 E25.26701
G1 X78.07 Y160.099 E28.95024
G1 X77.354 Y160.089 E28.98359
G1 X76.418 Y160.035 E29.02724
G1 X75.489 Y159.896 E29.07098
G1 X74.577 Y159.677 E29.11466
G1 X73.687 Y159.378 E29.15837
G1 X72.828 Y159.001 E29.20206
G1 X72.005 Y158.55 E29.24575
G1 X71.225 Y158.028 E29.28946
G1 X70.521 Y157.462 E29.33152
G1 X69.819 Y156.787 E29.37687
G1 X69.204 Y156.078 E29.42057
G1 X68.674 Y155.347 E29.46261
G1 X68.174 Y154.511 E29.50797
G1 X67.766 Y153.666 E29.55167
G1 X67.435 Y152.788 E29.59536
G1 X67.183 Y151.884 E29.63906
G1 X67.011 Y150.955 E29.68305
G1 X66.913 Y149.776 E29.73814
G1 X66.9 Y149.158 E29.76692
G1 X66.901 Y86.031 E32.70638
G1 X66.911 Y85.348 E32.73819
G1 X66.966 Y84.411 E32.78189
G1 X67.105 Y83.483 E32.82559
G1 X67.325 Y82.571 E32.86927
G1 X67.625 Y81.681 E32.913
G1 X68.002 Y80.822 E32.95668
G1 X68.453 Y80 E33.00034
G1 X68.976 Y79.22 E33.04407
G1 X69.543 Y78.516 E33.08616
G1 X70.218 Y77.815 E33.13148
G0 F6000 X70.481 Y78.117
G1 F1200 X71.162 Y77.524 E33.17352
G1 X71.894 Y76.994 E33.21561
G1 X72.669 Y76.531 E33.25764
G1 X73.482 Y76.138 E33.29969
G1 X74.327 Y75.818 E33.34176
G1 X75.196 Y75.575 E33.38378
G1 X76.084 Y75.409 E33.42585
G1 X77.223 Y75.313 E33.47907
G1 X77.83 Y75.3 E33.50734
G1 X156.793 Y75.3 E37.18419
G1 X157.637 Y75.311 E37.22349
G1 X158.539 Y75.364 E37.26557
G1 X159.432 Y75.496 E37.3076
G1 X160.31 Y75.707 E37.34965
G1 X161.166 Y75.995 E37.3917
G1 X161.993 Y76.357 E37.43374
G1 X162.785 Y76.792 E37.47581
G1 X163.536 Y77.294 E37.51788
G1 X164.239 Y77.861 E37.55993
G1 X164.889 Y78.488 E37.60198
G1 X165.481 Y79.17 E37.64404
G1 X166.011 Y79.901 E37.68608
G1 X166.473 Y80.677 E37.72813
G1 X166.866 Y81.49 E37.77018
G1 X167.184 Y82.335 E37.81222
G1 X167.427 Y83.205 E37.85428
G1 X167.592 Y84.093 E37.89634
G1 X167.687 Y85.223 E37.94914
G1 X167.7 Y85.83 E37.97741
G1 X167.699 Y148.89 E40.91375
G1 X167.69 Y149.617 E40.94761
G1 X167.639 Y150.519 E40.98967
G1 X167.508 Y151.413 E41.03175
G1 X167.299 Y152.291 E41.07377
G1 X167.013 Y153.148 E41.11584
G1 X166.652 Y153.976 E41.1579
G1 X166.22 Y154.768 E41.19991
G1 X165.719 Y155.52 E41.24199
G1 X165.153 Y156.224 E41.28405
G1 X164.528 Y156.875 E41.32607
G1 X163.847 Y157.469 E41.36815
G1 X163.116 Y158 E41.41022
G1 X162.342 Y158.464 E41.45224
G1 X161.529 Y158.858 E41.49431
G1 X160.685 Y159.178 E41.53634
G1 X159.815 Y159.423 E41.57842
G1 X158.928 Y159.589 E41.62044
G1 X157.777 Y159.687 E41.67423
G1 X157.17 Y159.7 E41.7025
G1 X78.075 Y159.699 E45.3855
G1 X77.377 Y159.69 E45.418
G1 X76.476 Y159.639 E45.46002
G1 X75.582 Y159.507 E45.5021
G1 X74.704 Y159.298 E45.54413
G1 X73.847 Y159.011 E45.58621
G1 X73.02 Y158.65 E45.62823
G1 X72.227 Y158.217 E45.6703
G1 X71.476 Y157.716 E45.71234
G1 X70.772 Y157.15 E45.7544
G1 X70.121 Y156.524 E45.79646
G1 X69.528 Y155.843 E45.8385
G1 X68.998 Y155.112 E45.88055
G1 X68.534 Y154.337 E45.92261
G1 X68.14 Y153.524 E45.96468
G1 X67.82 Y152.68 E46.00671
G1 X67.576 Y151.81 E46.04878
G1 X67.41 Y150.922 E46.09085
G1 X67.313 Y149.767 E46.14482
G1 X67.3 Y149.158 E46.17318
G1 X67.301 Y86.036 E49.11241
G1 X67.31 Y85.371 E49.14337
G1 X67.362 Y84.469 E49.18544
G1 X67.494 Y83.576 E49.22748
G1 X67.704 Y82.698 E49.26951
G1 X67.991 Y81.841 E49.3116
G1 X68.353 Y81.014 E49.35363
G1 X68.786 Y80.222 E49.39566
G1 X69.288 Y79.471 E49.43773
G1 X69.855 Y78.767 E49.47982
G1 X70.481 Y78.117 E49.52184
G1 F2700 E44.52184
;MESH:body-top-front-half.stl
G0 F6000 X77.914 Y84.835
G0 X77.914 Y85.914
G0 X86.589 Y88.54
;TYPE:WALL-INNER
G1 F2700 E49.52184
G1 F1071.4 X87.197 Y88.507 E49.55359
G1 F1179.4 X96.505 Y88.5 E49.9946
G1 F1129.4 X97.178 Y88.526 E50.02792
G1 F2700 E45.02792
G0 F6000 X114.054 Y90.71
G0 X114.588 Y90.873
G0 X115.08 Y91.136
G0 X115.51 Y91.49
G0 X115.864 Y91.92
G0 X116.127 Y92.412
G0 X116.29 Y92.946
G0 X118.71 Y114.054
G0 X118.873 Y114.588
G0 X119.136 Y115.08
G0 X119.49 Y115.51
G0 X119.92 Y115.864
G0 X120.412 Y116.127
G0 X131.588 Y118.873
G0 X132.08 Y119.136
G0 X132.51 Y119.49
G0 X132.864 Y119.92
G0 X133.127 Y120.412
G0 X135.67 Y127.454
G0 X135.661 Y141.54
G0 X135.71 Y142.054
G0 X135.873 Y142.588
G0 X136.136 Y143.08
G0 X136.49 Y143.51
G0 X136.92 Y143.864
G0 X137.412 Y144.127
G0 X137.714 Y144.218
G0 X154.9 Y146.9
G1 F2700 E50.02792
G1 F1200 X154.9 Y88.1 E52.76589
G1 X80.1 Y88.1 E56.2489
G1 X80.1 Y146.9 E58.98687
G1 X154.9 Y146.9 E62.46987
G0 F6000 X155.3 Y147.3
G1 F1200 X155.3 Y87.7 E65.2451
G1 X79.7 Y87.7 E68.76535
G1 X79.7 Y147.3 E71.54058
G1 X155.3 Y147.3 E75.06083
G0 F6000 X155.7 Y147.7
G1 F1200 X155.7 Y87.3 E77.87331
G1 X79.3 Y87.3 E81.43081
G1 X79.3 Y147.7 E84.24329
G1 X155.7 Y147.7 E87.80079
G0 F6000 X156.1 Y148.1
G1 F1200 X156.1 Y86.9 E90.65052
G1 X78.9 Y86.9 E94.24527
G1 X78.9 Y148.1 E97.095
G1 X156.1 Y148.1 E100.68976
G0 F6000 X156.5 Y148.5
G1 F1200 X156.5 Y86.5 E103.57674
G1 X78.5 Y86.5 E107.20874
G1 X78.5 Y148.5 E110.09572
G1 X156.5 Y148.5 E113.72773
G0 F6000 X156.9 Y148.9
G1 F1200 X156.9 Y86.1 E116.65196
G1 X78.1 Y86.1 E120.32122
G1 X78.1 Y148.9 E123.24545
G1 X156.9 Y148.9 E126.91471
G0 F6000 X156.63 Y148.63
G0 X151.478 Y145.699
G1 F1200 X153.7 Y145.7 E127.01817
G1 X153.7 Y143.088 E127.1398
G1 F1132.1 X153.676 Y142.585 E127.16466
G1 F1121.5 X153.696 Y141.893 E127.19915
G1 F1188.1 X153.7 Y121.495 E128.15846
G1 F1159.4 X153.686 Y120.725 E128.19558
G1 X153.7 Y119.912 E128.23477
G1 F1200 X153.7 Y115.088 E128.45939
G1 F1132.1 X153.676 Y114.585 E128.48425
G1 F1121.5 X153.696 Y113.893 E128.51874
G1 F1188.1 X153.7 Y93.495 E129.47805
G1 F1159.4 X153.686 Y92.725 E129.51517
G1 X153.7 Y91.912 E129.55436
G1 F1200 X153.7 Y89.3 E129.67598
G1 X151.478 Y89.301 E129.77945
G1 X151.84 Y89.662 E129.80325
G1 X152.092 Y89.965 E129.8216
G1 X152.391 Y90.382 E129.8455
G1 X152.704 Y90.954 E129.87586
G1 X152.981 Y91.622 E129.90953
G1 X153.098 Y92.002 E129.92805
G1 F1159.4 X153.26 Y92.745 E129.96469
G1 F1148.3 X153.287 Y93.126 E129.98328
G1 F1188.1 X153.3 Y93.495 E130.00065
G1 F1200 X153.3 Y113.505 E130.93239
G1 F1188.1 X153.287 Y113.874 E130.94976
G1 F1121.5 X153.232 Y114.547 E130.9834
G1 F1132.1 X152.981 Y115.378 E131.02625
G1 F1200 X152.704 Y116.046 E131.05992
G1 X152.521 Y116.391 E131.07811
G1 X152.149 Y116.963 E131.10988
G1 X151.707 Y117.5 E131.14227
G1 X152.149 Y118.037 E131.17465
G1 X152.521 Y118.609 E131.20642
G1 X152.704 Y118.954 E131.22461
G1 X152.981 Y119.622 E131.25828
G1 X153.098 Y120.002 E131.27679
G1 F1159.4 X153.26 Y120.745 E131.31344
G1 F1148.3 X153.287 Y121.126 E131.33203
G1 F1188.1 X153.3 Y121.495 E131.34939
G1 F1200 X153.3 Y141.505 E132.28114
G1 F1188.1 X153.287 Y141.874 E132.29851
G1 F1121.5 X153.232 Y142.547 E132.33215
G1 F1132.1 X152.981 Y143.378 E132.375
G1 F1200 X152.704 Y144.046 E132.40867
G1 X152.391 Y144.618 E132.43903
G1 X152.092 Y145.035 E132.46293
G1 X151.84 Y145.338 E132.48128
G1 X151.478 Y145.699 E132.50508
G0 F6000 X150.305 Y146.1
G1 F1200 X154.1 Y146.1 E132.68179
G1 X154.1 Y88.9 E135.34527
G1 X150.305 Y88.9 E135.52198
G1 X150.779 Y89.216 E135.5485
G1 X151.083 Y89.468 E135.56689
G1 X151.532 Y89.918 E135.59649
G1 X151.783 Y90.22 E135.61478
G1 X152.052 Y90.593 E135.63619
G1 X152.351 Y91.142 E135.6653
G1 X152.598 Y91.739 E135.69538
G1 X152.715 Y92.119 E135.7139
G1 X152.847 Y92.785 E135.74551
G1 X152.885 Y93.165 E135.76329
G1 X152.9 Y93.495 E135.77868
G1 X152.9 Y113.505 E136.71043
G1 X152.885 Y113.835 E136.72581
G1 X152.814 Y114.474 E136.75575
G1 X152.715 Y114.881 E136.77525
G1 X152.598 Y115.261 E136.79376
G1 X152.351 Y115.858 E136.82385
G1 X152.168 Y116.204 E136.84207
G1 X151.835 Y116.715 E136.87047
G1 X151.532 Y117.083 E136.89267
G1 X151.339 Y117.297 E136.90609
G1 X151.117 Y117.5 E136.9201
G1 X151.339 Y117.703 E136.9341
G1 X151.532 Y117.917 E136.94752
G1 X151.835 Y118.285 E136.96972
G1 X152.168 Y118.796 E136.99812
G1 X152.351 Y119.142 E137.01635
G1 X152.598 Y119.739 E137.04643
G1 X152.715 Y120.119 E137.06495
G1 X152.847 Y120.785 E137.09656
G1 X152.885 Y121.165 E137.11434
G1 X152.9 Y121.495 E137.12972
G1 X152.9 Y141.505 E138.06147
G1 X152.885 Y141.835 E138.07686
G1 X152.814 Y142.474 E138.10679
G1 X152.715 Y142.881 E138.1263
G1 X152.598 Y143.261 E138.14481
G1 X152.351 Y143.858 E138.1749
G1 X152.052 Y144.407 E138.20401
G1 X151.783 Y144.78 E138.22542
G1 X151.532 Y145.082 E138.2437
G1 X151.083 Y145.532 E138.27331
G1 X150.779 Y145.784 E138.29169
G1 X150.305 Y146.1 E138.31822
G0 F6000 X148.411 Y146.46
G1 F1086 X148.794 Y146.499 E138.33803
G1 F1197 X154.5 Y146.5 E138.60439
G1 F1200 X154.5 Y88.5 E141.30511
G1 X148.789 Y88.5 E141.57104
G1 F1129.4 X148.178 Y88.526 E141.60129
G1 X148.764 Y88.668 E141.63112
G1 F1200 X149.144 Y88.783 E141.64961
G1 X149.672 Y89.002 E141.67623
G1 X150.016 Y89.185 E141.69437
G1 X150.524 Y89.525 E141.72284
G1 X150.828 Y89.776 E141.74119
G1 X151.224 Y90.173 E141.7673
G1 X151.475 Y90.475 E141.78559
G1 X151.712 Y90.804 E141.80447
G1 X151.998 Y91.329 E141.83231
G1 X152.216 Y91.856 E141.85886
G1 X152.333 Y92.236 E141.87738
G1 X152.449 Y92.824 E141.90528
G1 X152.487 Y93.204 E141.92307
G1 X152.5 Y93.495 E141.93663
G1 X152.5 Y113.505 E142.86838
G1 X152.487 Y113.796 E142.88194
G1 X152.42 Y114.405 E142.91047
G1 X152.333 Y114.764 E142.92767
G1 X152.216 Y115.144 E142.94619
G1 X151.998 Y115.671 E142.97274
G1 X151.815 Y116.016 E142.99093
G1 X151.521 Y116.467 E143.016
G1 X151.224 Y116.827 E143.03773
G1 X151.054 Y117.016 E143.04957
G1 X150.827 Y117.224 E143.0639
G1 X150.491 Y117.5 E143.08415
G1 X150.827 Y117.776 E143.1044
G1 X151.054 Y117.984 E143.11873
G1 X151.224 Y118.173 E143.13057
G1 X151.521 Y118.533 E143.1523
G1 X151.815 Y118.984 E143.17737
G1 X151.998 Y119.329 E143.19555
G1 X152.216 Y119.856 E143.22211
G1 X152.333 Y120.236 E143.24062
G1 X152.449 Y120.824 E143.26853
G1 X152.487 Y121.204 E143.28631
G1 X152.5 Y121.495 E143.29988
G1 X152.5 Y141.505 E144.23163
G1 X152.487 Y141.796 E144.24519
G1 X152.42 Y142.405 E144.27372
G1 X152.333 Y142.764 E144.29092
G1 X152.216 Y143.144 E144.30943
G1 X151.998 Y143.671 E144.33599
G1 X151.712 Y144.196 E144.36383
G1 X151.475 Y144.525 E144.38271
G1 X151.224 Y144.827 E144.40099
G1 X150.828 Y145.224 E144.4271
G1 X150.524 Y145.475 E144.44546
G1 X150.019 Y145.813 E144.47376
G1 X149.676 Y145.997 E144.49188
G1 X149.15 Y146.215 E144.5184
G1 F1197 X148.769 Y146.333 E144.53701
G1 F1086 X148.411 Y146.46 E144.55656
G1 F1071.4 X147.803 Y146.493 E144.58831
G1 F1179.4 X138.495 Y146.5 E145.02932
G1 F1129.4 X137.822 Y146.474 E145.06264
G0 F6000 X137.587 Y145.185
G1 F1200 X137.207 Y145.069 E145.08114
G1 X136.891 Y144.938 E145.09707
G1 X136.546 Y144.755 E145.11525
G1 X136.241 Y144.551 E145.13234
G1 X135.794 Y144.176 E145.15951
G1 X135.379 Y143.674 E145.18984
G1 X135.245 Y143.454 E145.20183
G1 X134.991 Y142.96 E145.2277
G1 X134.777 Y142.296 E145.26018
G1 F1191.1 X134.703 Y141.662 E145.29013
G1 F1176.5 X134.704 Y121.32 E146.25628
G1 F1188.1 X134.772 Y120.757 E146.28295
G1 F1200 X134.966 Y120.088 E146.31538
G1 X135.245 Y119.546 E146.34377
G1 X135.379 Y119.326 E146.35576
G1 X135.815 Y118.799 E146.38761
G1 X136.427 Y118.307 E146.42418
G1 X137.038 Y117.992 E146.45619
G1 X137.703 Y117.776 E146.48874
G1 F1188.1 X138.319 Y117.704 E146.51791
G1 F1176.5 X147.668 Y117.702 E146.96195
G1 F1191.1 X148.304 Y117.779 E146.992
G1 F1200 X148.962 Y117.992 E147.02421
G1 X149.571 Y118.305 E147.05609
G1 X150.157 Y118.776 E147.0911
G1 X150.578 Y119.275 E147.1215
G1 X150.755 Y119.546 E147.13657
G1 X150.938 Y119.891 E147.15476
G1 X151.068 Y120.208 E147.17071
G1 X151.185 Y120.587 E147.18918
G1 X151.255 Y120.94 E147.20594
G1 X151.3 Y121.402 E147.22755
