;FLAVOR:Marlin
;TIME:3054
;Filament used: 2.90118m
;Layer height: 0.28
;MINX:85.5
;MINY:74.5
;MINZ:0.28
;MAXX:149.5
;MAXY:160.5
;MAXZ:3.92
;Generated with Cura_SteamEngine 5.4.0
M140 S50
M105
M190 S50
M104 S200
M105
M109 S200
M82 ;absolute extrusion mode
; Ender 3 Custom Start G-code
G92 E0 ; Reset Extruder
G28 ; Home all axes
G1 Z2.0 F3000 ; Move Z Axis up little to prevent scratching of Heat Bed
G1 X0.1 Y20 Z0.3 F5000.0 ; Move to start position
G1 X0.1 Y200.0 Z0.3 F1500.0 E15 ; Draw the first line
G1 X0.4 Y200.0 Z0.3 F5000.0 ; Move to side a little
G1 X0.4 Y20 Z0.3 F1500.0 E30 ; Draw the second line
G92 E0 ; Reset Extruder
G1 Z2.0 F3000 ; Move Z Axis up little to prevent scratching of Heat Bed
G1 X5 Y20 Z0.3 F5000.0 ; Move over to prevent blob squish
G92 E0
G92 E0
G1 F2700 E-5
;LAYER_COUNT:14
;LAYER:0
M107
G0 F6000 X88.231 Y78.265 Z0.28
;TYPE:SKIRT
G1 F2700 E0
G1 F1200 X88.956 Y77.513 E0.04864
G1 X89.692 Y76.876 E0.09396
G1 X90.424 Y76.346 E0.13605
G1 X91.321 Y75.811 E0.18468
G1 X92.199 Y75.39 E0.23002
G1 X93.112 Y75.048 E0.27542
G1 X94.049 Y74.789 E0.32068
G1 X95.016 Y74.611 E0.36647
G1 X96.155 Y74.515 E0.41969
G1 X96.812 Y74.5 E0.45029
G1 X137.804 Y74.5 E2.35905
G1 X138.684 Y74.513 E2.40003
G1 X139.656 Y74.572 E2.44538
G1 X140.619 Y74.718 E2.49073
G1 X141.566 Y74.949 E2.53612
G1 X142.454 Y75.249 E2.57976
G1 X143.346 Y75.639 E2.6251
G1 X144.229 Y76.126 E2.67205
G1 X144.98 Y76.628 E2.71411
G1 X145.795 Y77.286 E2.76289
G1 X146.493 Y77.964 E2.8082
G1 X147.129 Y78.701 E2.85353
G1 X147.699 Y79.491 E2.89889
G1 X148.161 Y80.267 E2.94094
G1 X148.615 Y81.209 E2.98964
G1 X148.944 Y82.087 E3.03329
G1 X149.213 Y83.059 E3.08026
G1 X149.39 Y84.025 E3.12599
G1 X149.485 Y85.155 E3.17879
G1 X149.5 Y85.83 E3.21023
G1 X149.499 Y148.9 E6.14703
G1 X149.488 Y149.663 E6.18256
G1 X149.431 Y150.636 E6.22795
G1 X149.286 Y151.599 E6.27329
G1 X149.057 Y152.545 E6.31862
G1 X148.746 Y153.469 E6.36401
G1 X148.354 Y154.36 E6.40934
G1 X147.886 Y155.212 E6.4546
G1 X147.364 Y155.993 E6.49835
G1 X146.731 Y156.778 E6.5453
G1 X146.106 Y157.429 E6.58732
G1 X145.317 Y158.117 E6.63607
G1 X144.557 Y158.667 E6.67975
G1 X143.69 Y159.184 E6.72676
G1 X142.812 Y159.606 E6.77212
G1 X141.901 Y159.948 E6.81743
G1 X140.962 Y160.209 E6.86281
G1 X139.996 Y160.387 E6.90855
G1 X138.845 Y160.485 E6.96234
G1 X138.17 Y160.5 E6.99378
G1 X97.064 Y160.499 E8.90784
G1 X96.331 Y160.488 E8.94198
G1 X95.359 Y160.431 E8.98732
G1 X94.396 Y160.285 E9.03267
G1 X93.45 Y160.056 E9.07799
G1 X92.526 Y159.744 E9.1234
G1 X91.636 Y159.352 E9.16869
G1 X90.813 Y158.901 E9.21239
G1 X89.974 Y158.34 E9.25938
G1 X89.27 Y157.774 E9.30145
G1 X88.517 Y157.049 E9.35012
G1 X87.88 Y156.313 E9.39544
G1 X87.35 Y155.582 E9.43749
G1 X86.814 Y154.685 E9.48614
G1 X86.392 Y153.807 E9.5315
G1 X86.05 Y152.895 E9.57686
G1 X85.79 Y151.957 E9.62218
G1 X85.612 Y150.988 E9.66806
G1 X85.514 Y149.809 E9.72315
G1 X85.5 Y149.158 E9.75347
G1 X85.501 Y86.025 E12.6932
G1 X85.512 Y85.325 E12.7258
G1 X85.57 Y84.352 E12.77119
G1 X85.716 Y83.389 E12.81654
G1 X85.946 Y82.443 E12.86188
G1 X86.259 Y81.52 E12.90726
G1 X86.651 Y80.63 E12.95254
G1 X87.121 Y79.777 E12.99789
G1 X87.664 Y78.969 E13.04322
G1 X88.231 Y78.265 E13.08531
G0 F6000 X88.543 Y78.516
G1 F1200 X89.218 Y77.815 E13.13063
G1 X89.927 Y77.2 E13.17433
G1 X90.659 Y76.67 E13.21641
G1 X91.495 Y76.171 E13.26175
G1 X92.34 Y75.764 E13.30542
G1 X93.219 Y75.433 E13.34916
G1 X94.122 Y75.182 E13.3928
G1 X95.05 Y75.01 E13.43675
G1 X96.189 Y74.914 E13.48997
G1 X96.821 Y74.9 E13.51941
G1 X137.798 Y74.9 E15.42747
G1 X138.66 Y74.912 E15.46761
G1 X139.597 Y74.968 E15.51132
G1 X140.525 Y75.107 E15.55501
G1 X141.438 Y75.328 E15.59875
G1 X142.294 Y75.616 E15.64081
G1 X143.186 Y76.006 E15.68614
G1 X144.007 Y76.459 E15.7298
G1 X144.758 Y76.961 E15.77186
G1 X145.517 Y77.573 E15.81726
G1 X146.191 Y78.226 E15.86096
G1 X146.805 Y78.935 E15.90464
G1 X147.355 Y79.696 E15.94836
G1 X147.817 Y80.472 E15.99041
G1 X148.24 Y81.349 E16.03575
G1 X148.569 Y82.227 E16.07941
G1 X148.82 Y83.132 E16.12314
G1 X148.991 Y84.059 E16.16703
G1 X149.086 Y85.189 E16.21984
G1 X149.1 Y85.83 E16.24969
G1 X149.099 Y148.895 E19.18626
G1 X149.089 Y149.64 E19.22095
G1 X149.035 Y150.577 E19.26466
G1 X148.897 Y151.506 E19.30839
G1 X148.678 Y152.418 E19.35206
G1 X148.38 Y153.308 E19.39577
G1 X148.003 Y154.168 E19.43949
G1 X147.553 Y154.99 E19.48313
G1 X147.031 Y155.771 E19.52687
G1 X146.442 Y156.501 E19.57055
G1 X145.817 Y157.152 E19.61257
G1 X145.082 Y157.793 E19.65798
G1 X144.322 Y158.343 E19.70166
G1 X143.516 Y158.824 E19.74537
G1 X142.671 Y159.232 E19.78906
G1 X141.793 Y159.563 E19.83275
G1 X140.889 Y159.816 E19.87647
G1 X139.962 Y159.988 E19.92037
G1 X138.811 Y160.086 E19.97416
G1 X138.17 Y160.1 E20.00401
G1 X97.07 Y160.099 E21.9178
G1 X96.354 Y160.089 E21.95114
G1 X95.418 Y160.035 E21.9948
G1 X94.489 Y159.896 E22.03854
G1 X93.577 Y159.677 E22.08221
G1 X92.687 Y159.378 E22.12593
G1 X91.828 Y159.001 E22.16961
G1 X91.005 Y158.55 E22.21331
G1 X90.225 Y158.028 E22.25701
G1 X89.521 Y157.462 E22.29908
G1 X88.819 Y156.787 E22.34442
G1 X88.204 Y156.078 E22.38813
G1 X87.674 Y155.347 E22.43017
G1 X87.174 Y154.511 E22.47553
G1 X86.766 Y153.666 E22.51922
G1 X86.435 Y152.788 E22.56292
G1 X86.183 Y151.884 E22.60661
G1 X86.011 Y150.955 E22.65061
G1 X85.913 Y149.776 E22.7057
G1 X85.9 Y149.158 E22.73448
G1 X85.901 Y86.031 E25.67394
G1 X85.911 Y85.348 E25.70574
G1 X85.966 Y84.411 E25.74945
G1 X86.105 Y83.483 E25.79314
G1 X86.325 Y82.571 E25.83683
G1 X86.625 Y81.681 E25.88056
G1 X87.002 Y80.822 E25.92424
G1 X87.453 Y80 E25.9679
G1 X87.976 Y79.22 E26.01163
G1 X88.543 Y78.516 E26.05372
G0 F6000 X88.855 Y78.767
G1 F1200 X89.481 Y78.117 E26.09574
G1 X90.162 Y77.524 E26.13779
G1 X90.894 Y76.994 E26.17987
G1 X91.669 Y76.531 E26.22191
G1 X92.482 Y76.138 E26.26395
G1 X93.327 Y75.818 E26.30603
G1 X94.196 Y75.575 E26.34804
G1 X95.084 Y75.409 E26.39011
G1 X96.223 Y75.313 E26.44333
G1 X96.83 Y75.3 E26.47161
G1 X137.793 Y75.3 E28.37901
G1 X138.637 Y75.311 E28.41832
G1 X139.539 Y75.364 E28.46039
G1 X140.432 Y75.496 E28.50243
G1 X141.31 Y75.707 E28.54447
G1 X142.166 Y75.995 E28.58653
G1 X142.993 Y76.357 E28.62856
G1 X143.785 Y76.792 E28.67064
G1 X144.536 Y77.294 E28.7127
G1 X145.239 Y77.861 E28.75476
G1 X145.889 Y78.488 E28.79681
G1 X146.481 Y79.17 E28.83886
G1 X147.011 Y79.901 E28.88091
G1 X147.473 Y80.677 E28.92296
G1 X147.866 Y81.49 E28.96501
G1 X148.184 Y82.335 E29.00705
G1 X148.427 Y83.205 E29.04911
G1 X148.592 Y84.093 E29.09116
G1 X148.687 Y85.223 E29.14397
G1 X148.7 Y85.83 E29.17224
G1 X148.699 Y148.89 E32.10858
G1 X148.69 Y149.617 E32.14243
G1 X148.639 Y150.519 E32.1845
G1 X148.508 Y151.413 E32.22657
G1 X148.299 Y152.291 E32.2686
G1 X148.013 Y153.148 E32.31067
G1 X147.652 Y153.976 E32.35273
G1 X147.22 Y154.768 E32.39474
G1 X146.719 Y155.52 E32.43681
G1 X146.153 Y156.224 E32.47887
G1 X145.528 Y156.875 E32.5209
G1 X144.847 Y157.469 E32.56297
G1 X144.116 Y158 E32.60504
G1 X143.342 Y158.464 E32.64706
G1 X142.529 Y158.858 E32.68913
G1 X141.685 Y159.178 E32.73116
G1 X140.815 Y159.423 E32.77325
G1 X139.928 Y159.589 E32.81527
G1 X138.777 Y159.687 E32.86906
G1 X138.17 Y159.7 E32.89733
G1 X97.075 Y159.699 E34.81088
G1 X96.377 Y159.69 E34.84339
G1 X95.476 Y159.639 E34.88541
G1 X94.582 Y159.507 E34.92749
G1 X93.704 Y159.298 E34.96952
G1 X92.847 Y159.011 E35.0116
G1 X92.02 Y158.65 E35.05362
G1 X91.227 Y158.217 E35.09569
G1 X90.476 Y157.716 E35.13773
G1 X89.772 Y157.15 E35.17979
G1 X89.121 Y156.524 E35.22184
G1 X88.528 Y155.843 E35.26389
G1 X87.998 Y155.112 E35.30593
G1 X87.534 Y154.337 E35.34799
G1 X87.14 Y153.524 E35.39006
G1 X86.82 Y152.68 E35.43209
G1 X86.576 Y151.81 E35.47417
G1 X86.41 Y150.922 E35.51623
G1 X86.313 Y149.767 E35.5702
G1 X86.3 Y149.158 E35.59857
G1 X86.301 Y86.036 E38.53779
G1 X86.31 Y85.371 E38.56876
G1 X86.362 Y84.469 E38.61083
G1 X86.494 Y83.576 E38.65286
G1 X86.704 Y82.698 E38.6949
G1 X86.991 Y81.841 E38.73698
G1 X87.353 Y81.014 E38.77902
G1 X87.786 Y80.222 E38.82105
G1 X88.288 Y79.471 E38.86311
G1 X88.855 Y78.767 E38.9052
G1 F2700 E33.9052
;MESH:body-top-side-half.stl
G0 F6000 X95.835 Y85.914
G0 X96.914 Y85.914
G0 X109.589 Y88.54
;TYPE:WALL-INNER
G1 F2700 E38.9052
G1 F1086 X110.495 Y88.5 E38.95187
G1 F1200 X113.505 Y88.5 E39.09202
G1 F1129.4 X114.178 Y88.526 E39.12535
G1 F2700 E34.12535
G0 F6000 X116.127 Y92.412
G0 X118.685 Y100.64
G0 X118.661 Y113.54
G0 X118.71 Y114.054
G0 X118.873 Y114.588
G0 X119.136 Y115.08
G0 X119.49 Y115.51
G0 X119.92 Y115.864
G0 X126.08 Y119.136
G0 X126.51 Y119.49
G0 X126.864 Y119.92
G0 X127.127 Y120.412
G0 X130.485 Y132.35
G0 X128.924 Y145.515
G0 X135.9 Y146.9
G1 F2700 E39.12535
G1 F1200 X135.9 Y88.1 E41.86332
G1 X99.1 Y88.1 E43.57688
G1 X99.1 Y146.9 E46.31486
G1 X135.9 Y146.9 E48.02842
G0 F6000 X136.3 Y147.3
G1 F1200 X136.3 Y87.7 E50.80364
G1 X98.7 Y87.7 E52.55446
G1 X98.7 Y147.3 E55.32968
G1 X136.3 Y147.3 E57.0805
G0 F6000 X136.7 Y147.7
G1 F1200 X136.7 Y87.3 E59.89297
G1 X98.3 Y87.3 E61.68104
G1 X98.3 Y147.7 E64.49352
G1 X136.7 Y147.7 E66.28158
G0 F6000 X137.1 Y148.1
G1 F1200 X137.1 Y86.9 E69.13131
G1 X97.9 Y86.9 E70.95663
G1 X97.9 Y148.1 E73.80635
G1 X137.1 Y148.1 E75.63167
G0 F6000 X137.5 Y148.5
G1 F1200 X137.5 Y86.5 E78.51865
G1 X97.5 Y86.5 E80.38122
G1 X97.5 Y148.5 E83.2682
G1 X137.5 Y148.5 E85.13076
G0 F6000 X137.9 Y148.9
G1 F1200 X137.9 Y86.1 E88.055
G1 X97.1 Y86.1 E89.95481
G1 X97.1 Y148.9 E92.87905
G1 X137.9 Y148.9 E94.77886
G0 F6000 X137.63 Y148.63
G0 X128.478 Y145.699
G1 F1200 X134.7 Y145.7 E95.06859
G1 X134.7 Y89.3 E97.69481
G1 X128.478 Y89.301 E97.98453
G1 X128.84 Y89.662 E98.00834
G1 X129.092 Y89.965 E98.02669
G1 X129.522 Y90.609 E98.06274
G1 X129.705 Y90.953 E98.08089
G1 X129.981 Y91.622 E98.11459
G1 X130.147 Y92.18 E98.14169
G1 X130.245 Y92.746 E98.16844
G1 X130.283 Y93.127 E98.18627
G1 X130.3 Y93.495 E98.20342
G1 X130.3 Y113.505 E99.13517
G1 X130.283 Y113.873 E99.15233
G1 X130.208 Y114.543 E99.18372
G1 X130.097 Y114.999 E99.20557
G1 X129.981 Y115.377 E99.22398
G1 X129.858 Y115.722 E99.24104
G1 X129.704 Y116.046 E99.25774
G1 X129.521 Y116.391 E99.27593
G1 X129.355 Y116.674 E99.29121
G1 X129.091 Y117.035 E99.31203
G1 X128.7 Y117.507 E99.34057
G1 X129.091 Y117.965 E99.36861
G1 X129.355 Y118.326 E99.38944
G1 X129.521 Y118.609 E99.40471
G1 X129.704 Y118.954 E99.4229
G1 X129.858 Y119.278 E99.4396
G1 X129.981 Y119.623 E99.45666
G1 X130.097 Y120.001 E99.47507
G1 X130.19 Y120.368 E99.4927
G1 X130.245 Y120.746 E99.51049
G1 X130.283 Y121.127 E99.52831
G1 X130.3 Y121.495 E99.54547
G1 X130.3 Y141.505 E100.47722
G1 X130.283 Y141.873 E100.49437
G1 X130.208 Y142.543 E100.52576
G1 X130.147 Y142.82 E100.53897
G1 X129.981 Y143.378 E100.56608
G1 X129.705 Y144.047 E100.59978
G1 X129.522 Y144.391 E100.61792
G1 X129.092 Y145.035 E100.65398
G1 X128.84 Y145.338 E100.67233
G1 X128.478 Y145.699 E100.69614
G0 F6000 X127.305 Y146.1
G1 F1200 X135.1 Y146.1 E101.0591
G1 X135.1 Y88.9 E103.72258
G1 X127.305 Y88.9 E104.08554
G1 X127.779 Y89.216 E104.11207
G1 X128.083 Y89.468 E104.13046
G1 X128.532 Y89.918 E104.16006
G1 X128.783 Y90.22 E104.17834
G1 X129.169 Y90.796 E104.21063
G1 X129.351 Y91.141 E104.22879
G1 X129.599 Y91.739 E104.25894
G1 X129.759 Y92.278 E104.28512
G1 X129.847 Y92.785 E104.30908
G1 X129.885 Y93.166 E104.32691
G1 X129.9 Y93.495 E104.34224
G1 X129.9 Y113.505 E105.27399
G1 X129.885 Y113.834 E105.28933
G1 X129.814 Y114.474 E105.31931
G1 X129.715 Y114.882 E105.33886
G1 X129.598 Y115.26 E105.35729
G1 X129.489 Y115.569 E105.37254
G1 X129.351 Y115.859 E105.3875
G1 X129.168 Y116.204 E105.40568
G1 X129.02 Y116.457 E105.41933
G1 X128.783 Y116.78 E105.43799
G1 X128.532 Y117.083 E105.45631
G1 X128.339 Y117.297 E105.46973
G1 X128.117 Y117.5 E105.48373
G1 X128.339 Y117.703 E105.49774
G1 X128.532 Y117.917 E105.51116
G1 X128.783 Y118.22 E105.52948
G1 X129.02 Y118.543 E105.54814
G1 X129.168 Y118.796 E105.56178
G1 X129.351 Y119.141 E105.57997
G1 X129.489 Y119.431 E105.59492
G1 X129.598 Y119.74 E105.61018
G1 X129.715 Y120.118 E105.62861
G1 X129.798 Y120.447 E105.6444
G1 X129.847 Y120.785 E105.66031
G1 X129.885 Y121.166 E105.67814
G1 X129.9 Y121.495 E105.69347
G1 X129.9 Y141.505 E106.62522
G1 X129.885 Y141.834 E106.64056
G1 X129.814 Y142.474 E106.67054
G1 X129.759 Y142.722 E106.68237
G1 X129.599 Y143.261 E106.70855
G1 X129.351 Y143.859 E106.7387
G1 X129.169 Y144.204 E106.75686
G1 X128.783 Y144.78 E106.78914
G1 X128.532 Y145.082 E106.80743
G1 X128.083 Y145.532 E106.83703
G1 X127.779 Y145.784 E106.85542
G1 X127.305 Y146.1 E106.88194
G0 F6000 X125.411 Y146.46
G1 F1086 X125.794 Y146.499 E106.90175
G1 F1197 X135.5 Y146.5 E107.35483
G1 F1200 X135.5 Y88.5 E110.05556
G1 X125.789 Y88.5 E110.50774
G1 F1129.4 X125.178 Y88.526 E110.538
G1 X125.764 Y88.668 E110.56783
G1 F1200 X126.144 Y88.783 E110.58632
G1 X126.672 Y89.002 E110.61293
G1 X127.016 Y89.185 E110.63108
G1 X127.524 Y89.525 E110.65954
G1 X127.828 Y89.776 E110.6779
G1 X128.224 Y90.173 E110.70401
G1 X128.475 Y90.475 E110.72229
G1 X128.815 Y90.984 E110.7508
G1 X128.998 Y91.328 E110.76894
G1 X129.216 Y91.857 E110.79558
G1 X129.372 Y92.376 E110.82082
G1 X129.449 Y92.824 E110.84198
G1 X129.487 Y93.205 E110.85981
G1 X129.5 Y93.495 E110.87333
G1 X129.5 Y113.505 E111.80508
G1 X129.487 Y113.795 E111.8186
G1 X129.449 Y114.176 E111.83642
G1 X129.406 Y114.475 E111.85049
G1 X129.332 Y114.765 E111.86443
G1 X129.216 Y115.143 E111.88284
G1 X129.119 Y115.415 E111.89628
G1 X128.997 Y115.671 E111.90949
G1 X128.815 Y116.016 E111.92765
G1 X128.684 Y116.24 E111.93974
G1 X128.475 Y116.524 E111.95616
G1 X128.224 Y116.827 E111.97448
G1 X128.054 Y117.016 E111.98631
G1 X127.827 Y117.224 E112.00065
G1 X127.491 Y117.5 E112.0209
G1 X127.827 Y117.776 E112.04114
G1 X128.054 Y117.984 E112.05548
G1 X128.224 Y118.173 E112.06732
G1 X128.475 Y118.476 E112.08564
G1 X128.684 Y118.76 E112.10206
G1 X128.815 Y118.984 E112.11414
G1 X128.997 Y119.329 E112.1323
G1 X129.119 Y119.585 E112.14551
G1 X129.216 Y119.857 E112.15896
G1 X129.332 Y120.235 E112.17737
G1 X129.406 Y120.525 E112.1913
G1 X129.449 Y120.824 E112.20537
G1 X129.487 Y121.205 E112.2232
G1 X129.5 Y121.495 E112.23672
G1 X129.5 Y141.505 E113.16846
G1 X129.487 Y141.795 E113.18198
G1 X129.408 Y142.505 E113.21525
G1 X129.216 Y143.143 E113.24627
G1 X128.998 Y143.672 E113.27291
G1 X128.815 Y144.016 E113.29106
G1 X128.475 Y144.525 E113.31956
G1 X128.224 Y144.827 E113.33784
G1 X127.828 Y145.224 E113.36395
G1 X127.524 Y145.475 E113.38231
G1 X127.019 Y145.813 E113.41061
G1 X126.676 Y145.997 E113.42873
G1 X126.15 Y146.215 E113.45524
G1 F1197 X125.769 Y146.333 E113.47386
G1 F1086 X125.411 Y146.46 E113.49341
G1 F1071.4 X124.803 Y146.493 E113.52516
G1 F1176.5 X121.496 Y146.5 E113.68223
G1 F1126.8 X120.822 Y146.474 E113.71568
G0 F6000 X121.402 Y145.3
G1 F1200 X120.94 Y145.255 E113.73729
G1 X120.587 Y145.185 E113.75405
G1 X120.207 Y145.069 E113.77255
G1 X119.891 Y144.938 E113.78848
G1 X119.546 Y144.755 E113.80667
G1 X119.241 Y144.551 E113.82375
G1 X118.794 Y144.176 E113.85092
G1 X118.379 Y143.674 E113.88125
G1 X118.245 Y143.454 E113.89324
G1 X117.991 Y142.96 E113.91911
G1 X117.777 Y142.296 E113.95159
G1 F1191.1 X117.703 Y141.662 E113.98154
G1 F1176.5 X117.704 Y121.32 E114.94769
G1 F1188.1 X117.772 Y120.757 E114.97436
G1 F1200 X117.966 Y120.088 E115.0068
G1 X118.245 Y119.546 E115.03518
G1 X118.379 Y119.326 E115.04718
G1 X118.807 Y118.808 E115.07847
G1 X119.326 Y118.379 E115.10982
G1 X119.546 Y118.245 E115.12181
G1 X120.04 Y117.991 E115.14768
G1 X120.704 Y117.777 E115.18016
G1 F1191.1 X121.338 Y117.703 E115.21011
G1 F1179.4 X124.668 Y117.702 E115.36788
G1 F1191.1 X125.304 Y117.779 E115.39794
G1 F1200 X125.962 Y117.992 E115.43014
G1 X126.571 Y118.305 E115.46202
G1 X127.156 Y118.776 E115.497
G1 X127.64 Y119.346 E115.53182
G1 X127.994 Y119.996 E115.56628
G1 X128.223 Y120.704 E115.60093
G1 X128.3 Y121.392 E115.63316
G1 X128.3 Y141.604 E116.57432
G1 X128.229 Y142.268 E116.60541
G1 X128.069 Y142.792 E116.63093
G1 X127.938 Y143.109 E116.6469
G1 X127.755 Y143.454 E116.66508
G1 X127.551 Y143.759 E116.68217
G1 X127.3 Y144.062 E116.70049
G1 X127.062 Y144.3 E116.71616
G1 X126.759 Y144.551 E116.73448
G1 X126.456 Y144.754 E116.75147
G1 X126.112 Y144.937 E116.76961
