;FLAVOR:Marlin
;TIME:3242
;Filament used: 2.7187m
;Layer height: 0.28
;MINX:59
;MINY:77
;MINZ:0.28
;MAXX:161
;MAXY:143
;MAXZ:7.84
;Generated with Creality Slicer 4.8.2-191
M140 S50
M105
M190 S50
M104 S200
M105
M109 S200
M82 ;absolute extrusion mode

G28 ;Home

G92 E0 ;Reset Extruder
G1 Z2.0 F3000 ;Move Z Axis up
G1 X10.1 Y20 Z0.28 F5000.0 ;Move to start position
G1 X10.1 Y200.0 Z0.28 F1500.0 E15 ;Draw the first line
G1 X10.4 Y200.0 Z0.28 F5000.0 ;Move to side a little
G1 X10.4 Y20 Z0.28 F1500.0 E30 ;Draw the second line
G92 E0 ;Reset Extruder
G1 Z2.0 F3000 ;Move Z Axis up

G92 E0
G92 E0
G1 F2700 E-5
;LAYER_COUNT:28
;LAYER:0
M107
G0 F6000 X64.125 Y79.726 Z0.28
;TYPE:SKIRT
G1 F2700 E0
G1 F1200 X64.553 Y79.421 E0.02447
G1 X64.841 Y79.223 E0.04075
G1 X65.203 Y78.982 E0.061
G1 X66.005 Y78.496 E0.10466
G1 X66.846 Y78.08 E0.14835
G1 X67.719 Y77.737 E0.19203
G1 X68.618 Y77.47 E0.2357
G1 X69.163 Y77.347 E0.26171
G1 X69.451 Y77.29 E0.27538
G1 X69.745 Y77.236 E0.2893
G1 X70.169 Y77.164 E0.30933
G1 X71.1 Y77.047 E0.35302
G1 X71.701 Y77.013 E0.38105
G1 X72.02 Y77.004 E0.39591
G1 X72.33 Y77 E0.41034
G1 X147.293 Y77 E3.90094
G1 X148.149 Y77.011 E3.9408
G1 X149.241 Y77.081 E3.99175
G1 X149.512 Y77.112 E4.00445
G1 X150.439 Y77.258 E4.04815
G1 X151.349 Y77.483 E4.0918
G1 X151.98 Y77.688 E4.12269
G1 X152.587 Y77.906 E4.15272
G1 X152.941 Y78.04 E4.17035
G1 X153.197 Y78.142 E4.18318
G1 X154.052 Y78.526 E4.22682
G1 X154.872 Y78.982 E4.27051
G1 X155.65 Y79.505 E4.31417
G1 X156.381 Y80.093 E4.35785
G1 X157.228 Y80.921 E4.413
G1 X157.587 Y81.312 E4.43772
G1 X157.845 Y81.604 E4.45586
G1 X158.122 Y81.928 E4.47571
G1 X158.7 Y82.666 E4.51936
G1 X159.214 Y83.451 E4.56305
G1 X159.659 Y84.277 E4.60674
G1 X160.032 Y85.137 E4.65039
G1 X160.401 Y86.286 E4.70659
G1 X160.53 Y86.778 E4.73027
G1 X160.604 Y87.076 E4.74457
G1 X160.704 Y87.506 E4.76512
G1 X160.877 Y88.428 E4.80881
G1 X160.985 Y89.676 E4.86714
G1 X160.995 Y90.018 E4.88307
G1 X161 Y90.34 E4.89806
G1 X160.999 Y129.418 E6.7177
G1 X160.989 Y130.145 E6.75155
G1 X160.936 Y131.082 E6.79525
G1 X160.751 Y132.276 E6.85151
G1 X160.684 Y132.592 E6.86656
G1 X160.563 Y133.101 E6.89092
G1 X160.403 Y133.711 E6.92028
G1 X160.127 Y134.607 E6.96394
G1 X159.775 Y135.476 E7.0076
G1 X159.35 Y136.313 E7.05131
G1 X158.856 Y137.11 E7.09497
G1 X158.118 Y138.075 E7.15154
G1 X157.772 Y138.479 E7.17631
G1 X157.545 Y138.736 E7.19227
G1 X157.276 Y139.031 E7.21086
G1 X156.639 Y139.675 E7.25304
G1 X155.926 Y140.285 E7.29673
G1 X155.165 Y140.832 E7.34037
G1 X154.359 Y141.312 E7.38406
G1 X153.19 Y141.858 E7.44413
G1 X152.691 Y142.056 E7.46913
G1 X152.399 Y142.166 E7.48366
G1 X152.001 Y142.311 E7.50339
G1 X151.107 Y142.595 E7.54706
G1 X150.192 Y142.801 E7.59074
G1 X148.929 Y142.954 E7.64998
G1 X148.723 Y142.967 E7.65959
G1 X148.366 Y142.984 E7.67623
G1 X148.006 Y142.995 E7.693
G1 X147.67 Y143 E7.70865
G1 X72.537 Y142.999 E11.20716
G1 X71.827 Y142.988 E11.24022
G1 X70.89 Y142.933 E11.28393
G1 X70.324 Y142.861 E11.31049
G1 X70.129 Y142.831 E11.31968
G1 X69.69 Y142.754 E11.34043
G1 X69.189 Y142.656 E11.36421
G1 X68.277 Y142.437 E11.40788
G1 X67.387 Y142.141 E11.45155
G1 X66.526 Y141.771 E11.49519
G1 X65.699 Y141.328 E11.53888
G1 X65.213 Y141.023 E11.56559
G1 X64.766 Y140.726 E11.59058
G1 X64.463 Y140.517 E11.60772
G1 X64.124 Y140.275 E11.62712
G1 X63.384 Y139.698 E11.67081
G1 X62.697 Y139.06 E11.71447
G1 X62.066 Y138.366 E11.75814
G1 X61.497 Y137.621 E11.8018
G1 X60.865 Y136.602 E11.85763
G1 X60.61 Y136.136 E11.88236
G1 X60.432 Y135.796 E11.90023
G1 X60.24 Y135.414 E11.92014
G1 X59.855 Y134.559 E11.96381
G1 X59.544 Y133.674 E12.00748
G1 X59.309 Y132.766 E12.05116
G1 X59.165 Y131.935 E12.09043
G1 X59.108 Y131.488 E12.11141
G1 X59.077 Y131.211 E12.12439
G1 X59.013 Y130.293 E12.16724
G1 X59.004 Y129.969 E12.18233
G1 X59 Y129.664 E12.19654
G1 X59.001 Y90.549 E14.0179
G1 X59.011 Y89.852 E14.05035
G1 X59.054 Y89.03 E14.08868
G1 X59.065 Y88.907 E14.09443
G1 X59.116 Y88.447 E14.11598
G1 X59.163 Y88.091 E14.1327
G1 X59.325 Y87.168 E14.17634
G1 X59.565 Y86.261 E14.22003
G1 X59.882 Y85.378 E14.26371
G1 X60.241 Y84.587 E14.30416
G1 X60.485 Y84.102 E14.32944
G1 X60.65 Y83.788 E14.34596
G1 X60.847 Y83.426 E14.36515
G1 X61.33 Y82.622 E14.40882
G1 X61.88 Y81.862 E14.45251
G1 X62.492 Y81.152 E14.49615
G1 X63.163 Y80.496 E14.53985
G1 X64.125 Y79.726 E14.59723
G0 F6000 X64.357 Y80.052
G1 F1200 X64.785 Y79.747 E14.6217
G1 X65.063 Y79.556 E14.6374
G1 X65.425 Y79.315 E14.65765
G1 X66.213 Y78.838 E14.70054
G1 X67.039 Y78.432 E14.7434
G1 X67.897 Y78.099 E14.78626
G1 X68.781 Y77.841 E14.82914
G1 X69.241 Y77.74 E14.85107
G1 X69.529 Y77.683 E14.86474
G1 X69.812 Y77.631 E14.87814
G1 X70.236 Y77.559 E14.89816
G1 X71.15 Y77.444 E14.94106
G1 X71.712 Y77.413 E14.96727
G1 X72.031 Y77.404 E14.98213
G1 X72.33 Y77.4 E14.99605
G1 X147.293 Y77.4 E18.48664
G1 X148.143 Y77.411 E18.52622
G1 X149.196 Y77.479 E18.57536
G1 X149.467 Y77.51 E18.58806
G1 X150.376 Y77.654 E18.63091
G1 X151.269 Y77.877 E18.67377
G1 X151.845 Y78.065 E18.70199
G1 X152.452 Y78.283 E18.73202
G1 X152.792 Y78.412 E18.74895
G1 X153.048 Y78.514 E18.76178
G1 X153.888 Y78.891 E18.80466
G1 X154.692 Y79.34 E18.84754
G1 X155.454 Y79.858 E18.89044
G1 X156.168 Y80.439 E18.9333
G1 X156.933 Y81.192 E18.98329
G1 X157.292 Y81.583 E19.008
G1 X157.541 Y81.864 E19.02549
G1 X157.818 Y82.188 E19.04533
G1 X158.385 Y82.913 E19.08819
G1 X158.887 Y83.685 E19.13107
G1 X159.321 Y84.497 E19.17394
G1 X159.682 Y85.344 E19.21682
G1 X160.014 Y86.388 E19.26783
G1 X160.143 Y86.88 E19.29151
G1 X160.214 Y87.167 E19.30528
G1 X160.314 Y87.597 E19.32583
G1 X160.484 Y88.502 E19.36871
G1 X160.585 Y89.688 E19.42414
G1 X160.595 Y90.03 E19.44007
G1 X160.6 Y90.34 E19.45451
G1 X160.599 Y129.413 E21.27391
G1 X160.589 Y130.14 E21.30776
G1 X160.536 Y131.059 E21.35063
G1 X160.359 Y132.193 E21.40407
G1 X160.292 Y132.509 E21.41911
G1 X160.176 Y132.999 E21.44256
G1 X160.016 Y133.609 E21.47192
G1 X159.744 Y134.489 E21.51481
G1 X159.397 Y135.342 E21.55769
G1 X158.977 Y136.161 E21.60055
G1 X158.487 Y136.941 E21.64344
G1 X157.814 Y137.815 E21.69481
G1 X157.468 Y138.219 E21.71958
G1 X157.25 Y138.466 E21.73492
G1 X156.981 Y138.761 E21.75351
G1 X156.366 Y139.382 E21.7942
G1 X155.666 Y139.981 E21.8371
G1 X154.917 Y140.516 E21.87996
G1 X154.124 Y140.984 E21.92284
G1 X153.042 Y141.486 E21.97838
G1 X152.543 Y141.684 E22.00338
G1 X152.263 Y141.791 E22.01734
G1 X151.865 Y141.936 E22.03706
G1 X150.987 Y142.213 E22.07993
G1 X150.088 Y142.413 E22.12281
G1 X148.904 Y142.555 E22.17834
G1 X148.698 Y142.568 E22.18795
G1 X148.354 Y142.584 E22.20399
G1 X147.994 Y142.595 E22.22076
G1 X147.67 Y142.6 E22.23585
G1 X72.543 Y142.599 E25.73408
G1 X71.833 Y142.588 E25.76714
G1 X70.914 Y142.534 E25.81001
G1 X70.385 Y142.466 E25.83484
G1 X70.19 Y142.436 E25.84403
G1 X69.767 Y142.362 E25.86402
G1 X69.266 Y142.264 E25.88779
G1 X68.371 Y142.048 E25.93067
G1 X67.498 Y141.755 E25.97355
G1 X66.654 Y141.388 E26.0164
G1 X65.845 Y140.949 E26.05926
G1 X65.435 Y140.69 E26.08184
G1 X64.988 Y140.393 E26.10683
G1 X64.695 Y140.191 E26.1234
G1 X64.356 Y139.949 E26.1428
G1 X63.631 Y139.382 E26.18565
G1 X62.957 Y138.755 E26.22852
G1 X62.341 Y138.071 E26.27138
G1 X61.786 Y137.336 E26.31427
G1 X61.216 Y136.41 E26.3649
G1 X60.961 Y135.944 E26.38963
G1 X60.789 Y135.616 E26.40688
G1 X60.597 Y135.234 E26.42679
G1 X60.22 Y134.395 E26.46962
G1 X59.917 Y133.525 E26.51252
G1 X59.69 Y132.633 E26.55537
G1 X59.562 Y131.882 E26.59085
G1 X59.506 Y131.444 E26.61141
G1 X59.475 Y131.167 E26.62439
G1 X59.413 Y130.282 E26.6657
G1 X59.404 Y129.958 E26.68079
G1 X59.4 Y129.664 E26.69448
G1 X59.401 Y90.555 E28.51556
G1 X59.411 Y89.858 E28.54802
G1 X59.452 Y89.066 E28.58495
G1 X59.463 Y88.943 E28.5907
G1 X59.512 Y88.5 E28.61145
G1 X59.559 Y88.144 E28.62817
G1 X59.719 Y87.237 E28.67106
G1 X59.957 Y86.348 E28.71391
G1 X60.272 Y85.482 E28.75682
G1 X60.599 Y84.767 E28.79343
G1 X60.843 Y84.282 E28.81871
G1 X61.001 Y83.979 E28.83462
G1 X61.198 Y83.617 E28.85381
G1 X61.673 Y82.828 E28.8967
G1 X62.215 Y82.084 E28.93956
G1 X62.819 Y81.389 E28.98243
G1 X63.481 Y80.749 E29.02531
G1 X64.357 Y80.052 E29.07744
G0 F6000 X64.59 Y80.377
G1 F1200 X65.018 Y80.072 E29.10191
G1 X65.284 Y79.888 E29.11697
G1 X65.646 Y79.647 E29.13722
G1 X66.42 Y79.181 E29.17929
G1 X67.231 Y78.784 E29.22133
G1 X68.074 Y78.461 E29.26337
G1 X69.319 Y78.132 E29.32333
G1 X69.607 Y78.075 E29.337
G1 X69.879 Y78.025 E29.34988
G1 X70.303 Y77.953 E29.36991
G1 X71.2 Y77.841 E29.412
G1 X71.723 Y77.813 E29.43639
G1 X72.042 Y77.804 E29.45125
G1 X72.33 Y77.8 E29.46466
G1 X147.293 Y77.8 E32.95525
G1 X148.137 Y77.811 E32.99455
G1 X149.15 Y77.876 E33.04182
G1 X149.421 Y77.907 E33.05452
G1 X150.313 Y78.049 E33.09658
G1 X151.189 Y78.27 E33.13865
G1 X151.71 Y78.441 E33.16418
G1 X152.317 Y78.659 E33.19421
G1 X152.644 Y78.783 E33.2105
G1 X152.9 Y78.885 E33.22333
G1 X153.724 Y79.257 E33.26543
G1 X154.511 Y79.699 E33.30746
G1 X155.256 Y80.209 E33.3495
G1 X155.953 Y80.784 E33.39157
G1 X156.638 Y81.463 E33.43648
G1 X156.997 Y81.854 E33.4612
G1 X157.237 Y82.124 E33.47802
G1 X157.514 Y82.448 E33.49787
G1 X158.07 Y83.16 E33.53993
G1 X158.561 Y83.918 E33.58199
G1 X158.982 Y84.716 E33.624
G1 X159.332 Y85.549 E33.66607
G1 X159.627 Y86.489 E33.71195
G1 X159.756 Y86.981 E33.73563
G1 X159.825 Y87.258 E33.74892
G1 X159.925 Y87.688 E33.76948
G1 X160.09 Y88.575 E33.81149
G1 X160.186 Y89.7 E33.86407
G1 X160.196 Y90.042 E33.88
G1 X160.2 Y90.34 E33.89388
G1 X160.199 Y129.407 E35.713
G1 X160.189 Y130.134 E35.74686
G1 X160.137 Y131.036 E35.78893
G1 X159.968 Y132.11 E35.83955
G1 X159.901 Y132.426 E35.85459
G1 X159.789 Y132.898 E35.87718
G1 X159.629 Y133.508 E35.90655
G1 X159.362 Y134.37 E35.94857
G1 X159.019 Y135.206 E35.99064
G1 X158.603 Y136.008 E36.03271
G1 X158.119 Y136.77 E36.07475
G1 X157.51 Y137.555 E36.12101
G1 X157.164 Y137.959 E36.14578
G1 X156.954 Y138.197 E36.16056
G1 X156.685 Y138.492 E36.17915
G1 X156.093 Y139.09 E36.21833
G1 X155.406 Y139.676 E36.26038
G1 X154.67 Y140.199 E36.30242
G1 X153.89 Y140.656 E36.34451
G1 X152.895 Y141.114 E36.39552
G1 X152.396 Y141.312 E36.42051
G1 X152.126 Y141.415 E36.43397
G1 X151.728 Y141.56 E36.4537
G1 X150.866 Y141.831 E36.49577
G1 X149.984 Y142.025 E36.53782
G1 X148.878 Y142.156 E36.58968
G1 X148.672 Y142.169 E36.59929
G1 X148.342 Y142.184 E36.61467
G1 X147.982 Y142.195 E36.63145
G1 X147.67 Y142.2 E36.64598
G1 X72.549 Y142.199 E40.14392
G1 X71.839 Y142.188 E40.17699
G1 X70.937 Y142.134 E40.21906
G1 X70.446 Y142.07 E40.24212
G1 X70.251 Y142.04 E40.25131
G1 X69.844 Y141.969 E40.27055
G1 X69.343 Y141.871 E40.29432
G1 X68.465 Y141.659 E40.33638
G1 X67.61 Y141.37 E40.3784
G1 X66.783 Y141.006 E40.42047
G1 X65.656 Y140.357 E40.48103
G1 X65.209 Y140.06 E40.50602
G1 X64.928 Y139.866 E40.52192
G1 X64.589 Y139.624 E40.54132
G1 X63.878 Y139.067 E40.58337
G1 X63.219 Y138.45 E40.62541
G1 X62.617 Y137.776 E40.66749
G1 X62.077 Y137.052 E40.70955
G1 X61.567 Y136.218 E40.75507
G1 X61.312 Y135.752 E40.7798
G1 X61.146 Y135.437 E40.79638
G1 X60.954 Y135.055 E40.81629
G1 X60.585 Y134.231 E40.85833
G1 X60.29 Y133.377 E40.9004
G1 X60.071 Y132.501 E40.94245
G1 X59.958 Y131.828 E40.97422
G1 X59.903 Y131.399 E40.99436
G1 X59.872 Y131.122 E41.00734
G1 X59.813 Y130.271 E41.04706
G1 X59.804 Y129.947 E41.06215
G1 X59.8 Y129.664 E41.07533
G1 X59.801 Y90.561 E42.89613
G1 X59.811 Y89.864 E42.92859
G1 X59.851 Y89.101 E42.96417
G1 X59.862 Y88.978 E42.96992
G1 X59.909 Y88.552 E42.98988
G1 X59.956 Y88.196 E43.0066
G1 X60.113 Y87.307 E43.04863
G1 X60.349 Y86.435 E43.0907
G1 X60.661 Y85.587 E43.13277
G1 X60.956 Y84.947 E43.16559
G1 X61.2 Y84.462 E43.19087
G1 X61.353 Y84.17 E43.20622
G1 X61.55 Y83.808 E43.22541
G1 X62.016 Y83.035 E43.26744
G1 X62.549 Y82.306 E43.30949
G1 X63.144 Y81.627 E43.35153
G1 X63.798 Y81.003 E43.39362
G1 X64.59 Y80.377 E43.44062
G1 F2700 E38.44062
;MESH:half-landscape.stl
G0 F6000 X110.656 Y96.901
G0 X108.077 Y94.759
G0 X111.405 Y95.51
G0 X111.938 Y96.233
G0 X113.51 Y109.554
G0 X116.421 Y102.348
G0 X117.14 Y101.037
G0 X117.988 Y100.086
G0 X118.973 Y99.562
G0 X120.027 Y99.562
G0 X121.012 Y100.086
G0 X121.86 Y101.037
G0 X122.579 Y102.348
G0 X128.421 Y117.652
G0 X129.14 Y118.963
G0 X129.988 Y119.914
G0 X130.973 Y120.438
G0 X134.295 Y120.773
G0 X137.49 Y110.446
G0 X139.072 Y125.803
G0 X141.379 Y127.8
;TYPE:WALL-INNER
G1 F2700 E43.44062
G1 F1200 X142.254 Y128.081 E43.48342
G1 X142.871 Y127.24 E43.53199
G1 X143.8 Y125.96 E43.60563
G1 X143.8 Y96.04 E44.99883
G1 X142.425 Y94.148 E45.10774
G1 X141.548 Y94.2 E45.14865
G1 X138.325 Y94.2 E45.29872
G1 X138.325 Y94.788 E45.3261
G1 X138.211 Y94.825 E45.33169
G1 X137.7 Y94.825 E45.35548
G1 X137.7 Y127.175 E46.86183
G1 X138.211 Y127.175 E46.88563
G1 X138.325 Y127.212 E46.89121
G1 X138.325 Y127.8 E46.91859
G1 X141.379 Y127.8 E47.06079
G0 F6000 X141.442 Y127.4
G1 F1200 X142.102 Y127.612 E47.09307
G1 X142.548 Y127.004 E47.12818
G1 X143.4 Y125.83 E47.19573
G1 X143.4 Y96.17 E48.57682
G1 X142.23 Y94.56 E48.6695
G1 X141.555 Y94.6 E48.70098
G1 X138.725 Y94.6 E48.83276
G1 X138.725 Y95.078 E48.85502
G1 X138.274 Y95.225 E48.8771
G1 X138.1 Y95.225 E48.88521
G1 X138.1 Y126.775 E50.35431
G1 X138.274 Y126.775 E50.36241
G1 X138.725 Y126.922 E50.3845
G1 X138.725 Y127.4 E50.40675
G1 X141.442 Y127.4 E50.53327
G0 F6000 X141.505 Y127
G1 F1200 X141.95 Y127.143 E50.55503
G1 X142.225 Y126.768 E50.57669
G1 X143 Y125.7 E50.63813
G1 X143 Y96.3 E52.00712
G1 X142.035 Y94.972 E52.08356
G1 X141.562 Y95 E52.10562
G1 X139.125 Y95 E52.2191
G1 X139.125 Y95.368 E52.23623
G1 X138.619 Y95.533 E52.26102
G1 X138.619 Y95.625 E52.2653
G1 X138.5 Y95.625 E52.27084
G1 X138.5 Y126.375 E53.70269
G1 X138.619 Y126.375 E53.70823
G1 X138.619 Y126.467 E53.71252
G1 X139.125 Y126.632 E53.7373
G1 X139.125 Y127 E53.75443
G1 X141.505 Y127 E53.86526
G0 F6000 X141.798 Y126.674
G1 F1200 X141.902 Y126.532 E53.87345
G1 X142.6 Y125.57 E53.9288
G1 X142.6 Y96.43 E55.28568
G1 X141.84 Y95.384 E55.34588
G1 X141.569 Y95.4 E55.35852
G1 X139.525 Y95.4 E55.4537
G1 X139.525 Y95.658 E55.46571
G1 X139.019 Y95.823 E55.4905
G1 X139.019 Y96.025 E55.4999
G1 X138.9 Y96.025 E55.50544
G1 X138.9 Y125.975 E56.90004
G1 X139.019 Y125.975 E56.90558
G1 X139.019 Y126.177 E56.91499
G1 X139.525 Y126.342 E56.93977
G1 X139.525 Y126.6 E56.95178
G1 X141.569 Y126.6 E57.04696
G1 X141.798 Y126.674 E57.05817
G0 F6000 X141.552 Y126.174
;TYPE:WALL-OUTER
G1 F1200 X141.645 Y126.204 E57.06272
G1 X142.2 Y125.44 E57.10669
G1 X142.2 Y96.56 E58.45146
G1 X141.645 Y95.796 E58.49543
G1 X141.575 Y95.8 E58.4987
G1 X139.925 Y95.8 E58.57553
G1 X139.925 Y95.948 E58.58242
G1 X139.419 Y96.113 E58.6072
G1 X139.419 Y96.425 E58.62173
G1 X139.3 Y96.425 E58.62727
G1 X139.3 Y125.575 E59.98462
G1 X139.419 Y125.575 E59.99016
G1 X139.419 Y125.887 E60.00469
G1 X139.925 Y126.052 E60.02947
G1 X139.925 Y126.2 E60.03636
G1 X141.548 Y126.2 E60.11193
G1 X141.552 Y126.174 E60.11316
G1 F2700 E55.11316
G0 F6000 X141.552 Y126.5
G0 X139.697 Y126.428
G0 X137.526 Y124.766
G0 X137.49 Y110.446
G0 X134.643 Y119.104
G0 X130.632 Y121.8
;TYPE:WALL-INNER
G1 F2700 E60.11316
G1 F1200 X132.368 Y121.8 E60.19399
G1 X133.866 Y120.999 E60.27309
G1 X134.98 Y119.752 E60.35095
G1 X135.824 Y118.213 E60.43269
G1 X136.468 Y116.418 E60.52149
G1 X136.927 Y114.408 E60.61749
G1 X137.208 Y112.244 E60.7191
G1 X137.3 Y110 E60.82368
G1 X137.208 Y107.756 E60.92826
G1 X136.927 Y105.592 E61.02987
G1 X136.468 Y103.582 E61.12587
G1 X135.824 Y101.787 E61.21467
G1 X134.98 Y100.248 E61.2964
G1 X133.866 Y99.001 E61.37426
G1 X132.368 Y98.2 E61.45336
G1 X130.632 Y98.2 E61.5342
G1 X129.134 Y99.001 E61.61329
G1 X128.02 Y100.248 E61.69116
G1 X127.176 Y101.787 E61.77289
G1 X126.532 Y103.582 E61.86169
G1 X126.073 Y105.592 E61.95769
G1 X125.792 Y107.756 E62.0593
G1 X125.7 Y110 E62.16388
G1 X125.792 Y112.244 E62.26846
G1 X126.073 Y114.408 E62.37007
G1 X126.532 Y116.418 E62.46607
G1 X127.176 Y118.213 E62.55487
G1 X128.02 Y119.752 E62.6366
G1 X129.134 Y120.999 E62.71446
G1 X130.632 Y121.8 E62.79356
G0 F6000 X130.732 Y121.4
G1 F1200 X132.268 Y121.4 E62.86508
G1 X133.615 Y120.68 E62.9362
G1 X134.651 Y119.52 E63.00862
G1 X135.458 Y118.048 E63.08679
G1 X136.083 Y116.305 E63.17301
