;FLAVOR:Marlin
;TIME:2446
;Filament used: 2.05748m
;Layer height: 0.28
;MINX:56
;MINY:66
;MINZ:0.28
;MAXX:164
;MAXY:154
;MAXZ:7.84
;Generated with Creality Slicer 4.8.2-191
M140 S50
M105
M190 S50
M104 S200
M105
M109 S200
M82 ;absolute extrusion mode

G28 ;Home

G92 E0 ;Reset Extruder
G1 Z2.0 F3000 ;Move Z Axis up
G1 X10.1 Y20 Z0.28 F5000.0 ;Move to start position
G1 X10.1 Y200.0 Z0.28 F1500.0 E15 ;Draw the first line
G1 X10.4 Y200.0 Z0.28 F5000.0 ;Move to side a little
G1 X10.4 Y20 Z0.28 F1500.0 E30 ;Draw the second line
G92 E0 ;Reset Extruder
G1 Z2.0 F3000 ;Move Z Axis up

G92 E0
G92 E0
G1 F2700 E-5
;LAYER_COUNT:28
;LAYER:0
M107
G0 F6000 X59.886 Y68.627 Z0.28
;TYPE:SKIRT
G1 F2700 E0
G1 F1200 X60.626 Y68.051 E0.04367
G1 X61.412 Y67.539 E0.08735
G1 X62.239 Y67.097 E0.13101
G1 X63.101 Y66.727 E0.17469
G1 X63.991 Y66.431 E0.21836
G1 X64.903 Y66.213 E0.26203
G1 X65.83 Y66.072 E0.30569
G1 X66.701 Y66.013 E0.34634
G1 X67.022 Y66.004 E0.36129
G1 X67.33 Y66 E0.37563
G1 X152.293 Y66 E4.33187
G1 X153.149 Y66.011 E4.37173
G1 X154.085 Y66.065 E4.41539
G1 X155.013 Y66.197 E4.45903
G1 X155.927 Y66.409 E4.50272
G1 X156.819 Y66.698 E4.54638
G1 X157.684 Y67.061 E4.59006
G1 X158.514 Y67.497 E4.63372
G1 X159.305 Y68.002 E4.67742
G1 X160.049 Y68.573 E4.72109
G1 X160.742 Y69.205 E4.76476
G1 X161.379 Y69.893 E4.80842
G1 X161.954 Y70.634 E4.85209
G1 X162.465 Y71.42 E4.89575
G1 X162.907 Y72.248 E4.93945
G1 X163.276 Y73.11 E4.98311
G1 X163.571 Y74 E5.02677
G1 X163.789 Y74.912 E5.07044
G1 X163.929 Y75.84 E5.11414
G1 X163.987 Y76.701 E5.15432
G1 X163.996 Y77.021 E5.16923
G1 X164 Y77.33 E5.18362
G1 X163.999 Y108.415 E6.63106
G1 X163.989 Y109.145 E6.66506
G1 X163.936 Y110.081 E6.70871
G1 X163.804 Y111.01 E6.75241
G1 X163.593 Y111.923 E6.79604
G1 X163.305 Y112.816 E6.83973
G1 X162.942 Y113.681 E6.88341
G1 X162.506 Y114.511 E6.92707
G1 X162.002 Y115.302 E6.97074
G1 X161.432 Y116.047 E7.01442
G1 X160.8 Y116.74 E7.05809
G1 X160.112 Y117.377 E7.10175
G1 X159.372 Y117.953 E7.14542
G1 X158.586 Y118.464 E7.18907
G1 X158.086 Y118.742 E7.21571
G1 X157.32 Y119.143 E7.25597
G1 X155.021 Y120.386 E7.37767
G1 X152.822 Y121.657 E7.49593
G1 X150.719 Y122.954 E7.61098
G1 X148.561 Y124.369 E7.73115
G1 X146.529 Y125.787 E7.84652
G1 X144.501 Y127.288 E7.96401
G1 X142.527 Y128.839 E8.0809
G1 X140.585 Y130.455 E8.19855
G1 X138.686 Y132.127 E8.31636
G1 X136.867 Y133.821 E8.4321
G1 X135.071 Y135.595 E8.54965
G1 X133.335 Y137.408 E8.66653
G1 X131.629 Y139.293 E8.78492
G1 X129.996 Y141.204 E8.90196
G1 X128.409 Y143.17 E9.01961
G1 X126.896 Y145.159 E9.13598
G1 X125.432 Y147.199 E9.2529
G1 X124.322 Y148.843 E9.34527
G1 X123.995 Y149.311 E9.37185
G1 X123.424 Y150.055 E9.41552
G1 X122.792 Y150.748 E9.45919
G1 X122.103 Y151.384 E9.50286
G1 X121.362 Y151.959 E9.54653
G1 X120.575 Y152.469 E9.5902
G1 X119.747 Y152.91 E9.63388
G1 X118.885 Y153.279 E9.67754
G1 X117.994 Y153.573 E9.72123
G1 X117.082 Y153.791 E9.76489
G1 X116.154 Y153.929 E9.80858
G1 X115.299 Y153.987 E9.84848
G1 X114.977 Y153.996 E9.86348
G1 X114.67 Y154 E9.87778
G1 X67.565 Y153.999 E12.07119
G1 X66.867 Y153.99 E12.10369
G1 X65.931 Y153.938 E12.14734
G1 X65.002 Y153.806 E12.19103
G1 X64.088 Y153.596 E12.2347
G1 X63.195 Y153.309 E12.27838
G1 X62.33 Y152.946 E12.32206
G1 X61.499 Y152.512 E12.36571
G1 X60.708 Y152.008 E12.40939
G1 X59.963 Y151.438 E12.45307
G1 X59.269 Y150.807 E12.49674
G1 X58.632 Y150.12 E12.54037
G1 X58.055 Y149.38 E12.58406
G1 X57.543 Y148.594 E12.62774
G1 X57.1 Y147.767 E12.67143
G1 X56.729 Y146.906 E12.71508
G1 X56.433 Y146.016 E12.75876
G1 X56.214 Y145.104 E12.80243
G1 X56.073 Y144.177 E12.84609
G1 X56.013 Y143.288 E12.88758
G1 X56.004 Y142.955 E12.90309
G1 X56 Y142.658 E12.91692
G1 X56 Y111.479 E14.36875
G1 X56.007 Y109.649 E14.45396
G1 X56 Y108.724 E14.49704
G1 X56.001 Y77.525 E15.94979
G1 X56.01 Y76.86 E15.98076
G1 X56.063 Y75.924 E16.02441
G1 X56.195 Y74.995 E16.06811
G1 X56.406 Y74.081 E16.11179
G1 X56.694 Y73.189 E16.15543
G1 X57.057 Y72.324 E16.19911
G1 X57.492 Y71.493 E16.24279
G1 X57.996 Y70.703 E16.28642
G1 X58.566 Y69.958 E16.3301
G1 X59.198 Y69.264 E16.37381
G1 X59.886 Y68.627 E16.41747
G0 F6000 X60.274 Y68.823
G1 F1200 X61.01 Y68.27 E16.46034
G1 X61.791 Y67.782 E16.50322
G1 X62.611 Y67.364 E16.54607
G1 X63.465 Y67.019 E16.58896
G1 X64.345 Y66.749 E16.63182
G1 X65.245 Y66.557 E16.67468
G1 X66.159 Y66.443 E16.71757
G1 X66.712 Y66.413 E16.74335
G1 X67.033 Y66.404 E16.75831
G1 X67.33 Y66.4 E16.77214
G1 X152.293 Y66.4 E20.72837
G1 X153.143 Y66.411 E20.76795
G1 X154.062 Y66.464 E20.81082
G1 X154.973 Y66.597 E20.85369
G1 X155.869 Y66.808 E20.89655
G1 X156.743 Y67.096 E20.9394
G1 X157.59 Y67.459 E20.98231
G1 X158.401 Y67.894 E21.02516
G1 X159.171 Y68.398 E21.06801
G1 X159.895 Y68.967 E21.11089
G1 X160.567 Y69.597 E21.15378
G1 X161.182 Y70.282 E21.19665
G1 X161.735 Y71.018 E21.23952
G1 X162.222 Y71.799 E21.28237
G1 X162.639 Y72.62 E21.32525
G1 X162.984 Y73.474 E21.36814
G1 X163.253 Y74.354 E21.41099
G1 X163.445 Y75.255 E21.45388
G1 X163.558 Y76.168 E21.49672
G1 X163.587 Y76.712 E21.52209
G1 X163.596 Y77.032 E21.53699
G1 X163.6 Y77.33 E21.55087
G1 X163.599 Y108.409 E22.99804
G1 X163.589 Y109.139 E23.03203
G1 X163.536 Y110.058 E23.0749
G1 X163.404 Y110.969 E23.11776
G1 X163.194 Y111.866 E23.16066
G1 X162.906 Y112.74 E23.20351
G1 X162.543 Y113.587 E23.24642
G1 X162.109 Y114.398 E23.28925
G1 X161.606 Y115.169 E23.33211
G1 X161.037 Y115.893 E23.37499
G1 X160.408 Y116.566 E23.41789
G1 X159.723 Y117.181 E23.46075
G1 X158.987 Y117.734 E23.50362
G1 X157.901 Y118.388 E23.56265
G1 X157.096 Y118.809 E23.60495
G1 X154.837 Y120.031 E23.72454
G1 X152.618 Y121.314 E23.8439
G1 X150.469 Y122.639 E23.96145
G1 X148.358 Y124.023 E24.07899
G1 X146.308 Y125.453 E24.19538
G1 X144.262 Y126.968 E24.31392
G1 X142.266 Y128.536 E24.43212
G1 X140.331 Y130.145 E24.5493
G1 X138.432 Y131.818 E24.66714
G1 X136.561 Y133.561 E24.78621
G1 X134.784 Y135.316 E24.90251
G1 X133.032 Y137.145 E25.02044
G1 X131.344 Y139.01 E25.13757
G1 X129.679 Y140.96 E25.25697
G1 X128.095 Y142.923 E25.37442
G1 X126.585 Y144.906 E25.49048
G1 X125.091 Y146.988 E25.60981
G1 X123.99 Y148.619 E25.70144
G1 X123.668 Y149.081 E25.72766
G1 X123.107 Y149.811 E25.77053
G1 X122.484 Y150.489 E25.8134
G1 X121.805 Y151.111 E25.85628
G1 X121.075 Y151.672 E25.89915
G1 X120.299 Y152.167 E25.94201
G1 X119.482 Y152.593 E25.98492
G1 X118.632 Y152.946 E26.02777
G1 X117.755 Y153.225 E26.07063
G1 X116.856 Y153.426 E26.11352
G1 X115.944 Y153.548 E26.15637
G1 X115.288 Y153.587 E26.18697
G1 X114.966 Y153.596 E26.20196
G1 X114.67 Y153.6 E26.21575
G1 X67.57 Y153.599 E28.40892
G1 X66.872 Y153.59 E28.44143
G1 X65.953 Y153.538 E28.48429
G1 X65.042 Y153.407 E28.52714
G1 X64.146 Y153.197 E28.57
G1 X63.271 Y152.91 E28.61288
G1 X62.424 Y152.548 E28.65577
G1 X61.612 Y152.114 E28.69864
G1 X60.841 Y151.612 E28.74148
G1 X60.116 Y151.044 E28.78436
G1 X59.443 Y150.415 E28.82726
G1 X58.828 Y149.731 E28.87009
G1 X58.274 Y148.996 E28.91295
G1 X57.786 Y148.215 E28.95583
G1 X57.367 Y147.395 E28.99871
G1 X57.021 Y146.542 E29.04157
G1 X56.751 Y145.662 E29.08443
G1 X56.558 Y144.761 E29.12734
G1 X56.444 Y143.848 E29.17018
G1 X56.413 Y143.277 E29.19681
G1 X56.404 Y142.944 E29.21232
G1 X56.4 Y142.658 E29.22564
G1 X56.4 Y111.48 E30.67742
G1 X56.407 Y109.646 E30.76282
G1 X56.4 Y108.721 E30.80589
G1 X56.401 Y77.531 E32.25823
G1 X56.41 Y76.866 E32.2892
G1 X56.462 Y75.946 E32.3321
G1 X56.594 Y75.035 E32.37497
G1 X56.805 Y74.139 E32.41783
G1 X57.092 Y73.264 E32.46071
G1 X57.455 Y72.418 E32.50357
G1 X57.889 Y71.606 E32.54645
G1 X58.392 Y70.835 E32.58931
G1 X58.961 Y70.111 E32.63219
G1 X59.589 Y69.439 E32.67502
G1 X60.274 Y68.823 E32.71791
G0 F6000 X60.662 Y69.024
G1 F1200 X61.394 Y68.494 E32.76
G1 X62.169 Y68.031 E32.80203
G1 X62.982 Y67.638 E32.84408
G1 X63.827 Y67.318 E32.88615
G1 X64.696 Y67.075 E32.92817
G1 X65.584 Y66.909 E32.97024
G1 X66.723 Y66.813 E33.02346
G1 X67.044 Y66.804 E33.03841
G1 X67.33 Y66.8 E33.05173
G1 X152.293 Y66.8 E37.00797
G1 X153.137 Y66.811 E37.04727
G1 X154.039 Y66.864 E37.08934
G1 X154.932 Y66.996 E37.13138
G1 X155.81 Y67.207 E37.17342
G1 X156.666 Y67.495 E37.21548
G1 X157.493 Y67.857 E37.25751
G1 X158.285 Y68.292 E37.29959
G1 X159.036 Y68.794 E37.34165
G1 X159.739 Y69.361 E37.38371
G1 X160.389 Y69.988 E37.42576
G1 X160.981 Y70.67 E37.46781
G1 X161.511 Y71.401 E37.50986
G1 X161.973 Y72.177 E37.55191
G1 X162.366 Y72.99 E37.59396
G1 X162.684 Y73.835 E37.636
G1 X162.927 Y74.705 E37.67806
G1 X163.092 Y75.593 E37.72012
G1 X163.187 Y76.723 E37.77292
G1 X163.196 Y77.043 E37.78782
G1 X163.2 Y77.33 E37.80119
G1 X163.199 Y108.404 E39.24813
G1 X163.189 Y109.134 E39.28212
G1 X163.137 Y110.035 E39.32414
G1 X163.005 Y110.929 E39.36622
G1 X162.794 Y111.807 E39.40827
G1 X162.507 Y112.663 E39.45031
G1 X162.145 Y113.491 E39.49239
G1 X161.712 Y114.283 E39.53442
G1 X161.21 Y115.034 E39.57648
G1 X160.643 Y115.737 E39.61854
G1 X160.017 Y116.387 E39.66056
G1 X159.335 Y116.98 E39.70264
G1 X158.604 Y117.51 E39.74469
G1 X157.715 Y118.033 E39.79271
G1 X156.926 Y118.445 E39.83416
G1 X154.64 Y119.682 E39.95519
G1 X152.414 Y120.969 E40.07492
G1 X150.262 Y122.296 E40.19265
G1 X148.139 Y123.688 E40.31086
G1 X146.063 Y125.136 E40.42871
G1 X144.022 Y126.647 E40.54696
G1 X142.03 Y128.212 E40.66492
G1 X140.056 Y129.854 E40.78448
G1 X138.158 Y131.525 E40.90223
G1 X136.29 Y133.266 E41.02113
G1 X134.515 Y135.02 E41.13733
G1 X132.729 Y136.884 E41.25754
G1 X131.044 Y138.746 E41.37447
G1 X129.365 Y140.711 E41.49482
G1 X127.794 Y142.657 E41.61128
G1 X126.245 Y144.693 E41.7304
G1 X124.762 Y146.759 E41.84882
G1 X123.658 Y148.395 E41.94072
G1 X123.34 Y148.851 E41.96661
G1 X122.789 Y149.567 E42.00868
G1 X122.177 Y150.231 E42.05073
G1 X121.509 Y150.838 E42.09276
G1 X120.789 Y151.384 E42.13483
G1 X120.024 Y151.863 E42.17686
G1 X119.219 Y152.274 E42.21895
G1 X118.382 Y152.611 E42.26096
G1 X117.517 Y152.873 E42.30305
G1 X116.633 Y153.058 E42.3451
G1 X115.736 Y153.164 E42.38716
G1 X115.277 Y153.187 E42.40856
G1 X114.955 Y153.196 E42.42356
G1 X114.67 Y153.2 E42.43683
G1 X67.575 Y153.199 E44.62977
G1 X66.877 Y153.19 E44.66228
G1 X65.976 Y153.139 E44.7043
G1 X65.082 Y153.007 E44.74638
G1 X64.204 Y152.798 E44.7884
G1 X63.347 Y152.511 E44.83049
G1 X62.52 Y152.15 E44.87251
G1 X61.727 Y151.717 E44.91458
G1 X60.976 Y151.216 E44.95661
G1 X60.272 Y150.65 E44.99868
G1 X59.621 Y150.024 E45.04073
G1 X59.028 Y149.343 E45.08278
G1 X58.498 Y148.612 E45.12482
G1 X58.034 Y147.837 E45.16688
G1 X57.64 Y147.024 E45.20895
G1 X57.32 Y146.18 E45.25098
G1 X57.076 Y145.31 E45.29305
G1 X56.91 Y144.422 E45.33512
G1 X56.813 Y143.267 E45.38909
G1 X56.804 Y142.934 E45.4046
G1 X56.8 Y142.658 E45.41745
G1 X56.8 Y111.481 E46.86919
G1 X56.807 Y109.643 E46.95477
G1 X56.8 Y108.718 E46.99785
G1 X56.801 Y77.536 E48.44981
G1 X56.81 Y76.871 E48.48078
G1 X56.862 Y75.969 E48.52285
G1 X56.994 Y75.076 E48.56488
G1 X57.204 Y74.198 E48.60692
G1 X57.491 Y73.341 E48.649
G1 X57.853 Y72.514 E48.69104
G1 X58.286 Y71.722 E48.73307
G1 X58.788 Y70.971 E48.77513
G1 X59.355 Y70.267 E48.81722
G1 X59.981 Y69.617 E48.85924
G1 X60.662 Y69.024 E48.90129
G1 F2700 E43.90129
;MESH:half-body-top.stl
G0 F6000 X66.347 Y109.653
G0 X67.414 Y110.335
G0 X67.414 Y111.414
G0 X73.018 Y112.982
G0 X74.572 Y126.428
G0 X90.428 Y127.572
G0 X90.6 Y141.6
;TYPE:WALL-INNER
G1 F2700 E48.90129
G1 F1200 X90.6 Y127.4 E49.5625
G1 X74.4 Y127.4 E50.31684
G1 X74.4 Y141.6 E50.97805
G1 X90.6 Y141.6 E51.73239
G0 F6000 X90.2 Y141.2
;TYPE:WALL-OUTER
G1 F1200 X90.2 Y127.8 E52.35635
G1 X74.8 Y127.8 E53.07344
G1 X74.8 Y141.2 E53.6974
G1 X90.2 Y141.2 E54.41449
G0 F6000 X90.5 Y141.2
G0 X90.6 Y126.6
;TYPE:WALL-INNER
G1 F1200 X90.6 Y112.4 E55.0757
G1 X74.4 Y112.4 E55.83004
G1 X74.4 Y126.6 E56.49125
G1 X90.6 Y126.6 E57.24559
G0 F6000 X90.2 Y126.2
;TYPE:WALL-OUTER
G1 F1200 X90.2 Y112.8 E57.86955
G1 X74.8 Y112.8 E58.58664
G1 X74.8 Y126.2 E59.2106
G1 X90.2 Y126.2 E59.92769
G0 F6000 X90.5 Y126.2
G0 X91.464 Y126.405
G0 X107.6 Y126.6
;TYPE:WALL-INNER
G1 F1200 X107.6 Y112.4 E60.5889
G1 X91.4 Y112.4 E61.34324
G1 X91.4 Y126.6 E62.00445
G1 X107.6 Y126.6 E62.75879
G0 F6000 X107.2 Y126.2
;TYPE:WALL-OUTER
G1 F1200 X107.2 Y112.8 E63.38275
G1 X91.8 Y112.8 E64.09984
G1 X91.8 Y126.2 E64.7238
G1 X107.2 Y126.2 E65.44089
G0 F6000 X107.5 Y126.2
G0 X107.6 Y141.6
;TYPE:WALL-INNER
G1 F1200 X107.6 Y127.4 E66.1021
G1 X91.4 Y127.4 E66.85644
G1 X91.4 Y141.6 E67.51765
G1 X107.6 Y141.6 E68.27199
G0 F6000 X107.2 Y141.2
;TYPE:WALL-OUTER
G1 F1200 X107.2 Y127.8 E68.89595
G1 X91.8 Y127.8 E69.61304
G1 X91.8 Y141.2 E70.237
G1 X107.2 Y141.2 E70.95409
G1 F2700 E65.95409
G0 F6000 X107.5 Y141.2
G0 X74.572 Y141.428
G0 X73.2 Y141.2
;TYPE:WALL-INNER
G1 F2700 E70.95409
G1 F1200 X68.8 Y141.2 E71.15897
G1 X68.8 Y112.8 E72.4814
G1 X73.2 Y112.8 E72.68628
G1 X73.2 Y141.2 E74.0087
G0 F6000 X73.6 Y141.6
G1 F1200 X68.4 Y141.6 E74.25084
G1 X68.4 Y112.4 E75.61051
G1 X73.6 Y112.4 E75.85264
G1 X73.6 Y141.6 E77.21232
G1 F2700 E72.21232
G0 F6000 X107.428 Y141.428
G0 X113.2 Y141.2
G1 F2700 E77.21232
G1 F1200 X108.8 Y141.2 E77.4172
G1 X108.8 Y112.8 E78.73962
G1 X113.2 Y112.8 E78.94451
G1 X113.2 Y141.2 E80.26693
G0 F6000 X113.6 Y141.6
G1 F1200 X108.4 Y141.6 E80.50906
G1 X108.4 Y112.4 E81.86874
G1 X113.6 Y112.4 E82.11087
G1 X113.6 Y141.6 E83.47055
G0 F6000 X114 Y142
G1 F1200 X108 Y142 E83.74993
G1 X108 Y112 E85.14686
G1 X74 Y112
G1 X74 Y142 E86.54378
G1 X68 Y142 E86.82317
G1 X68 Y112 E88.22009
G1 X74 Y112 E88.49948
G1 X108 Y112 E90.08266
G1 X114 Y112 E90.36205
G1 X114 Y142 E91.75897
G0 F6000 X114.4 Y142.4
G1 F1200 X67.6 Y142.4 E93.93818
G1 X67.6 Y111.6 E95.37235
G1 X114.4 Y111.6 E97.55156
G1 X114.4 Y142.4 E98.98573
G0 F6000 X114.8 Y142.8
;TYPE:WALL-OUTER
G1 F1200 X67.2 Y142.8 E101.20219
G1 X67.2 Y111.2 E102.67362
G1 X114.8 Y111.2 E104.89007
G1 X114.8 Y142.8 E106.3615
G0 F6000 X114.53 Y142.53
G0 X113.09 Y140.81
G0 X112.81 Y140.81
;TYPE:SKIN
G1 F1200 X109.19 Y140.81 E106.53006
G1 X109.19 Y113.19 E107.81617
G1 X112.81 Y113.19 E107.98473
G1 X112.81 Y140.81 E109.27083
G0 F6000 X113.09 Y140.81
G0 X109.536 Y141.09
G0 X109.536 Y140.649
G1 F1200 X109.349 Y140.462 E109.28315
G0 F6000 X109.349 Y139.896
G1 F1200 X110.102 Y140.649 E109.33273
G0 F6000 X110.667 Y140.649
G1 F1200 X109.349 Y139.331 E109.41952
G0 F6000 X109.349 Y138.765
G1 F1200 X111.233 Y140.649 E109.54359
G0 F6000 X111.799 Y140.649
G1 F1200 X109.349 Y138.199 E109.70493
G0 F6000 X109.349 Y137.634
G1 F1200 X112.364 Y140.649 E109.90347
G0 F6000 X112.65 Y140.369
G1 F1200 X109.349 Y137.068 E110.12085
G0 F6000 X109.349 Y136.502
G1 F1200 X112.65 Y139.803 E110.33822
G0 F6000 X112.65 Y139.237
G1 F1200 X109.349 Y135.937 E110.55557
G0 F6000 X109.349 Y135.371
G1 F1200 X112.65 Y138.672 E110.77294
G0 F6000 X112.65 Y138.106
G1 F1200 X109.349 Y134.805 E110.99032
G0 F6000 X109.349 Y134.239
G1 F1200 X112.65 Y137.54 E111.20769
G0 F6000 X112.65 Y136.975
G1 F1200 X109.349 Y133.674 E111.42507
G0 F6000 X109.349 Y133.108
G1 F1200 X112.65 Y136.409 E111.64245
G0 F6000 X112.65 Y135.843
G1 F1200 X109.349 Y132.542 E111.85982
G0 F6000 X109.349 Y131.977
G1 F1200 X112.65 Y135.278 E112.0772
G0 F6000 X112.65 Y134.712
G1 F1200 X109.349 Y131.411 E112.29458
G0 F6000 X109.349 Y130.845
G1 F1200 X112.65 Y134.146 E112.51195
G0 F6000 X112.65 Y133.58
G1 F1200 X109.349 Y130.28 E112.7293
G0 F6000 X109.349 Y129.714
G1 F1200 X112.65 Y133.015 E112.94667
G0 F6000 X112.65 Y132.449
G1 F1200 X109.349 Y129.148 E113.16405
G0 F6000 X109.349 Y128.583
G1 F1200 X112.65 Y131.883 E113.38139
G0 F6000 X112.65 Y131.318
G1 F1200 X109.349 Y128.017 E113.59877
G0 F6000 X109.349 Y127.451
G1 F1200 X112.65 Y130.752 E113.81615
G0 F6000 X112.65 Y130.186
G1 F1200 X109.349 Y126.886 E114.03349
G0 F6000 X109.349 Y126.32
G1 F1200 X112.65 Y129.621 E114.25087
G0 F6000 X112.65 Y129.055
G1 F1200 X109.349 Y125.754 E114.46824
G0 F6000 X109.349 Y125.189
G1 F1200 X112.65 Y128.489 E114.68559
G0 F6000 X112.65 Y127.924
G1 F1200 X109.349 Y124.623 E114.90296
G0 F6000 X109.349 Y124.057
G1 F1200 X112.65 Y127.358 E115.12034
G0 F6000 X112.65 Y126.792
G1 F1200 X109.349 Y123.491 E115.33772
G0 F6000 X109.349 Y122.926
G1 F1200 X112.65 Y126.227 E115.55509
G0 F6000 X112.65 Y125.661
G1 F1200 X109.349 Y122.36 E115.77247
